; generated by PrusaSlicer 2.6.0+linux-x64-GTK3 on 2023-08-04 at 01:47:15 UTC


;
;
; 

; external perimeters extrusion width = 0.45mm
; perimeters extrusion width = 0.45mm
; infill extrusion width = 0.45mm
; solid infill extrusion width = 0.45mm
; top infill extrusion width = 0.40mm
; first layer extrusion width = 0.42mm

M73 P0 R3
M73 Q0 S3
M201 X1000 Y1000 Z200 E5000 ; sets maximum accelerations, mm/sec^2
M203 X200 Y200 Z12 E120 ; sets maximum feedrates, mm / sec
M204 S1250 T1250 ; sets acceleration (S) and retract acceleration (R), mm/sec^2
M205 X8.00 Y8.00 Z0.40 E4.50 ; sets the jerk limits, mm/sec
M205 S0 T0 ; sets the minimum extruding and travel feed rate, mm/sec
;TYPE:Custom
M862.3 P "MK3S" ; printer model check
M862.1 P0.4 ; nozzle diameter check
M115 U3.12.2 ; tell printer latest fw version
G90 ; use absolute coordinates
M83 ; extruder relative mode
M104 S215 ; set extruder temp
M140 S60 ; set bed temp
M190 S60 ; wait for bed temp
M109 S215 ; wait for extruder temp
G28 W ; home all without mesh bed level
G80 ; mesh bed leveling

G1 Z0.2 F720
G1 Y-3 F1000 ; go outside print area
G92 E0
G1 X60 E9 F1000 ; intro line
G1 X100 E12.5 F1000 ; intro line

G92 E0
M221 S95

; Don't change E values below. Excessive value can damage the printer.
M907 E430 ; set extruder motor current
G21 ; set units to millimeters
G90 ; use absolute coordinates
M83 ; use relative distances for extrusion
M900 K0.05 ; Filament gcode LA 1.5
M900 K30 ; Filament gcode LA 1.0
M107
;LAYER_CHANGE
;Z:0.2
;HEIGHT:0.2
;BEFORE_LAYER_CHANGE
G92 E0.0
;0.2


M73 P1 R3
M73 Q1 S3
G1 E-.8 F2100
M73 P3 R3
M73 Q3 S3
G1 Z.4 F720
;AFTER_LAYER_CHANGE
;0.2
G1 X109.996 Y90.553 F10800
G1 Z.2 F720
G1 E.8 F2100
M204 S800
;TYPE:Skirt/Brim
;WIDTH:0.42
G1 F1200
G1 X112.983 Y87.566 E.13245
G1 X114.931 Y86.759 E.06611
G1 X121.75 Y86.759 E.2138
G1 X123.697 Y87.566 E.06608
M73 Q4 S3
G1 X126.959 Y90.873 E.14564
M73 P4 R3
G1 X140.279 Y109.052 E.70662
G1 X140.811 Y110.68 E.0537
G1 X140.811 Y117.499 E.2138
G1 X140.004 Y119.447 E.06611
M73 Q5 S3
G1 X137.017 Y122.434 E.13245
G1 X135.069 Y123.241 E.06611
M73 P5 R3
G1 X121.031 Y123.238 E.44015
G1 X118.897 Y123.013 E.06728
G1 X117.263 Y122.564 E.05313
G1 X115.518 Y121.779 E.05999
G1 X114.727 Y121.307 E.02888
G1 X113.606 Y120.486 E.04357
G1 X112.318 Y119.25 E.05597
G1 X111.761 Y118.589 E.0271
G1 X110.735 Y117.066 E.05758
G1 X110.113 Y115.794 E.0444
G1 X109.774 Y114.882 E.03051
M73 Q6 S3
G1 X109.332 Y113.047 E.05918
G1 X109.191 Y111.383 E.05236
G1 X109.189 Y92.501 E.59203
G1 X109.973 Y90.609 E.06421
M204 S1000
M73 P6 R3
G1 X110.262 Y90.82 F10800
M204 S800
G1 F1200
G1 X113.25 Y87.832 E.13249
G1 X114.931 Y87.136 E.05705
G1 X121.75 Y87.136 E.2138
G1 X123.431 Y87.832 E.05705
M73 Q7 S3
G1 X126.655 Y91.096 E.14385
G1 X139.974 Y109.275 E.7066
M73 P7 R3
G1 X140.434 Y110.68 E.04635
G1 X140.434 Y117.499 E.2138
G1 X139.738 Y119.18 E.05705
G1 X136.75 Y122.168 E.13249
M73 Q8 S3
G1 X135.069 Y122.864 E.05705
G1 X121.047 Y122.862 E.43965
M73 P8 R3
G1 X119.419 Y122.723 E.05123
M73 P8 R2
G1 X117.603 Y122.278 E.05862
G1 X116.756 Y121.96 E.02837
M73 Q8 S2
G1 X115.501 Y121.342 E.04386
G1 X114.004 Y120.32 E.05683
G1 X113.39 Y119.795 E.02533
G1 X112.187 Y118.524 E.05487
G1 X111.393 Y117.422 E.04259
G1 X110.963 Y116.695 E.02648
G1 X110.205 Y114.992 E.05845
G1 X109.703 Y112.981 E.06499
G1 X109.568 Y111.367 E.05078
G1 X109.566 Y92.501 E.59153
G1 X110.239 Y90.875 E.05518
M204 S1000
;WIPE_START
M73 P9 R2
M73 Q9 S2
G1 F8640
G1 X112.676 Y88.412 E-.8
;WIPE_END
G1 Z.6 F720
G1 X112.735 Y92.453 F10800
G1 Z.2 F720
G1 E.8 F2100
M204 S800
G1 F1200
G1 X113.265 Y91.615 E.03109
G1 X114.2 Y90.715 E.04069
G1 X115.044 Y90.221 E.03066
G1 X116.321 Y89.845 E.04174
G1 X120.415 Y89.848 E.12836
G1 X121.282 Y90.076 E.02811
G1 X122.06 Y90.432 E.02683
G1 X123.149 Y91.309 E.04384
G1 X123.956 Y92.461 E.0441
M73 Q10 S2
G1 X124.404 Y93.859 E.04603
G1 X124.457 Y107.979 E.44273
G1 X133.428 Y107.992 E.28128
M73 P10 R2
G1 X134.605 Y108.257 E.03783
G1 X135.642 Y108.782 E.03644
G1 X136.54 Y109.566 E.03738
G1 X137.237 Y110.561 E.03809
G1 X137.71 Y111.956 E.04619
G1 X137.744 Y116.008 E.12705
G1 X137.445 Y117.148 E.03695
G1 X136.993 Y118.044 E.03147
G1 X136.061 Y119.067 E.04339
M73 Q11 S2
G1 X135.266 Y119.631 E.03056
G1 X133.404 Y120.2 E.06105
G1 X121.164 Y120.2 E.38378
G1 X119.735 Y120.072 E.04498
M73 P11 R2
G1 X118.017 Y119.598 E.05588
G1 X116.464 Y118.812 E.05457
G1 X115.439 Y118.052 E.04001
G1 X114.512 Y117.146 E.04064
G1 X113.376 Y115.555 E.0613
G1 X112.688 Y114.017 E.05283
G1 X112.364 Y112.73 E.04161
G1 X112.235 Y111.375 E.04268
G1 X112.332 Y93.536 E.55934
G1 X112.703 Y92.504 E.03439
M204 S1000
M73 P12 R2
M73 Q12 S2
G1 X113.029 Y92.694 F10800
M204 S800
G1 F1200
G1 X113.571 Y91.836 E.03182
G1 X114.443 Y91.004 E.03779
G1 X115.214 Y90.558 E.02793
G1 X116.349 Y90.222 E.03711
G1 X120.389 Y90.225 E.12667
G1 X121.168 Y90.436 E.02531
G1 X121.88 Y90.764 E.02458
G1 X122.89 Y91.584 E.04079
G1 X123.629 Y92.651 E.0407
G1 X124.036 Y93.944 E.0425
G1 X124.081 Y108.356 E.45188
G1 X133.368 Y108.365 E.29119
M73 Q13 S2
G1 X134.457 Y108.604 E.03496
M73 P13 R2
G1 X135.45 Y109.107 E.0349
G1 X136.274 Y109.834 E.03445
G1 X136.89 Y110.709 E.03355
G1 X137.333 Y111.991 E.04253
G1 X137.372 Y115.937 E.12373
G1 X137.085 Y117.032 E.03549
G1 X136.669 Y117.849 E.02875
G1 X135.796 Y118.798 E.04043
G1 X135.125 Y119.28 E.0259
G1 X133.376 Y119.823 E.05742
G1 X121.172 Y119.823 E.38265
G1 X119.817 Y119.704 E.04265
G1 X118.169 Y119.253 E.05357
G1 X116.675 Y118.499 E.05247
M73 Q14 S2
G1 X115.674 Y117.757 E.03907
G1 X114.788 Y116.889 E.03889
G1 X113.712 Y115.383 E.05803
G1 X113.05 Y113.908 E.05069
M73 P14 R2
G1 X112.733 Y112.652 E.04062
G1 X112.611 Y111.349 E.04103
G1 X112.698 Y93.631 E.55554
G1 X113.009 Y92.751 E.02926
M204 S1000
G1 X113.364 Y92.877 F10800
M204 S800
G1 F1200
G1 X113.876 Y92.059 E.03026
G1 X114.685 Y91.294 E.03491
G1 X115.382 Y90.896 E.02517
G1 X116.376 Y90.599 E.03253
G1 X120.363 Y90.602 E.12501
G1 X121.05 Y90.794 E.02237
G1 X121.699 Y91.096 E.02244
M73 Q15 S2
G1 X122.63 Y91.858 E.03772
G1 X123.301 Y92.84 E.03729
G1 X123.667 Y94.028 E.03898
G1 X123.704 Y108.733 E.46107
G1 X133.309 Y108.737 E.30116
M73 P15 R2
G1 X134.309 Y108.952 E.03207
G1 X135.258 Y109.432 E.03334
G1 X135.98 Y110.07 E.03021
G1 X136.544 Y110.861 E.03046
G1 X136.957 Y112.027 E.03878
G1 X137.001 Y115.866 E.12038
G1 X136.726 Y116.916 E.03403
G1 X136.346 Y117.653 E.026
G1 X135.533 Y118.528 E.03745
M73 Q16 S2
G1 X134.981 Y118.93 E.02141
G1 X133.346 Y119.446 E.05376
G1 X121.18 Y119.446 E.38146
G1 X119.9 Y119.336 E.04028
M73 P16 R2
G1 X118.321 Y118.907 E.0513
G1 X116.886 Y118.186 E.05035
G1 X115.928 Y117.478 E.03735
G1 X115.064 Y116.631 E.03794
G1 X114.048 Y115.211 E.05475
G1 X113.411 Y113.8 E.04854
G1 X113.103 Y112.575 E.0396
G1 X112.987 Y111.324 E.03939
G1 X113.064 Y93.727 E.55175
G1 X113.344 Y92.933 E.0264
M204 S1000
M73 P17 R2
M73 Q17 S2
G1 X113.696 Y93.055 F10800
M204 S800
G1 F1200
G1 X114.181 Y92.282 E.02861
G1 X114.926 Y91.586 E.03197
G1 X115.548 Y91.235 E.02239
G1 X116.404 Y90.976 E.02804
G1 X120.335 Y90.98 E.12325
G1 X120.93 Y91.152 E.01942
G1 X121.517 Y91.427 E.02032
G1 X122.368 Y92.13 E.03461
G1 X122.972 Y93.026 E.03388
G1 X123.298 Y94.109 E.03546
G1 X123.328 Y109.11 E.47035
G1 X133.249 Y109.11 E.31107
G1 X134.205 Y109.315 E.03066
M73 P18 R2
M73 Q18 S2
G1 X135.063 Y109.756 E.03025
G1 X135.713 Y110.337 E.02734
G1 X136.199 Y111.015 E.02616
G1 X136.58 Y112.065 E.03502
G1 X136.63 Y115.795 E.11696
G1 X136.367 Y116.8 E.03257
G1 X136.025 Y117.455 E.02317
G1 X135.271 Y118.256 E.03449
G1 X134.785 Y118.607 E.0188
G1 X133.318 Y119.069 E.04822
G1 X121.187 Y119.069 E.38036
G1 X119.981 Y118.967 E.03795
G1 X118.473 Y118.561 E.04897
G1 X117.097 Y117.873 E.04824
G1 X116.163 Y117.183 E.03641
G1 X115.34 Y116.373 E.03621
G1 X114.384 Y115.038 E.05148
G1 X113.772 Y113.691 E.04639
M73 Q19 S2
G1 X113.477 Y112.525 E.03771
G1 X113.364 Y111.298 E.03863
G1 X113.43 Y93.821 E.54798
M73 P19 R2
G1 X113.676 Y93.112 E.02353
M204 S1000
G1 X114.033 Y93.236 F10800
M204 S800
G1 F1200
G1 X114.055 Y93.17 E.00218
G1 X114.484 Y92.508 E.02473
G1 X115.165 Y91.878 E.02909
G1 X115.68 Y91.589 E.01852
G1 X116.434 Y91.353 E.02477
G1 X120.256 Y91.349 E.11984
G1 X120.81 Y91.51 E.01809
G1 X121.333 Y91.757 E.01814
G1 X122.104 Y92.402 E.03152
G1 X122.642 Y93.21 E.03044
G1 X122.928 Y94.189 E.03198
G1 X122.951 Y109.487 E.47966
G1 X133.229 Y109.487 E.32226
M73 P20 R2
M73 Q20 S2
G1 X134.057 Y109.663 E.02654
G1 X134.831 Y110.054 E.02719
G1 X135.445 Y110.604 E.02585
G1 X135.876 Y111.211 E.02334
G1 X136.214 Y112.161 E.03162
G1 X136.253 Y115.772 E.11323
G1 X136.009 Y116.68 E.02948
G1 X135.704 Y117.254 E.02038
G1 X135.011 Y117.983 E.03154
G1 X134.591 Y118.282 E.01616
G1 X133.289 Y118.692 E.0428
G1 X121.195 Y118.692 E.3792
G1 X120.062 Y118.598 E.03565
M73 P21 R2
M73 Q21 S2
G1 X118.624 Y118.215 E.04666
G1 X117.307 Y117.559 E.04613
G1 X116.418 Y116.905 E.0346
G1 X115.615 Y116.116 E.0353
G1 X114.719 Y114.865 E.04825
G1 X114.134 Y113.581 E.04424
G1 X113.846 Y112.447 E.03668
G1 X113.74 Y111.273 E.03696
G1 X113.797 Y93.915 E.54425
G1 X114.013 Y93.293 E.02064
M204 S1000
G1 X114.366 Y93.412 F10800
M204 S800
G1 F1200
G1 X114.385 Y93.355 E.00188
G1 X114.787 Y92.733 E.02322
G1 X115.402 Y92.171 E.02612
G1 X115.815 Y91.941 E.01482
G1 X116.465 Y91.73 E.02143
M73 Q22 S2
G1 X120.178 Y91.719 E.11642
G1 X120.664 Y91.858 E.01585
G1 X121.149 Y92.087 E.01682
M73 P22 R2
G1 X121.839 Y92.671 E.02834
G1 X122.31 Y93.391 E.02698
G1 X122.559 Y94.266 E.02852
G1 X122.575 Y109.864 E.48906
G1 X133.209 Y109.864 E.33342
G1 X133.953 Y110.026 E.02387
G1 X134.598 Y110.352 E.02266
G1 X135.177 Y110.87 E.02436
G1 X135.551 Y111.405 E.02047
G1 X135.848 Y112.255 E.02823
G1 X135.875 Y115.748 E.10952
G1 X135.651 Y116.558 E.02635
M73 Q23 S2
G1 X135.385 Y117.052 E.01759
G1 X134.753 Y117.707 E.02854
G1 X134.398 Y117.957 E.01361
M73 P23 R2
G1 X133.26 Y118.315 E.03741
G1 X121.202 Y118.315 E.37807
G1 X120.141 Y118.229 E.03338
G1 X118.774 Y117.869 E.04432
G1 X117.517 Y117.246 E.04399
G1 X116.652 Y116.609 E.03368
G1 X115.892 Y115.859 E.03348
G1 X115.054 Y114.691 E.04507
G1 X114.495 Y113.472 E.04205
G1 X114.215 Y112.369 E.03568
G1 X114.116 Y111.248 E.03528
G1 X114.164 Y94.006 E.54061
G1 X114.346 Y93.469 E.01778
M204 S1000
M73 P24 R2
M73 Q24 S2
G1 X114.703 Y93.591 F10800
M204 S800
G1 F1200
G1 X114.734 Y93.5 E.00301
G1 X115.088 Y92.962 E.02019
G1 X115.638 Y92.466 E.02322
G1 X115.952 Y92.293 E.01124
G1 X116.499 Y92.107 E.01812
G1 X120.102 Y92.089 E.11297
G1 X120.517 Y92.206 E.01352
G1 X120.965 Y92.417 E.01553
G1 X121.572 Y92.938 E.02508
G1 X121.977 Y93.569 E.02351
G1 X122.188 Y94.341 E.02509
G1 X122.198 Y110.242 E.49856
G1 X133.189 Y110.242 E.34462
G1 X133.808 Y110.375 E.01985
M73 P25 R2
M73 Q25 S2
G1 X134.366 Y110.65 E.01951
G1 X134.908 Y111.136 E.02283
G1 X135.225 Y111.596 E.01752
G1 X135.481 Y112.347 E.02488
G1 X135.498 Y115.722 E.10582
G1 X135.295 Y116.432 E.02315
G1 X135.068 Y116.847 E.01483
G1 X134.497 Y117.43 E.02559
G1 X134.207 Y117.631 E.01106
G1 X133.231 Y117.938 E.03208
G1 X121.21 Y117.938 E.37691
G1 X120.188 Y117.855 E.03215
G1 X118.923 Y117.522 E.04101
G1 X117.727 Y116.932 E.04181
G1 X116.907 Y116.331 E.03188
G1 X116.168 Y115.602 E.03255
G1 X115.389 Y114.516 E.04191
G1 X114.856 Y113.361 E.03988
G1 X114.589 Y112.321 E.03367
G1 X114.493 Y111.224 E.03453
G1 X114.531 Y94.099 E.53694
G1 X114.684 Y93.647 E.01496
M204 S1000
M73 P26 R2
M73 Q26 S2
G1 X115.041 Y93.769 F10800
M204 S800
G1 F1200
G1 X115.083 Y93.646 E.00408
G1 X115.387 Y93.193 E.01711
G1 X115.871 Y92.764 E.02028
G1 X116.094 Y92.642 E.00797
G1 X116.535 Y92.484 E.01469
G1 X120.029 Y92.46 E.10955
G1 X120.372 Y92.554 E.01115
G1 X120.779 Y92.746 E.01411
G1 X121.303 Y93.204 E.02182
G1 X121.622 Y93.699 E.01846
G1 X121.811 Y94.368 E.0218
G1 X121.821 Y110.619 E.50954
G1 X133.169 Y110.619 E.35581
M73 Q27 S2
G1 X133.663 Y110.724 E.01584
M73 P27 R2
G1 X134.175 Y110.976 E.01789
G1 X134.637 Y111.398 E.01962
G1 X134.898 Y111.784 E.01461
G1 X135.114 Y112.436 E.02154
G1 X135.121 Y115.694 E.10215
G1 X134.94 Y116.303 E.01992
G1 X134.753 Y116.638 E.01203
G1 X134.243 Y117.15 E.02266
G1 X134.018 Y117.304 E.00855
G1 X133.202 Y117.561 E.02682
G1 X121.218 Y117.561 E.37575
G1 X120.236 Y117.481 E.03089
G1 X119.038 Y117.162 E.03887
G1 X117.937 Y116.618 E.03851
G1 X117.142 Y116.035 E.03091
G1 X116.444 Y115.345 E.03077
M73 Q28 S2
G1 X115.723 Y114.341 E.03876
G1 X115.217 Y113.251 E.03768
G1 X114.959 Y112.242 E.03265
M73 P28 R2
G1 X114.869 Y111.2 E.03279
G1 X114.897 Y94.191 E.53331
G1 X115.022 Y93.826 E.0121
M204 S1000
G1 X115.376 Y93.942 F10800
M204 S800
G1 F1200
G1 X115.413 Y93.83 E.0037
G1 X115.658 Y93.456 E.01402
G1 X116.074 Y93.082 E.01754
G1 X116.236 Y92.992 E.00581
G1 X116.632 Y92.85 E.01319
G1 X119.957 Y92.831 E.10425
G1 X120.227 Y92.902 E.00875
G1 X120.593 Y93.075 E.01269
G1 X121.033 Y93.468 E.0185
G1 X121.268 Y93.833 E.01361
G1 X121.434 Y94.396 E.0184
G1 X121.444 Y110.996 E.52048
G1 X133.148 Y110.996 E.36697
M73 P29 R2
M73 Q29 S2
G1 X133.556 Y111.086 E.0131
G1 X133.979 Y111.3 E.01486
G1 X134.362 Y111.657 E.01642
G1 X134.568 Y111.969 E.01172
G1 X134.745 Y112.522 E.01821
G1 X134.744 Y115.664 E.09852
G1 X134.587 Y116.17 E.01661
G1 X134.439 Y116.427 E.0093
G1 X133.993 Y116.868 E.01967
G1 X133.832 Y116.975 E.00606
G1 X133.173 Y117.184 E.02168
G1 X121.226 Y117.184 E.37459
G1 X120.283 Y117.106 E.02967
M73 Q30 S2
G1 X119.188 Y116.816 E.03552
G1 X118.145 Y116.304 E.03643
G1 X117.397 Y115.757 E.02906
M73 P30 R2
G1 X116.721 Y115.088 E.02982
G1 X116.057 Y114.165 E.03565
G1 X115.577 Y113.139 E.03552
G1 X115.333 Y112.194 E.0306
G1 X115.246 Y111.192 E.03154
G1 X115.265 Y94.279 E.5303
G1 X115.357 Y93.999 E.00924
M204 S1000
G1 X115.715 Y94.117 F10800
M204 S800
G1 F1200
G1 X115.763 Y93.971 E.00482
G1 X115.93 Y93.718 E.0095
G1 X116.281 Y93.398 E.01489
G1 X116.381 Y93.34 E.00362
G1 X116.729 Y93.216 E.01158
G1 X119.888 Y93.202 E.09905
G1 X120.083 Y93.252 E.00631
G1 X120.405 Y93.404 E.01116
G1 X120.76 Y93.729 E.01509
G1 X120.916 Y93.97 E.009
G1 X121.057 Y94.426 E.01497
G1 X121.067 Y111.313 E.52948
G1 X121.321 Y111.373 E.00818
M73 P31 R2
M73 Q31 S2
G1 X133.128 Y111.373 E.3702
G1 X133.408 Y111.434 E.00899
G1 X133.783 Y111.623 E.01317
G1 X134.083 Y111.911 E.01304
G1 X134.236 Y112.149 E.00887
G1 X134.377 Y112.605 E.01497
G1 X134.367 Y115.632 E.09491
G1 X134.237 Y116.03 E.01313
G1 X134.129 Y116.212 E.00664
G1 X133.746 Y116.582 E.0167
G1 X133.65 Y116.644 E.00358
G1 X133.144 Y116.807 E.01667
G1 X121.234 Y116.807 E.37343
G1 X120.332 Y116.732 E.02838
M73 P32 R2
M73 Q32 S2
G1 X119.303 Y116.456 E.0334
G1 X118.355 Y115.99 E.03312
G1 X117.631 Y115.461 E.02811
G1 X116.998 Y114.832 E.02798
G1 X116.391 Y113.989 E.03257
G1 X115.938 Y113.027 E.03334
G1 X115.702 Y112.115 E.02954
G1 X115.623 Y111.184 E.0293
G1 X115.633 Y94.368 E.52725
G1 X115.697 Y94.174 E.00641
M204 S1000
G1 X116.055 Y94.291 F10800
M204 S800
G1 F1200
G1 X116.113 Y94.114 E.00584
G1 X116.203 Y93.979 E.00509
G1 X116.495 Y93.708 E.01249
G1 X116.826 Y93.582 E.0111
G1 X119.825 Y93.574 E.09403
G1 X119.941 Y93.602 E.00374
G1 X120.215 Y93.731 E.0095
G1 X120.484 Y93.986 E.01162
G1 X120.567 Y94.113 E.00476
G1 X120.68 Y94.457 E.01135
G1 X120.68 Y111.13 E.52277
G1 X120.708 Y111.337 E.00655
M73 P33 R2
M73 Q33 S2
G1 X120.762 Y111.452 E.00398
G1 X120.86 Y111.575 E.00493
G1 X121.033 Y111.705 E.00679
G1 X121.294 Y111.75 E.0083
G1 X133.11 Y111.75 E.37048
G1 X133.261 Y111.782 E.00484
G1 X133.584 Y111.945 E.01134
G1 X133.802 Y112.163 E.00967
G1 X133.887 Y112.292 E.00484
G1 X134 Y112.637 E.01138
G1 X134 Y115.543 E.09112
G1 X133.886 Y115.889 E.01142
G1 X133.823 Y115.99 E.00373
G1 X133.504 Y116.292 E.01377
G1 X133.113 Y116.43 E.013
G1 X121.242 Y116.43 E.37221
G1 X120.38 Y116.357 E.02712
M73 P34 R2
M73 Q34 S2
G1 X119.452 Y116.109 E.03012
G1 X118.563 Y115.675 E.03102
G1 X117.886 Y115.183 E.02624
G1 X117.275 Y114.575 E.02703
G1 X116.724 Y113.811 E.02953
G1 X116.298 Y112.914 E.03114
G1 X116.076 Y112.067 E.02745
G1 X116 Y111.176 E.02804
G1 X116 Y94.457 E.52421
G1 X116.036 Y94.348 E.0036
M204 S1000
G1 X116.384 Y94.473 F10800
M204 S800
G1 F1200
G1 X116.475 Y94.241 E.00781
