; generated by PrusaSlicer 2.7.4+win64 on 2024-06-08 at 14:14:00 UTC


;
;
; 

; external perimeters extrusion width = 0.68mm
; perimeters extrusion width = 0.68mm
; infill extrusion width = 0.68mm
; solid infill extrusion width = 0.68mm
; top infill extrusion width = 0.60mm
; first layer extrusion width = 0.65mm

; external perimeters extrusion width = 0.68mm
; perimeters extrusion width = 0.68mm
; infill extrusion width = 0.68mm
; solid infill extrusion width = 0.68mm
; top infill extrusion width = 0.60mm
; first layer extrusion width = 0.65mm

M73 P0 R56
M73 Q0 S57
M201 X1000 Y1000 Z200 E5000 ; sets maximum accelerations, mm/sec^2
M203 X200 Y200 Z12 E120 ; sets maximum feedrates, mm / sec
M204 S1250 T1250 ; sets acceleration (S) and retract acceleration (R), mm/sec^2
M205 X8.00 Y8.00 Z0.40 E4.50 ; sets the jerk limits, mm/sec
M205 S0 T0 ; sets the minimum extruding and travel feed rate, mm/sec

; printing object dog_poop_bag_holder_v6(1).stl id:0 copy 0
; stop printing object dog_poop_bag_holder_v6(1).stl id:0 copy 0
; printing object bouchon_v6_no_lettering.stl id:1 copy 0
; stop printing object bouchon_v6_no_lettering.stl id:1 copy 0

;TYPE:Custom
M862.3 P "MK3S" ; printer model check
M862.1 P0.6 ; nozzle diameter check
M115 U3.13.3 ; tell printer latest fw version
G90 ; use absolute coordinates
M83 ; extruder relative mode
M104 S230 ; set extruder temp
M140 S85 ; set bed temp
M190 S85 ; wait for bed temp
M109 S230 ; wait for extruder temp
G28 W ; home all without mesh bed level
G80 X90.8061 Y71.4516 W68.6172 H67.0666 ; mesh bed levelling

G1 Z0.2 F720
G1 Y-3 F1000 ; go outside print area
G92 E0
G1 X60 E9 F1000 ; intro line
G1 X100 E12.5 F1000 ; intro line

G92 E0
M221 S95
G21 ; set units to millimeters
G90 ; use absolute coordinates
M83 ; use relative distances for extrusion

M900 K0.04 ; Filament gcode LA 1.5
M900 K24 ; Filament gcode LA 1.0




M107
;LAYER_CHANGE
;Z:0.2
;HEIGHT:0.2
G1 E-1 F2100
G1 Z.4 F720
G1 X98.875 Y104.289 F10800
G1 Z.2 F720
G1 E1 F1500
M204 S800
;TYPE:Skirt/Brim
;WIDTH:0.65
G1 F1200
G1 X128.688 Y76.025 E2.07373
G1 X129.923 Y75.085 E.07835
G1 X131.246 Y74.245 E.07911
G1 X132.664 Y73.506 E.08072
G1 X134.155 Y72.886 E.08151
G1 X135.723 Y72.39 E.08302
G1 X137.34 Y72.032 E.0836
G1 X138.958 Y71.822 E.08236
G1 X140.618 Y71.755 E.08386
G1 X142.618 Y71.881 E.10116
G1 X143.829 Y72.049 E.06172
G1 X145.384 Y72.398 E.08045
G1 X146.802 Y72.843 E.07502
G1 X148.012 Y73.329 E.06582
G1 X149.884 Y74.278 E.10595
G1 X151.59 Y75.406 E.10324
G1 X152.594 Y76.198 E.06455
G1 X153.731 Y77.251 E.07823
G1 X154.765 Y78.384 E.07743
G1 X155.58 Y79.436 E.06718
G1 X156.823 Y81.395 E.11711
G1 X157.883 Y83.676 E.12697
G1 X158.514 Y85.639 E.10408
G1 X158.84 Y87.122 E.07665
G1 X159.051 Y88.737 E.08222
G1 X159.119 Y90.23 E.07544
G1 X159.079 Y91.511 E.06469
G1 X158.816 Y93.672 E.10989
G1 X158.484 Y95.156 E.07676
G1 X158.026 Y96.614 E.07714
G1 X157.276 Y98.404 E.09797
G1 X156.624 Y99.639 E.0705
G1 X155.89 Y100.802 E.06942
G1 X154.73 Y102.332 E.09692
G1 X153.547 Y103.605 E.08772
G1 X122.78 Y132.822 E2.14178
G1 X121.545 Y133.941 E.08413
G1 X120.253 Y134.92 E.08183
G1 X119.077 Y135.669 E.07038
G1 X117.438 Y136.522 E.09327
G1 X116.15 Y137.056 E.07038
G1 X114.608 Y137.552 E.08177
G1 X113.027 Y137.913 E.08186
G1 X111.422 Y138.134 E.08178
G1 X109.575 Y138.215 E.09332
G1 X108.183 Y138.154 E.07033
G1 X106.575 Y137.952 E.08181
G1 X104.77 Y137.552 E.09332
G1 X103.441 Y137.133 E.07034
G1 X101.94 Y136.522 E.08181
G1 X100.498 Y135.783 E.08179
G1 X99.125 Y134.92 E.08186
G1 X97.833 Y133.941 E.08183
G1 X96.632 Y132.853 E.0818
G1 X95.529 Y131.665 E.08183
G1 X94.404 Y130.199 E.09328
G1 X93.542 Y128.827 E.08179
G1 X92.802 Y127.384 E.08186
G1 X92.269 Y126.097 E.07032
G1 X91.888 Y124.921 E.0624
G1 X91.411 Y122.974 E.10119
G1 X91.19 Y121.368 E.08183
G1 X91.109 Y119.749 E.08183
G1 X91.17 Y118.129 E.08183
G1 X91.411 Y116.297 E.09327
G1 X91.772 Y114.717 E.08181
G1 X92.269 Y113.174 E.08183
G1 X92.898 Y111.68 E.08183
G1 X93.542 Y110.444 E.07035
G1 X94.404 Y109.072 E.08179
G1 X95.383 Y107.78 E.08183
G1 X96.598 Y106.449 E.09097
G1 X98.81 Y104.351 E.15389
M204 S1000
;WIPE_START
G1 F8640
G1 X98.875 Y104.289 E-.02074
G1 X101.953 Y101.371 E-.97926
;WIPE_END
G1 Z.4 F720
; printing object dog_poop_bag_holder_v6(1).stl id:0 copy 0
G1 X110.861 Y133.193 F10800
G1 Z.2 F720
G1 E1 F1500
M204 S800
;TYPE:Perimeter
;WIDTH:0.649999
G1 F1200
G1 X109.689 Y133.245 E.05922
G1 X108.503 Y133.193 E.05993
G1 X107.326 Y133.038 E.05993
G1 X106.167 Y132.781 E.05993
G1 X105.034 Y132.424 E.05996
G1 X103.937 Y131.969 E.05995
G1 X102.884 Y131.421 E.05992
G1 X101.883 Y130.783 E.05992
G1 X100.941 Y130.061 E.05991
G1 X100.097 Y129.287 E.05781
G1 X99.262 Y128.381 E.06219
G1 X98.541 Y127.441 E.0598
G1 X97.903 Y126.44 E.05992
G1 X97.355 Y125.387 E.05992
G1 X96.9 Y124.29 E.05995
G1 X96.556 Y123.198 E.05779
G1 X96.286 Y121.996 E.06219
G1 X96.132 Y120.821 E.05982
G1 X96.08 Y119.635 E.05993
G1 X96.132 Y118.449 E.05993
G1 X96.287 Y117.272 E.05993
G1 X96.543 Y116.113 E.05992
G1 X96.9 Y114.981 E.05992
G1 X97.355 Y113.884 E.05995
G1 X97.903 Y112.831 E.05992
G1 X98.541 Y111.829 E.05996
G1 X99.264 Y110.888 E.0599
G1 X100.037 Y110.043 E.05781
G1 X100.943 Y109.209 E.06216
G1 X101.883 Y108.487 E.05983
G1 X102.884 Y107.849 E.05992
G1 X103.937 Y107.301 E.05992
G1 X105.034 Y106.847 E.05993
G1 X106.167 Y106.49 E.05996
G1 X107.326 Y106.233 E.05993
G1 X108.503 Y106.078 E.05993
G1 X109.689 Y106.026 E.05993
G1 X110.875 Y106.078 E.05993
G1 X112.052 Y106.233 E.05993
G1 X113.211 Y106.49 E.05993
G1 X114.344 Y106.847 E.05996
G1 X115.44 Y107.301 E.05988
G1 X116.494 Y107.849 E.05997
G1 X117.495 Y108.487 E.05992
G1 X118.437 Y109.21 E.05994
G1 X119.312 Y110.012 E.05992
G1 X120.114 Y110.888 E.05995
G1 X120.837 Y111.829 E.0599
G1 X121.475 Y112.831 E.05996
G1 X122.023 Y113.884 E.05992
G1 X122.477 Y114.981 E.05993
G1 X122.834 Y116.113 E.05992
G1 X123.091 Y117.272 E.05993
G1 X123.246 Y118.449 E.05993
G1 X123.298 Y119.635 E.05993
G1 X123.272 Y120.228 E.02996
G1 X123.246 Y120.821 E.02996
G1 X123.091 Y121.999 E.05998
G1 X122.834 Y123.158 E.05993
G1 X122.477 Y124.29 E.05992
G1 X122.023 Y125.387 E.05993
G1 X121.475 Y126.44 E.05992
G1 X120.837 Y127.441 E.05992
G1 X120.114 Y128.383 E.05994
G1 X119.312 Y129.258 E.05992
G1 X118.437 Y130.061 E.05995
G1 X117.495 Y130.783 E.05991
G1 X116.494 Y131.421 E.05992
G1 X115.44 Y131.969 E.05997
G1 X114.344 Y132.424 E.0599
G1 X113.251 Y132.768 E.05784
G1 X112.05 Y133.038 E.06214
G1 X110.95 Y133.183 E.05601
M204 S1000
G1 X110.95 Y133.183 F10800
G1 X110.887 Y133.8
M204 S800
G1 F1200
G1 X109.689 Y133.852 E.06053
G1 X108.45 Y133.798 E.0626
G1 X107.22 Y133.636 E.06263
G1 X106.009 Y133.368 E.06261
G1 X104.826 Y132.995 E.06261
G1 X103.681 Y132.52 E.06257
G1 X102.581 Y131.947 E.06261
G1 X101.534 Y131.281 E.06264
G1 X100.551 Y130.526 E.06257
G1 X99.668 Y129.717 E.06045
G1 X98.797 Y128.773 E.06484
G1 X98.043 Y127.79 E.06254
G1 X97.377 Y126.744 E.0626
G1 X96.804 Y125.644 E.06261
G1 X96.329 Y124.498 E.06262
G1 X95.969 Y123.356 E.06044
G1 X95.688 Y122.103 E.06482
G1 X95.526 Y120.874 E.06258
G1 X95.472 Y119.635 E.0626
G1 X95.526 Y118.396 E.0626
G1 X95.688 Y117.167 E.06258
G1 X95.957 Y115.956 E.06262
G1 X96.329 Y114.773 E.0626
G1 X96.804 Y113.627 E.06262
G1 X97.377 Y112.527 E.06261
G1 X98.043 Y111.481 E.0626
G1 X98.798 Y110.497 E.06261
G1 X99.607 Y109.614 E.06045
G1 X100.552 Y108.744 E.06484
G1 X101.534 Y107.99 E.0625
G1 X102.581 Y107.323 E.06266
G1 X103.681 Y106.75 E.06261
G1 X104.826 Y106.276 E.06256
G1 X106.009 Y105.903 E.06261
G1 X107.22 Y105.634 E.06262
G1 X108.45 Y105.473 E.06262
G1 X109.689 Y105.418 E.0626
G1 X110.928 Y105.473 E.0626
G1 X112.158 Y105.634 E.06262
G1 X113.369 Y105.903 E.06262
G1 X114.551 Y106.276 E.06257
G1 X115.697 Y106.75 E.0626
G1 X116.797 Y107.323 E.06261
G1 X117.843 Y107.99 E.06262
G1 X118.827 Y108.745 E.06261
G1 X119.742 Y109.583 E.06263
G1 X120.58 Y110.497 E.06259
G1 X121.335 Y111.481 E.06261
G1 X122.001 Y112.527 E.0626
G1 X122.574 Y113.627 E.06261
G1 X123.048 Y114.773 E.0626
G1 X123.421 Y115.956 E.06261
G1 X123.69 Y117.167 E.06262
G1 X123.852 Y118.396 E.06258
G1 X123.906 Y119.635 E.0626
G1 X123.879 Y120.255 E.03133
G1 X123.852 Y120.874 E.03128
G1 X123.69 Y122.104 E.06263
G1 X123.421 Y123.315 E.06262
G1 X123.048 Y124.498 E.06261
G1 X122.574 Y125.644 E.0626
G1 X122.001 Y126.744 E.06261
G1 X121.335 Y127.79 E.0626
G1 X120.58 Y128.774 E.06261
G1 X119.742 Y129.688 E.06259
M73 Q0 S56
G1 X118.827 Y130.526 E.06263
G1 X117.843 Y131.281 E.06261
G1 X116.797 Y131.947 E.0626
G1 X115.697 Y132.52 E.06261
G1 X114.551 Y132.995 E.06262
G1 X113.41 Y133.355 E.0604
G1 X112.156 Y133.636 E.06487
G1 X110.977 Y133.792 E.06003
M204 S1000
G1 X110.977 Y133.792 F10800
G1 X110.914 Y134.406
M204 S800
;TYPE:External perimeter
G1 F1200
G1 X109.689 Y134.46 E.0619
G1 X108.397 Y134.403 E.06528
G1 X107.115 Y134.235 E.06527
G1 X105.852 Y133.955 E.0653
G1 X104.619 Y133.566 E.06526
G1 X103.424 Y133.071 E.06529
G1 X102.277 Y132.474 E.06527
G1 X101.186 Y131.779 E.0653
G1 X100.16 Y130.992 E.06527
G1 X99.239 Y130.147 E.06309
G1 X98.332 Y129.164 E.06752
G1 X97.545 Y128.138 E.06527
G1 X96.851 Y127.048 E.06523
G1 X96.253 Y125.9 E.06534
G1 X95.758 Y124.706 E.06525
G1 X95.383 Y123.514 E.06308
G1 X95.09 Y122.209 E.06751
G1 X94.921 Y120.927 E.06527
G1 X94.864 Y119.635 E.06528
G1 X94.921 Y118.343 E.06528
G1 X95.09 Y117.061 E.06527
G1 X95.37 Y115.798 E.0653
G1 X95.758 Y114.565 E.06525
G1 X96.253 Y113.37 E.06529
G1 X96.851 Y112.223 E.0653
G1 X97.545 Y111.132 E.06527
G1 X98.333 Y110.106 E.0653
G1 X99.177 Y109.185 E.06306
G1 X100.16 Y108.279 E.06748
G1 X101.186 Y107.492 E.06527
G1 X102.277 Y106.797 E.0653
G1 X103.424 Y106.2 E.06527
G1 X104.619 Y105.705 E.06529
G1 X105.852 Y105.316 E.06526
G1 X107.115 Y105.036 E.0653
G1 X108.397 Y104.867 E.06527
G1 X109.689 Y104.811 E.06528
G1 X110.981 Y104.867 E.06528
G1 X112.263 Y105.036 E.06527
G1 X113.526 Y105.316 E.0653
G1 X114.759 Y105.705 E.06526
G1 X115.954 Y106.2 E.06529
G1 X117.101 Y106.797 E.06527
G1 X118.192 Y107.492 E.0653
G1 X119.218 Y108.279 E.06527
G1 X120.171 Y109.153 E.06527
G1 X121.045 Y110.106 E.06527
G1 X121.832 Y111.132 E.06527
G1 X122.527 Y112.223 E.0653
G1 X123.125 Y113.37 E.0653
G1 X123.619 Y114.565 E.06527
G1 X124.008 Y115.798 E.06526
G1 X124.288 Y117.061 E.0653
G1 X124.457 Y118.343 E.06527
G1 X124.513 Y119.635 E.06528
G1 X124.485 Y120.281 E.03264
G1 X124.457 Y120.927 E.03264
G1 X124.288 Y122.21 E.06532
G1 X124.008 Y123.472 E.06525
G1 X123.619 Y124.706 E.06531
G1 X123.125 Y125.9 E.06523
G1 X122.527 Y127.048 E.06534
G1 X121.832 Y128.138 E.06525
G1 X121.045 Y129.164 E.06527
G1 X120.171 Y130.118 E.06531
G1 X119.218 Y130.992 E.06527
G1 X118.192 Y131.779 E.06527
G1 X117.101 Y132.474 E.0653
G1 X115.954 Y133.071 E.06527
G1 X114.759 Y133.566 E.06529
G1 X113.568 Y133.942 E.06305
G1 X112.263 Y134.235 E.06751
G1 X111.004 Y134.4 E.0641
M204 S1000
;WIPE_START
G1 F8640
G1 X110.914 Y134.406 E-.02083
G1 X109.689 Y134.46 E-.28313
G1 X108.397 Y134.403 E-.29862
G1 X107.115 Y134.235 E-.29855
G1 X106.697 Y134.142 E-.09887
;WIPE_END
G1 Z.4 F720
G1 X117.079 Y108.51 F10800
G1 Z.2 F720
G1 E1 F1500
M204 S800
;TYPE:Solid infill
;WIDTH:0.65181
G1 F1200
G1 X118.957 Y110.389 E.1345
G1 X119.719 Y111.22 E.05708
G1 X120.414 Y112.126 E.05781
G1 X121.028 Y113.089 E.05782
G1 X121.278 Y113.571 E.02749
G1 X115.753 Y108.046 E.39559
G1 X115.222 Y107.769 E.03032
G1 X114.187 Y107.34 E.05672
G1 X121.984 Y115.137 E.55827
G1 X122.365 Y116.38 E.06582
G1 X112.944 Y106.959 E.67455
G1 X111.851 Y106.727 E.05657
M73 P1 R56
M73 Q1 S56
G1 X122.597 Y117.473 E.76942
G1 X122.728 Y118.465 E.05066
G1 X110.859 Y106.596 E.84983
G1 X109.956 Y106.554 E.04577
G1 X122.77 Y119.368 E.91749
G1 X122.782 Y119.635 E.01353
G1 X122.756 Y120.215 E.02939
G1 X109.109 Y106.568 E.97714
G1 X108.548 Y106.592 E.02843
G1 X108.304 Y106.625 E.01247
G1 X122.7 Y121.02 E1.03073
G1 X122.6 Y121.781 E.03886
G1 X107.543 Y106.725 E1.07806
G1 X106.829 Y106.872 E.03691
G1 X122.453 Y122.495 E1.11866
G1 X122.284 Y123.188 E.03611
G1 X106.137 Y107.04 E1.15617
G1 X105.482 Y107.247 E.03478
G1 X122.078 Y123.842 E1.18825
G1 X121.992 Y124.113 E.01439
G1 X121.844 Y124.47 E.01957
G1 X104.854 Y107.48 E1.2165
G1 X104.245 Y107.732 E.03337
G1 X121.592 Y125.079 E1.24206
G1 X121.304 Y125.652 E.03247
M73 P1 R55
G1 X103.673 Y108.021 E1.26239
G1 X103.109 Y108.318 E.03227
G1 X121.006 Y126.215 E1.28144
G1 X120.671 Y126.741 E.03157
G1 X102.583 Y108.653 E1.29512
G1 X102.066 Y108.997 E.03144
G1 X120.327 Y127.258 E1.3075
G1 X119.953 Y127.745 E.03109
G1 X101.579 Y109.371 E1.31559
G1 X101.275 Y109.604 E.01939
G1 X101.106 Y109.76 E.01164
G1 X119.565 Y128.219 E1.32168
G1 X119.153 Y128.668 E.03085
G1 X100.658 Y110.173 E1.32426
G1 X100.403 Y110.408 E.01756
G1 X100.226 Y110.601 E.01326
G1 X118.723 Y129.099 E1.32444
G1 X118.273 Y129.51 E.03086
G1 X99.814 Y111.051 E1.32168
G1 X99.659 Y111.22 E.01161
G1 X99.426 Y111.524 E.01939
G1 X117.8 Y129.898 E1.31559
G1 X117.313 Y130.272 E.03109
G1 X99.052 Y112.011 E1.3075
G1 X98.708 Y112.528 E.03144
G1 X116.796 Y130.616 E1.29512
G1 X116.27 Y130.952 E.0316
G1 X98.373 Y113.054 E1.28148
G1 X98.075 Y113.618 E.0323
G1 X115.707 Y131.249 E1.26243
G1 X115.134 Y131.538 E.03249
G1 X97.787 Y114.19 E1.24209
G1 X97.534 Y114.799 E.03339
G1 X114.525 Y131.79 E1.21657
G1 X114.167 Y131.938 E.01961
G1 X113.898 Y132.023 E.01428
G1 X97.301 Y115.427 E1.18832
G1 X97.095 Y116.081 E.03472
M73 P2 R55
G1 X113.243 Y132.23 E1.15625
M73 Q2 S56
G1 X112.549 Y132.397 E.03614
G1 X96.926 Y116.773 E1.11866
G1 X96.779 Y117.488 E.03696
G1 X111.837 Y132.546 E1.07816
G1 X111.076 Y132.646 E.03886
G1 X96.678 Y118.248 E1.03091
G1 X96.646 Y118.494 E.01256
G1 X96.622 Y119.053 E.02833
G1 X110.271 Y132.703 E.97732
G1 X109.689 Y132.728 E.02949
G1 X109.424 Y132.716 E.01343
G1 X96.608 Y119.9 E.91764
G1 X96.65 Y120.803 E.04577
G1 X108.521 Y132.675 E.85001
G1 X107.53 Y132.544 E.05061
G1 X96.78 Y121.795 E.76967
G1 X97.016 Y122.892 E.05681
G1 X106.437 Y132.312 E.67452
G1 X105.195 Y131.932 E.06576
G1 X97.392 Y124.129 E.5587
G1 X97.823 Y125.169 E.057
G1 X98.097 Y125.694 E.02998
G1 X103.63 Y131.228 E.3962
G1 X103.143 Y130.974 E.02781
G1 X102.179 Y130.36 E.05787
G1 X101.273 Y129.665 E.05781
G1 X100.472 Y128.931 E.05501
G1 X98.559 Y127.018 E.13697
M204 S1000
;WIPE_START
G1 F8640
G1 X100.472 Y128.931 E-.62468
G1 X101.273 Y129.665 E-.25086
G1 X101.701 Y129.993 E-.12446
;WIPE_END
G1 Z.4 F720
; stop printing object dog_poop_bag_holder_v6(1).stl id:0 copy 0
; printing object bouchon_v6_no_lettering.stl id:1 copy 0
G1 X142.907 Y76.936 F10800
G1 Z.2 F720
G1 E1 F1500
M204 S800
;TYPE:Perimeter
;WIDTH:0.649999
G1 F1200
G1 X144.066 Y77.193 E.05993
G1 X145.192 Y77.548 E.0596
G1 X146.271 Y77.995 E.05896
G1 X147.342 Y78.551 E.06091
G1 X148.348 Y79.192 E.06021
G1 X149.287 Y79.913 E.05976
G1 X150.163 Y80.716 E.05999
G1 X150.963 Y81.589 E.05977
G1 X151.698 Y82.549 E.06103
G1 X152.343 Y83.568 E.06088
G1 X152.873 Y84.587 E.05798
G1 X153.312 Y85.646 E.05787
G1 X153.683 Y86.813 E.06181
G1 X153.941 Y87.977 E.06018
G1 X154.096 Y89.154 E.05993
G1 X154.121 Y89.748 E.03001
G1 X154.147 Y90.357 E.03077
G1 X154.095 Y91.536 E.05957
G1 X154.031 Y92.117 E.02951
G1 X153.945 Y92.68 E.02875
G1 X153.674 Y93.892 E.06269
G1 X153.325 Y94.996 E.05845
G1 X152.882 Y96.066 E.05846
G1 X152.322 Y97.145 E.06137
G1 X151.687 Y98.141 E.05963
G1 X150.959 Y99.09 E.06038
G1 X150.157 Y99.964 E.05988
G1 X149.284 Y100.764 E.05977
G1 X148.341 Y101.487 E.05998
G1 X147.344 Y102.122 E.05967
G1 X146.254 Y102.687 E.06197
G1 X145.19 Y103.127 E.05812
G1 X144.1 Y103.471 E.0577
G1 X142.935 Y103.733 E.06028
G1 X141.721 Y103.895 E.06182
G1 X140.532 Y103.946 E.06007
G1 X139.353 Y103.895 E.05957
G1 X138.17 Y103.739 E.06023
G1 X137.017 Y103.483 E.05962
G1 X135.857 Y103.115 E.06143
G1 X134.752 Y102.654 E.06044
G1 X133.734 Y102.124 E.05793
G1 X132.766 Y101.508 E.05792
G1 X131.791 Y100.763 E.06194
G1 X130.914 Y99.959 E.06006
G1 X130.112 Y99.085 E.05988
G1 X129.39 Y98.144 E.05987
G1 X128.752 Y97.141 E.06001
G1 X128.191 Y96.06 E.06148
G1 X127.737 Y94.956 E.06026
G1 X127.391 Y93.854 E.05831
G1 X127.141 Y92.732 E.05803
G1 X126.98 Y91.524 E.06152
G1 X126.928 Y90.338 E.05993
