; generated by PrusaSlicer 2.8.0+win64 on 2024-09-02 at 15:33:28 UTC


;
;
; 

; external perimeters extrusion width = 0.68mm
; perimeters extrusion width = 0.68mm
; infill extrusion width = 0.68mm
; solid infill extrusion width = 0.68mm
; top infill extrusion width = 0.60mm
; first layer extrusion width = 0.65mm

M73 P0 R73
M73 Q0 S76
M201 X1000 Y1000 Z200 E5000 ; sets maximum accelerations, mm/sec^2
M203 X200 Y200 Z12 E120 ; sets maximum feedrates, mm / sec
M204 S1250 T1250 ; sets acceleration (S) and retract acceleration (R), mm/sec^2
M205 X8.00 Y8.00 Z0.40 E4.50 ; sets the jerk limits, mm/sec
M205 S0 T0 ; sets the minimum extruding and travel feed rate, mm/sec

; printing object Frame 4x5.stl id:0 copy 0
; stop printing object Frame 4x5.stl id:0 copy 0

;TYPE:Custom
M862.3 P "MK3S" ; printer model check
M862.1 P0.6 ; nozzle diameter check
M115 U3.14.0 ; tell printer latest fw version
G90 ; use absolute coordinates
M83 ; extruder relative mode
M104 S215 ; set extruder temp
M140 S60 ; set bed temp
M190 S60 ; wait for bed temp
M109 S215 ; wait for extruder temp
G28 W ; home all without mesh bed level
G80 X17.3929 Y18.3929 W215.214 H173.214 ; mesh bed levelling

G1 Z0.2 F720
G1 Y-3 F1000 ; go outside print area
G92 E0
G1 X60 E9 F1000 ; intro line
G1 X100 E12.5 F1000 ; intro line

G92 E0
M221 S95
G21 ; set units to millimeters
G90 ; use absolute coordinates
M83 ; use relative distances for extrusion

M900 K0.04 ; Filament gcode LA 1.5
M900 K18 ; Filament gcode LA 1.0




M107
;LAYER_CHANGE
;Z:0.2
;HEIGHT:0.2
G1 E-.8 F2100
G1 Z.6 F720
G1 X19.769 Y20.344 F10800
G1 Z.2 F720
G1 E.8 F1500
M204 S800
;TYPE:Skirt/Brim
;WIDTH:0.65
G1 F1200
G1 X21.118 Y19.408 E.08288
G1 X22.083 Y19.008 E.05273
G1 X22.664 Y18.852 E.03037
G1 X24 Y18.696 E.0679
G1 X226.301 Y18.716 E10.21193
G1 X227.916 Y19.008 E.08285
M73 Q0 S75
G1 X228.881 Y19.408 E.05273
G1 X229.403 Y19.709 E.03042
G1 X230.655 Y20.769 E.08281
G1 X231.291 Y21.597 E.0527
G1 X231.992 Y23.082 E.08289
G1 X232.148 Y23.665 E.03046
G1 X232.304 Y25 E.06785
G1 X232.304 Y185 E8.07662
G1 X232.148 Y186.335 E.06785
G1 X231.992 Y186.917 E.03042
G1 X231.592 Y187.882 E.05273
G1 X231.291 Y188.403 E.03037
G1 X230.231 Y189.655 E.08281
G1 X228.882 Y190.592 E.08291
G1 X227.917 Y190.992 E.05273
G1 X227.335 Y191.148 E.03042
G1 X226 Y191.304 E.06785
G1 X24 Y191.304 E10.19673
G1 X22.665 Y191.148 E.06785
G1 X22.082 Y190.992 E.03046
G1 X21.118 Y190.592 E.05268
G1 X20.597 Y190.291 E.03037
G1 X19.344 Y189.231 E.08285
G1 X18.408 Y187.881 E.08292
G1 X18.008 Y186.916 E.05273
G1 X17.852 Y186.336 E.03032
G1 X17.696 Y185 E.0679
G1 X17.696 Y25 E8.07662
G1 X17.852 Y23.664 E.0679
M73 P1 R72
G1 X18.408 Y22.118 E.08293
G1 X19.344 Y20.769 E.08288
G1 X19.706 Y20.408 E.02581
M204 S1000
;WIPE_START
G1 F8640
G1 X19.769 Y20.344 E-.02074
G1 X21.118 Y19.408 E-.37912
G1 X22.083 Y19.008 E-.24121
G1 X22.664 Y18.852 E-.13891
G1 X22.75 Y18.842 E-.02002
;WIPE_END
G1 Z.6 F720
; printing object Frame 4x5.stl id:0 copy 0
G1 X142.942 Y63.501 F10800
G1 Z.2 F720
M73 Q1 S75
G1 E.8 F1500
M204 S800
;TYPE:Perimeter
;WIDTH:0.733676
G1 F1200
G1 X143.065 Y63.554 E.00769
;WIDTH:0.691838
G1 X143.196 Y63.611 E.00771
;WIDTH:0.649999
G1 X143.819 Y63.892 E.0345
G1 X144.338 Y64.27 E.03241
G1 X144.731 Y64.663 E.02806
G1 X145.109 Y65.182 E.03241
G1 X145.39 Y65.805 E.0345
;WIDTH:0.694593
G1 X145.555 Y66.334 E.03003
;WIDTH:0.731618
G1 X145.597 Y66.515 E.01064
;WIDTH:0.768643
G1 X145.64 Y66.697 E.01128
G1 X145.648 Y66.985 E.01739
;WIDTH:0.746284
G1 X145.648 Y101.015 E1.99024
G1 X145.624 Y101.301 E.01679
;WIDTH:0.735463
G1 X145.55 Y101.622 E.01897
;WIDTH:0.692731
G1 X145.476 Y101.943 E.0178
;WIDTH:0.649999
G1 X145.243 Y102.551 E.03287
G1 X144.966 Y103.031 E.02797
G1 X144.637 Y103.451 E.02693
G1 X144.338 Y103.73 E.02064
G1 X143.82 Y104.108 E.03237
G1 X143.197 Y104.389 E.0345
;WIDTH:0.694465
G1 X142.663 Y104.555 E.0303
;WIDTH:0.731407
G1 X142.481 Y104.598 E.01071
;WIDTH:0.768349
G1 X142.299 Y104.64 E.01127
G1 X142.014 Y104.648 E.0172
;WIDTH:0.746628
G1 X107.985 Y104.648 E1.99116
;WIDTH:0.7684
G1 X107.701 Y104.64 E.01714
G1 X107.486 Y104.586 E.01337
;WIDTH:0.728933
G1 X107.272 Y104.531 E.0126
;WIDTH:0.689466
G1 X107.058 Y104.476 E.01188
;WIDTH:0.649999
G1 X106.804 Y104.39 E.01354
G1 X106.181 Y104.108 E.03452
G1 X105.662 Y103.73 E.03241
G1 X105.27 Y103.338 E.02798
G1 X104.892 Y102.819 E.03241
G1 X104.61 Y102.196 E.03452
;WIDTH:0.670271
G1 X104.457 Y101.661 E.02903
;WIDTH:0.713272
G1 X104.406 Y101.433 E.01302
;WIDTH:0.756272
G1 X104.355 Y101.204 E.01392
G1 X104.352 Y101.015 E.01121
;WIDTH:0.746629
G1 X104.352 Y66.985 E1.99122
;WIDTH:0.768393
G1 X104.36 Y66.701 E.01714
G1 X104.414 Y66.486 E.01337
;WIDTH:0.728929
G1 X104.469 Y66.272 E.0126
;WIDTH:0.689464
G1 X104.524 Y66.058 E.01188
;WIDTH:0.649999
G1 X104.758 Y65.448 E.03298
G1 X105.035 Y64.968 E.02797
G1 X105.363 Y64.549 E.02686
G1 X105.662 Y64.27 E.02064
G1 X106.181 Y63.892 E.03241
G1 X106.805 Y63.61 E.03457
;WIDTH:0.694596
G1 X107.337 Y63.445 E.03018
;WIDTH:0.731542
G1 X107.518 Y63.402 E.01065
;WIDTH:0.768488
G1 X107.7 Y63.36 E.01127
G1 X107.985 Y63.352 E.0172
;WIDTH:0.74663
G1 X142.015 Y63.352 E1.99122
;WIDTH:0.781992
G1 X142.343 Y63.368 E.02018
;WIDTH:0.817353
G1 X142.671 Y63.384 E.02115
G1 X142.802 Y63.441 E.0092
;WIDTH:0.775515
G1 X142.86 Y63.465 E.00382
M204 S1000
G1 X142.86 Y63.465 F10800
G1 X142.772 Y64.12
M204 S800
;WIDTH:0.649999
G1 F1200
G1 X142.964 Y64.171 E.01003
G1 X143.511 Y64.414 E.03021
G1 X143.968 Y64.751 E.02866
G1 X144.249 Y65.033 E.0201
G1 X144.586 Y65.49 E.02866
G1 X144.829 Y66.037 E.03021
G1 X144.931 Y66.417 E.01986
G1 X144.993 Y66.985 E.02884
G1 X144.993 Y101.015 E1.71779
G1 X144.931 Y101.583 E.02884
G1 X144.829 Y101.963 E.01986
G1 X144.586 Y102.51 E.03021
G1 X144.249 Y102.967 E.02866
G1 X143.968 Y103.249 E.0201
G1 X143.511 Y103.586 E.02866
G1 X142.964 Y103.829 E.03021
G1 X142.58 Y103.931 E.02006
G1 X142.014 Y103.993 E.02874
G1 X107.985 Y103.993 E1.71774
G1 X107.42 Y103.931 E.02869
G1 X107.037 Y103.829 E.02001
G1 X106.489 Y103.586 E.03026
G1 X106.032 Y103.248 E.02869
G1 X105.752 Y102.968 E.01999
G1 X105.414 Y102.511 E.02869
G1 X105.171 Y101.963 E.03026
G1 X105.069 Y101.58 E.02001
G1 X105.007 Y101.015 E.02869
G1 X105.007 Y66.985 E1.71779
G1 X105.069 Y66.42 E.02869
G1 X105.171 Y66.037 E.02001
G1 X105.414 Y65.489 E.03026
G1 X105.752 Y65.032 E.02869
G1 X106.032 Y64.752 E.01999
G1 X106.49 Y64.414 E.02873
G1 X107.037 Y64.171 E.03021
G1 X107.419 Y64.069 E.01996
G1 X107.985 Y64.007 E.02874
G1 X142.015 Y64.007 E1.71779
G1 X142.581 Y64.069 E.02874
G1 X142.685 Y64.097 E.00544
M204 S1000
G1 X142.685 Y64.097 F10800
G1 X142.617 Y64.694
M204 S800
G1 F1200
G1 X142.623 Y64.695 E.00031
G1 X143.087 Y64.88 E.02522
G1 X143.599 Y65.233 E.03139
G1 X144.002 Y65.708 E.03144
G1 X144.268 Y66.269 E.03134
G1 X144.386 Y66.985 E.03663
G1 X144.386 Y101.015 E1.71779
G1 X144.305 Y101.623 E.03096
G1 X144.063 Y102.201 E.03163
G1 X143.727 Y102.647 E.02819
G1 X143.293 Y103.002 E.0283
G1 X142.732 Y103.268 E.03134
G1 X142.014 Y103.386 E.03673
G1 X107.985 Y103.386 E1.71774
G1 X107.378 Y103.305 E.03091
G1 X107.269 Y103.268 E.00581
G1 X106.798 Y103.063 E.02593
G1 X106.353 Y102.727 E.02815
G1 X105.998 Y102.293 E.0283
G1 X105.732 Y101.731 E.03139
G1 X105.614 Y101.015 E.03663
G1 X105.614 Y66.985 E1.71779
G1 X105.695 Y66.378 E.03091
G1 X105.88 Y65.913 E.02526
G1 X106.233 Y65.401 E.03139
G1 X106.707 Y64.999 E.03137
G1 X107.269 Y64.732 E.03141
G1 X107.985 Y64.614 E.03663
G1 X142.015 Y64.614 E1.71779
G1 X142.528 Y64.682 E.02612
M204 S1000
G1 X142.528 Y64.682 F10800
G1 X142.459 Y65.287
M204 S800
;TYPE:External perimeter
G1 F1200
G1 X142.499 Y65.293 E.00204
G1 X142.923 Y65.48 E.02339
G1 X143.286 Y65.771 E.02348
G1 X143.56 Y66.146 E.02344
G1 X143.727 Y66.578 E.02338
G1 X143.779 Y66.985 E.02071
G1 X143.779 Y101.015 E1.71779
G1 X143.707 Y101.498 E.02465
G1 X143.52 Y101.923 E.02344
G1 X143.229 Y102.285 E.02345
G1 X142.855 Y102.559 E.0234
G1 X142.422 Y102.728 E.02346
G1 X142.014 Y102.779 E.02076
G1 X107.985 Y102.779 E1.71774
G1 X107.501 Y102.707 E.0247
M73 Q1 S74
G1 X107.077 Y102.52 E.02339
G1 X106.715 Y102.229 E.02345
G1 X106.441 Y101.855 E.0234
G1 X106.272 Y101.422 E.02346
G1 X106.221 Y101.015 E.02071
G1 X106.221 Y66.985 E1.71779
G1 X106.293 Y66.501 E.0247
G1 X106.48 Y66.077 E.02339
G1 X106.771 Y65.715 E.02345
G1 X107.145 Y65.441 E.0234
G1 X107.578 Y65.273 E.02344
G1 X107.985 Y65.221 E.02071
G1 X142.015 Y65.221 E1.71779
G1 X142.37 Y65.274 E.01812
M204 S1000
;WIPE_START
G1 F8640
G1 X142.459 Y65.287 E-.02077
G1 X142.499 Y65.293 E-.00934
G1 X142.923 Y65.48 E-.107
G1 X143.286 Y65.771 E-.10743
G1 X143.56 Y66.146 E-.10724
G1 X143.727 Y66.578 E-.10694
G1 X143.779 Y66.985 E-.09474
G1 X143.779 Y68.053 E-.24654
;WIPE_END
G1 Z.6 F720
G1 X62.534 Y101.929 F10800
G1 Z.2 F720
G1 E.8 F1500
M204 S800
;TYPE:Perimeter
;WIDTH:0.670151
G1 F1200
G1 X62.457 Y101.661 E.01454
;WIDTH:0.713213
G1 X62.406 Y101.433 E.01302
;WIDTH:0.756275
G1 X62.355 Y101.204 E.01392
G1 X62.352 Y101.015 E.01121
;WIDTH:0.746632
G1 X62.352 Y66.985 E1.99123
;WIDTH:0.768491
G1 X62.36 Y66.7 E.0172
G1 X62.414 Y66.486 E.01332
;WIDTH:0.728994
G1 X62.469 Y66.272 E.0126
;WIDTH:0.689497
G1 X62.524 Y66.058 E.01188
;WIDTH:0.649999
G1 X62.758 Y65.449 E.03293
G1 X63.035 Y64.968 E.02802
G1 X63.363 Y64.549 E.02686
G1 X63.662 Y64.27 E.02064
G1 X64.181 Y63.892 E.03241
G1 X64.805 Y63.61 E.03457
;WIDTH:0.694596
G1 X65.337 Y63.445 E.03018
;WIDTH:0.731542
G1 X65.518 Y63.402 E.01065
;WIDTH:0.768488
G1 X65.7 Y63.36 E.01127
G1 X65.985 Y63.352 E.0172
;WIDTH:0.74663
G1 X100.015 Y63.352 E1.99122
G1 X100.298 Y63.376 E.01662
;WIDTH:0.736422
G1 X100.62 Y63.45 E.01905
;WIDTH:0.693211
G1 X100.942 Y63.524 E.01787
;WIDTH:0.649999
G1 X101.551 Y63.758 E.03293
G1 X102.032 Y64.035 E.02802
G1 X102.451 Y64.363 E.02686
G1 X102.73 Y64.662 E.02064
G1 X103.108 Y65.181 E.03241
G1 X103.39 Y65.804 E.03452
;WIDTH:0.69456
G1 X103.555 Y66.338 E.03028
;WIDTH:0.731479
G1 X103.598 Y66.519 E.01065
;WIDTH:0.768397
G1 X103.64 Y66.701 E.01127
G1 X103.648 Y66.985 E.01714
;WIDTH:0.746629
G1 X103.648 Y101.015 E1.99122
G1 X103.625 Y101.297 E.01656
;WIDTH:0.736542
G1 X103.55 Y101.62 E.01912
;WIDTH:0.693271
G1 X103.476 Y101.942 E.01787
;WIDTH:0.649999
G1 X103.242 Y102.552 E.03298
G1 X103.108 Y102.819 E.01508
G1 X102.73 Y103.338 E.03241
G1 X102.338 Y103.73 E.02798
G1 X101.819 Y104.108 E.03241
G1 X101.196 Y104.39 E.03452
;WIDTH:0.67027
G1 X100.661 Y104.543 E.02903
;WIDTH:0.713271
G1 X100.433 Y104.594 E.01302
;WIDTH:0.756271
G1 X100.204 Y104.645 E.01392
G1 X100.015 Y104.648 E.01121
;WIDTH:0.746628
G1 X65.985 Y104.648 E1.99122
;WIDTH:0.768399
G1 X65.701 Y104.64 E.01714
G1 X65.486 Y104.586 E.01337
;WIDTH:0.728933
G1 X65.272 Y104.531 E.0126
;WIDTH:0.689466
G1 X65.058 Y104.476 E.01188
;WIDTH:0.649999
G1 X64.448 Y104.242 E.03298
G1 X63.968 Y103.965 E.02797
G1 X63.549 Y103.637 E.02686
G1 X63.27 Y103.338 E.02064
G1 X62.892 Y102.819 E.03241
G1 X62.61 Y102.195 E.03457
;WIDTH:0.670151
G1 X62.559 Y102.016 E.00971
M204 S1000
G1 X62.559 Y102.016 F10800
G1 X63.12 Y101.772
M204 S800
;WIDTH:0.649999
G1 F1200
G1 X63.069 Y101.581 E.00998
G1 X63.007 Y101.015 E.02874
G1 X63.007 Y66.985 E1.71779
G1 X63.069 Y66.419 E.02874
G1 X63.171 Y66.037 E.01996
G1 X63.414 Y65.49 E.03021
G1 X63.752 Y65.032 E.02873
G1 X64.032 Y64.752 E.01999
G1 X64.49 Y64.414 E.02873
G1 X65.037 Y64.171 E.03021
G1 X65.419 Y64.069 E.01996
G1 X65.985 Y64.007 E.02874
G1 X100.015 Y64.007 E1.71779
G1 X100.581 Y64.069 E.02874
M73 P2 R72
G1 X100.963 Y64.171 E.01996
G1 X101.51 Y64.414 E.03021
G1 X101.968 Y64.752 E.02873
G1 X102.248 Y65.032 E.01999
G1 X102.586 Y65.489 E.02869
G1 X102.829 Y66.037 E.03026
G1 X102.931 Y66.42 E.02001
G1 X102.993 Y66.985 E.02869
G1 X102.993 Y101.015 E1.71779
G1 X102.931 Y101.58 E.02869
M73 Q2 S74
G1 X102.829 Y101.963 E.02001
G1 X102.586 Y102.511 E.03026
G1 X102.248 Y102.968 E.02869
G1 X101.968 Y103.248 E.01999
G1 X101.511 Y103.586 E.02869
G1 X100.963 Y103.829 E.03026
G1 X100.58 Y103.931 E.02001
G1 X100.015 Y103.993 E.02869
G1 X65.985 Y103.993 E1.71779
G1 X65.42 Y103.931 E.02869
G1 X65.037 Y103.829 E.02001
G1 X64.489 Y103.586 E.03026
G1 X64.032 Y103.248 E.02869
G1 X63.752 Y102.968 E.01999
G1 X63.414 Y102.51 E.02873
G1 X63.171 Y101.963 E.03021
G1 X63.143 Y101.859 E.00544
M204 S1000
G1 X63.143 Y101.859 F10800
G1 X63.713 Y101.613
M204 S800
G1 F1200
G1 X63.614 Y101.015 E.0306
G1 X63.614 Y66.985 E1.71779
G1 X63.695 Y66.378 E.03091
G1 X63.88 Y65.913 E.02526
G1 X64.233 Y65.401 E.03139
G1 X64.707 Y64.999 E.03137
G1 X65.269 Y64.732 E.03141
G1 X65.985 Y64.614 E.03663
G1 X100.015 Y64.614 E1.71779
G1 X100.622 Y64.695 E.03091
G1 X101.087 Y64.88 E.02526
G1 X101.599 Y65.233 E.03139
G1 X102.001 Y65.707 E.03137
G1 X102.268 Y66.269 E.03141
G1 X102.386 Y66.985 E.03663
G1 X102.386 Y101.015 E1.71779
G1 X102.305 Y101.622 E.03091
G1 X102.063 Y102.202 E.03172
G1 X101.727 Y102.647 E.02815
G1 X101.293 Y103.002 E.0283
G1 X100.731 Y103.268 E.03139
G1 X100.015 Y103.386 E.03663
G1 X65.985 Y103.386 E1.71779
G1 X65.378 Y103.305 E.03091
G1 X64.913 Y103.12 E.02526
G1 X64.401 Y102.767 E.03139
G1 X63.998 Y102.293 E.03141
G1 X63.732 Y101.731 E.03139
G1 X63.727 Y101.702 E.00149
M204 S1000
G1 X63.727 Y101.702 F10800
G1 X64.287 Y101.459
M204 S800
;TYPE:External perimeter
G1 F1200
G1 X64.273 Y101.422 E.002
G1 X64.221 Y101.015 E.02071
G1 X64.221 Y66.985 E1.71779
G1 X64.293 Y66.502 E.02465
M73 P2 R71
G1 X64.48 Y66.077 E.02344
G1 X64.771 Y65.715 E.02345
G1 X65.145 Y65.441 E.0234
G1 X65.578 Y65.273 E.02344
G1 X65.985 Y65.221 E.02071
G1 X100.015 Y65.221 E1.71779
G1 X100.498 Y65.293 E.02465
G1 X100.923 Y65.48 E.02344
G1 X101.285 Y65.771 E.02345
G1 X101.559 Y66.145 E.0234
G1 X101.728 Y66.578 E.02346
G1 X101.779 Y66.985 E.02071
G1 X101.779 Y101.015 E1.71779
G1 X101.707 Y101.499 E.0247
G1 X101.54 Y101.893 E.0216
G1 X101.229 Y102.285 E.02526
G1 X100.855 Y102.559 E.0234
G1 X100.422 Y102.728 E.02346
G1 X100.015 Y102.779 E.02071
G1 X65.985 Y102.779 E1.71779
G1 X65.501 Y102.707 E.0247
G1 X65.077 Y102.52 E.02339
G1 X64.715 Y102.229 E.02345
G1 X64.441 Y101.855 E.0234
G1 X64.32 Y101.543 E.01689
M204 S1000
;WIPE_START
G1 F8640
G1 X64.287 Y101.459 E-.02084
G1 X64.273 Y101.422 E-.00913
G1 X64.221 Y101.015 E-.09474
G1 X64.221 Y98.09 E-.67529
;WIPE_END
G1 Z.6 F720
G1 X143.792 Y105.897 F10800
G1 Z.2 F720
G1 E.8 F1500
M204 S800
;TYPE:Perimeter
G1 F1200
G1 X144.032 Y106.035 E.01397
G1 X144.451 Y106.363 E.02686
G1 X144.731 Y106.663 E.02071
G1 X145.109 Y107.182 E.03241
G1 X145.39 Y107.805 E.0345
;WIDTH:0.694594
G1 X145.555 Y108.334 E.03003
;WIDTH:0.731619
G1 X145.597 Y108.515 E.01064
;WIDTH:0.768643
G1 X145.64 Y108.697 E.01128
G1 X145.648 Y108.985 E.01739
;WIDTH:0.746284
G1 X145.648 Y143.015 E1.99024
;WIDTH:0.768595
G1 X145.64 Y143.303 E.01738
G1 X145.586 Y143.517 E.01332
;WIDTH:0.729063
G1 X145.531 Y143.73 E.01255
;WIDTH:0.689531
G1 X145.476 Y143.943 E.01183
;WIDTH:0.649999
G1 X145.242 Y144.551 E.03289
G1 X144.966 Y145.031 E.02795
G1 X144.637 Y145.451 E.02693
G1 X144.337 Y145.731 E.02071
G1 X143.818 Y146.109 E.03241
G1 X143.195 Y146.39 E.0345
;WIDTH:0.694495
G1 X142.666 Y146.555 E.03002
;WIDTH:0.731541
G1 X142.485 Y146.597 E.01064
;WIDTH:0.768587
G1 X142.303 Y146.64 E.01128
G1 X142.015 Y146.648 E.01738
;WIDTH:0.746284
G1 X107.985 Y146.648 E1.99024
G1 X107.699 Y146.624 E.01679
;WIDTH:0.735463
G1 X107.378 Y146.55 E.01897
;WIDTH:0.692731
G1 X107.057 Y146.476 E.0178
;WIDTH:0.649999
G1 X106.449 Y146.242 E.03289
G1 X105.969 Y145.966 E.02795
G1 X105.549 Y145.637 E.02693
G1 X105.27 Y145.338 E.02064
G1 X104.892 Y144.82 E.03237
G1 X104.611 Y144.197 E.0345
;WIDTH:0.694467
G1 X104.445 Y143.663 E.0303
;WIDTH:0.72537
G1 X104.4 Y143.433 E.0133
;WIDTH:0.756272
G1 X104.355 Y143.204 E.01384
G1 X104.352 Y143.014 E.01127
;WIDTH:0.746629
G1 X104.352 Y108.985 E1.99116
;WIDTH:0.768398
G1 X104.36 Y108.701 E.01714
G1 X104.414 Y108.486 E.01337
;WIDTH:0.728932
G1 X104.469 Y108.272 E.0126
;WIDTH:0.689466
G1 X104.524 Y108.058 E.01188
;WIDTH:0.649999
G1 X104.758 Y107.448 E.03298
G1 X105.035 Y106.968 E.02797
G1 X105.363 Y106.549 E.02686
G1 X105.662 Y106.27 E.02064
G1 X106.181 Y105.892 E.03241
G1 X106.804 Y105.61 E.03452
;WIDTH:0.694565
