; generated by PrusaSlicer 2.8.0+win64 on 2024-09-02 at 16:40:24 UTC


;
;
; 

; external perimeters extrusion width = 0.68mm
; perimeters extrusion width = 0.68mm
; infill extrusion width = 0.68mm
; solid infill extrusion width = 0.68mm
; top infill extrusion width = 0.60mm
; support material extrusion width = 0.55mm
; first layer extrusion width = 0.65mm

M73 P0 R60
M73 Q0 S60
M201 X1000 Y1000 Z200 E5000 ; sets maximum accelerations, mm/sec^2
M203 X200 Y200 Z12 E120 ; sets maximum feedrates, mm / sec
M204 S1250 T1250 ; sets acceleration (S) and retract acceleration (R), mm/sec^2
M205 X8.00 Y8.00 Z0.40 E4.50 ; sets the jerk limits, mm/sec
M205 S0 T0 ; sets the minimum extruding and travel feed rate, mm/sec

; printing object gorilla-tag-figure.stl id:0 copy 0
; stop printing object gorilla-tag-figure.stl id:0 copy 0

;TYPE:Custom
M862.3 P "MK3S" ; printer model check
M862.1 P0.6 ; nozzle diameter check
M115 U3.14.0 ; tell printer latest fw version
G90 ; use absolute coordinates
M83 ; extruder relative mode
M104 S215 ; set extruder temp
M140 S60 ; set bed temp
M190 S60 ; wait for bed temp
M109 S215 ; wait for extruder temp
G28 W ; home all without mesh bed level
G80 X93.2979 Y54.2624 W72.3861 H89.8469 ; mesh bed levelling

G1 Z0.2 F720
G1 Y-3 F1000 ; go outside print area
G92 E0
G1 X60 E9 F1000 ; intro line
G1 X100 E12.5 F1000 ; intro line

G92 E0
M221 S95
G21 ; set units to millimeters
G90 ; use absolute coordinates
M83 ; use relative distances for extrusion

M900 K0.04 ; Filament gcode LA 1.5
M900 K18 ; Filament gcode LA 1.0




M107
;LAYER_CHANGE
;Z:0.2
;HEIGHT:0.2
G1 E-.8 F2100
G1 Z.6 F720
G1 X107.263 Y59.978 F10800
G1 Z.2 F720
G1 E.8 F1500
M204 S800
;TYPE:Skirt/Brim
;WIDTH:0.65
G1 F1200
G1 X108.33 Y58.465 E.09346
G1 X110.52 Y56.303 E.15534
G1 X111.439 Y55.572 E.05928
G1 X112.033 Y55.23 E.0346
G1 X113.127 Y54.803 E.05928
G1 X113.796 Y54.652 E.03462
G1 X114.967 Y54.565 E.05927
G1 X115.65 Y54.617 E.03458
G1 X117.063 Y54.958 E.07337
G1 X161.631 Y71.111 E2.39295
G1 X162.653 Y71.701 E.05957
G1 X163.189 Y72.128 E.03459
G1 X163.992 Y72.993 E.05958
G1 X164.379 Y73.56 E.03465
G1 X164.892 Y74.623 E.05958
G1 X165.094 Y75.278 E.0346
G1 X165.296 Y76.736 E.0743
G1 X165.38 Y80.317 E.18081
G1 X165.167 Y81.956 E.08343
G1 X162.259 Y97.78 E.81215
G1 X162.092 Y98.311 E.0281
G1 X154.245 Y115.537 E.95552
G1 X153.653 Y116.67 E.06453
G1 X152.721 Y117.902 E.07798
G1 X144.189 Y127.217 E.63764
G1 X143.189 Y128.161 E.06942
G1 X141.928 Y129.007 E.07665
G1 X115.753 Y142.86 E1.49492
G1 X114.083 Y143.507 E.09041
G1 X112.967 Y143.736 E.05751
G1 X111.412 Y143.806 E.07857
G1 X109.465 Y143.487 E.09959
G1 X108.013 Y142.926 E.07858
G1 X106.687 Y142.112 E.07854
G1 X105.823 Y141.371 E.05746
G1 X104.816 Y140.186 E.0785
G1 X104.068 Y138.89 E.07554
G1 X103.728 Y138.048 E.04584
G1 X94.549 Y109.383 E1.51935
G1 X94.31 Y107.78 E.08181
G1 X93.612 Y97.667 E.51171
G1 X93.601 Y96.393 E.06431
G1 X93.886 Y94.789 E.08224
G1 X95.296 Y88.553 E.32273
G1 X99.678 Y74.2 E.75754
G1 X100.318 Y72.837 E.07601
G1 X107.22 Y60.057 E.73319
M204 S1000
;WIPE_START
G1 F8640
G1 X107.263 Y59.978 E-.02077
G1 X108.33 Y58.465 E-.42749
G1 X109.414 Y57.395 E-.35174
;WIPE_END
G1 Z.6 F720
; printing object gorilla-tag-figure.stl id:0 copy 0
G1 X156.666 Y83.085 F10800
G1 Z.2 F720
G1 E.8 F1500
M204 S800
;TYPE:Support material interface
;WIDTH:0.55
G1 F1200
G1 X156.895 Y83.167 E.01026
G1 X156.92 Y82.652 E.02174
G1 X156.608 Y82.521 E.01427
G1 X156.422 Y82.691 E.01062
G1 X156.364 Y82.88 E.00834
G1 X156.41 Y82.982 E.00472
G1 X156.599 Y83.061 E.00864
M204 S1000
;WIPE_START
G1 F8640
G1 X156.41 Y82.982 E-.0473
G1 X156.364 Y82.88 E-.02584
G1 X156.422 Y82.691 E-.04565
G1 X156.608 Y82.521 E-.05818
G1 X156.92 Y82.652 E-.07813
G1 X156.895 Y83.167 E-.11905
G1 X156.666 Y83.085 E-.05616
;WIPE_END
G1 E-.36969 F2100
G1 Z.6 F720
G1 X155.095 Y82.4 F10800
G1 Z.2 F720
G1 E.8 F1500
M204 S800
G1 F1200
G1 X155.179 Y82.314 E.00507
G1 X155.176 Y82.12 E.00818
G1 X154.917 Y82.019 E.01172
G1 X154.779 Y82.264 E.01186
G1 X154.917 Y82.419 E.00875
G1 X155.029 Y82.427 E.00473
M204 S1000
;WIPE_START
G1 F8640
G1 X154.917 Y82.419 E-.02593
G1 X154.779 Y82.264 E-.04792
G1 X154.917 Y82.019 E-.06493
G1 X155.176 Y82.12 E-.06419
G1 X155.179 Y82.314 E-.0448
G1 X155.095 Y82.4 E-.02776
;WIPE_END
G1 E-.52447 F2100
G1 Z.6 F720
G1 X154.489 Y83.574 F10800
G1 Z.2 F720
G1 E.8 F1500
M204 S800
G1 F1200
G1 X154.404 Y83.974 E.01724
G1 X155.647 Y84.427 E.05578
G1 X154.594 Y83.373 E.06282
G1 X154.661 Y83.312 E.00382
G1 X156.019 Y83.808 E.06096
G1 X155.701 Y84.414 E.02886
G1 X156.114 Y84.496 E.01775
G1 X156.36 Y84.742 E.01467
G1 X156.107 Y84.887 E.0123
G1 X155.74 Y84.519 E.02191
G1 X155.563 Y84.885 E.01714
G1 X155.615 Y85.137 E.01085
G1 X155.897 Y84.997 E.01327
M204 S1000
;WIPE_START
G1 F8640
G1 X155.615 Y85.137 E-.0727
G1 X155.563 Y84.885 E-.05941
G1 X155.74 Y84.519 E-.09387
G1 X156.107 Y84.887 E-.12001
G1 X156.36 Y84.742 E-.06733
G1 X156.114 Y84.496 E-.08033
G1 X155.701 Y84.414 E-.09722
G1 X156.019 Y83.808 E-.15802
G1 X155.811 Y83.732 E-.05111
;WIPE_END
G1 Z.6 F720
G1 X155.094 Y85.744 F10800
G1 Z.2 F720
G1 E.8 F1500
M204 S800
G1 F1200
G1 X155.317 Y85.317 E.02031
G1 X154.636 Y85.069 E.03056
M204 S1000
G1 X154.636 Y85.069 F10800
G1 X153.895 Y84.632
M204 S800
G1 F1200
G1 X153.94 Y84.364 E.01146
G1 X153.881 Y83.998 E.01563
G1 X153.676 Y83.671 E.01627
G1 X153.543 Y84.3 E.02711
G1 X153.449 Y84.42 E.00643
G1 X154.984 Y85.955 E.09153
G1 X154.607 Y86.674 E.03423
G1 X153.258 Y85.324 E.08047
G1 X153.057 Y86.219 E.03868
G1 X153.939 Y87.102 E.05262
G1 X153.207 Y87.465 E.03445
G1 X152.816 Y87.075 E.02329
G1 X152.758 Y87.292 E.00947
G1 X152.846 Y87.456 E.00785
G1 X152.971 Y87.462 E.00528
M204 S1000
;WIPE_START
G1 F8640
G1 X152.846 Y87.456 E-.0289
G1 X152.758 Y87.292 E-.04298
G1 X152.816 Y87.075 E-.05186
G1 X153.207 Y87.465 E-.12752
G1 X153.939 Y87.102 E-.18866
G1 X153.057 Y86.219 E-.28818
G1 X153.125 Y85.915 E-.0719
;WIPE_END
G1 Z.6 F720
G1 X149.763 Y91.921 F10800
G1 Z.2 F720
G1 E.8 F1500
M204 S800
G1 F1200
G1 X149.976 Y92.519 E.02677
G1 X150.439 Y92.687 E.02077
G1 X150.658 Y92.587 E.01015
G1 X149.767 Y91.697 E.0531
G1 X150.199 Y91.217 E.02723
G1 X150.306 Y91.14 E.00556
G1 X151.327 Y92.161 E.06088
G1 X151.877 Y91.615 E.03268
G1 X151.086 Y90.823 E.0472
G1 X151.567 Y90.75 E.02051
G1 X151.961 Y90.834 E.01699
G1 X152.077 Y90.94 E.00663
G1 X152.095 Y91.112 E.00729
G1 X152.02 Y91.429 E.01373
M204 S1000
G1 X152.02 Y91.429 F10800
G1 X152.869 Y91.229
M204 S800
G1 F1200
G1 X152.815 Y90.687 E.02297
G1 X152.657 Y90.42 E.01308
G1 X152.655 Y91.297 E.03698
G1 X152.819 Y91.461 E.00978
G1 X152.696 Y91.835 E.0166
G1 X152.425 Y92.163 E.01794
G1 X152.32 Y92.057 E.00629
G1 X151.696 Y92.53 E.03301
G1 X152.002 Y92.836 E.01825
G1 X151.464 Y93.393 E.03265
G1 X151.203 Y93.133 E.01553
G1 X151.02 Y93.461 E.01584
G1 X150.617 Y93.643 E.01864
G1 X150.8 Y93.826 E.01091
G1 X150.352 Y94.079 E.02169
G1 X150.306 Y94.427 E.0148
G1 X149.875 Y93.996 E.0257
G1 X149.535 Y93.371 E.03
M204 S1000
G1 X149.535 Y93.371 F10800
G1 X149.942 Y94.2
M204 S800
G1 F1200
G1 X149.498 Y94.715 E.02867
G1 X149.878 Y95.095 E.02266
G1 X149.676 Y95.989 E.03864
G1 X148.991 Y95.304 E.04085
G1 X148.484 Y95.892 E.03274
G1 X149.474 Y96.883 E.05906
G1 X149.272 Y97.777 E.03864
G1 X147.976 Y96.481 E.07728
G1 X147.469 Y97.07 E.03277
M73 P0 R59
G1 X149.07 Y98.671 E.09547
G1 X148.868 Y99.565 E.03864
G1 X148.381 Y99.077 E.02907
G1 X148.245 Y99.676 E.0259
G1 X148.078 Y99.87 E.01079
G1 X148.457 Y100.249 E.0226
G1 X147.982 Y100.871 E.033
G1 X147.569 Y100.457 E.02466
G1 X147.355 Y100.704 E.01378
G1 X146.474 Y100.265 E.0415
G1 X146.44 Y100.424 E.00686
G1 X147.461 Y101.445 E.06088
G1 X146.94 Y102.02 E.03272
G1 X146.247 Y101.327 E.04132
G1 X146.054 Y102.23 E.03893
G1 X146.419 Y102.595 E.02176
G1 X146.249 Y102.782 E.01066
G1 X145.887 Y102.869 E.0157
G1 X145.986 Y102.457 E.01787
M204 S1000
;WIPE_START
G1 F8640
G1 X145.887 Y102.869 E-.09784
G1 X146.249 Y102.782 E-.08597
G1 X146.419 Y102.595 E-.05835
G1 X146.054 Y102.23 E-.11919
G1 X146.247 Y101.327 E-.21321
G1 X146.938 Y102.017 E-.22544
;WIPE_END
G1 Z.6 F720
G1 X147.935 Y98.496 F10800
G1 Z.2 F720
G1 E.8 F1500
M204 S800
;TYPE:Support material
;WIDTH:0.65
G1 F1200
G1 X147.728 Y99.415 E.04755
G1 X147.216 Y100.006 E.03947
G1 X147.008 Y99.902 E.01174
G1 X147.256 Y98.936 E.05034
G1 X147.726 Y98.39 E.03637
G1 X147.854 Y98.455 E.00725
M204 S1000
G1 X147.854 Y98.455 F10800
G1 X147.076 Y98.079
M204 S800
;TYPE:Support material interface
;WIDTH:0.55
G1 F1200
G1 X146.933 Y98.449 E.01673
G1 X147.312 Y98.009 E.02449
G1 X147.161 Y97.858 E.009
G1 X147.381 Y97.289 E.02572
M204 S1000
;WIPE_START
G1 F8640
G1 X147.161 Y97.858 E-.14086
G1 X147.312 Y98.009 E-.04931
G1 X146.933 Y98.449 E-.13409
G1 X147.076 Y98.079 E-.09159
;WIPE_END
G1 E-.38415 F2100
G1 Z.6 F720
G1 X143.805 Y108.748 F10800
G1 Z.2 F720
G1 E.8 F1500
M204 S800
G1 F1200
G1 X143.861 Y108.943 E.00855
G1 X143.79 Y109.074 E.00628
G1 X143.336 Y109.353 E.02247
G1 X142.914 Y108.952 E.02455
G1 X142.544 Y109.32 E.022
G1 X142.656 Y109.406 E.00595
G1 X143.105 Y109.457 E.01905
M204 S1000
;WIPE_START
G1 F8640
G1 X142.656 Y109.406 E-.10434
G1 X142.544 Y109.32 E-.03261
G1 X142.914 Y108.952 E-.1205
G1 X143.336 Y109.353 E-.13442
G1 X143.79 Y109.074 E-.12304
G1 X143.861 Y108.943 E-.03441
G1 X143.805 Y108.748 E-.04685
;WIPE_END
G1 E-.20383 F2100
G1 Z.6 F720
G1 X105.802 Y95.16 F10800
G1 Z.2 F720
G1 E.8 F1500
M204 S800
G1 F1200
G1 X106.074 Y95.922 E.03411
G1 X106.449 Y96.17 E.01896
G1 X106.59 Y96.176 E.00595
G1 X106.53 Y95.581 E.02521
G1 X105.913 Y94.964 E.03679
M204 S1000
;WIPE_START
G1 F8640
G1 X106.53 Y95.581 E-.20148
G1 X106.59 Y96.176 E-.13808
G1 X106.449 Y96.17 E-.03259
G1 X106.074 Y95.922 E-.10381
G1 X105.802 Y95.16 E-.18682
;WIPE_END
G1 E-.13722 F2100
G1 Z.6 F720
G1 X109.679 Y84.481 F10800
G1 Z.2 F720
G1 E.8 F1500
M204 S800
;TYPE:Support material
;WIDTH:0.65
G1 F1200
G1 X109.686 Y85.201 E.03635
G1 X109.6 Y85.449 E.01325
G1 X109.253 Y86.1 E.03724
G1 X109.027 Y86.045 E.01174
G1 X109.017 Y85.263 E.03948
G1 X109.451 Y84.427 E.04755
G1 X109.59 Y84.46 E.00721
M204 S1000
;WIPE_START
G1 F8640
G1 X109.451 Y84.427 E-.03299
G1 X109.017 Y85.263 E-.2175
G1 X109.027 Y86.045 E-.18058
G1 X109.253 Y86.1 E-.05371
G1 X109.6 Y85.449 E-.17034
G1 X109.686 Y85.201 E-.06061
G1 X109.682 Y84.836 E-.08427
;WIPE_END
G1 Z.6 F720
G1 X107.964 Y88.477 F10800
G1 Z.2 F720
G1 E.8 F1500
M204 S800
;TYPE:Support material interface
;WIDTH:0.55
G1 F1200
G1 X107.975 Y88.79 E.01321
G1 X108.196 Y89.091 E.01574
G1 X108.397 Y88.682 E.01921
G1 X107.955 Y88.24 E.02636
G1 X107.915 Y87.104 E.04793
G1 X108.767 Y87.956 E.0508
G1 X109.149 Y87.242 E.03414
G1 X107.891 Y85.984 E.07501
G1 X107.935 Y85.182 E.03387
M204 S1000
;WIPE_START
G1 F8640
G1 X107.891 Y85.984 E-.18546
G1 X109.149 Y87.242 E-.41079
G1 X108.767 Y87.956 E-.18698
G1 X108.716 Y87.905 E-.01677
;WIPE_END
G1 Z.6 F720
G1 X108.466 Y86.175 F10800
G1 Z.2 F720
G1 E.8 F1500
M204 S800
G1 F1200
G1 X108.457 Y85.454 E.0304
G1 X107.948 Y84.945 E.03035
G1 X107.955 Y84.822 E.00519
G1 X108.285 Y84.186 E.03021
G1 X108.717 Y84.619 E.02579
G1 X109.092 Y83.897 E.0343
G1 X108.659 Y83.465 E.02579
G1 X109.034 Y82.743 E.0343
G1 X110.524 Y84.234 E.08888
G1 X110.727 Y83.648 E.02615
G1 X110.724 Y83.337 E.01311
G1 X109.408 Y82.022 E.07844
G1 X109.783 Y81.3 E.0343
G1 X110.712 Y82.23 E.05542
G1 X110.701 Y81.123 E.04668
G1 X110.157 Y80.579 E.03244
G1 X110.261 Y80.379 E.0095
G1 X110.176 Y79.924 E.01952
G1 X110.341 Y79.667 E.01288
G1 X110.689 Y80.015 E.02075
G1 X110.687 Y79.809 E.00869
G1 X111.329 Y79.559 E.02905
G1 X111.081 Y79.311 E.01479
G1 X110.661 Y79.155 E.01889
G1 X110.696 Y78.926 E.00977
G1 X110.048 Y78.279 E.03861
G1 X109.96 Y77.61 E.02845
G1 X110.063 Y77.197 E.01795
G1 X110.854 Y77.988 E.04717
G1 X111.072 Y77.921 E.00962
G1 X111.284 Y78.373 E.02105
G1 X111.746 Y78.543 E.02076
G1 X112.229 Y78.268 E.02343
G1 X110.9 Y76.939 E.07925
G1 X110.87 Y76.436 E.02125
G1 X110.998 Y76.145 E.0134
G1 X111.098 Y76.04 E.00611
G1 X112.408 Y77.351 E.07814
G1 X112.395 Y77.256 E.00404
G1 X112.712 Y77.107 E.01477
G1 X113.25 Y77.799 E.03696
G1 X113.077 Y76.924 E.03761
G1 X112.101 Y75.948 E.0582
G1 X112.003 Y75.464 E.02082
G1 X112.402 Y75.787 E.02164
G1 X112.988 Y76.704 E.04588
M204 S1000
;WIPE_START
G1 F8640
G1 X112.402 Y75.787 E-.25128
G1 X112.003 Y75.464 E-.11853
G1 X112.101 Y75.948 E-.11402
G1 X113.069 Y76.916 E-.31617
;WIPE_END
G1 Z.6 F720
G1 X112.98 Y72.759 F10800
G1 Z.2 F720
G1 E.8 F1500
M204 S800
G1 F1200
G1 X112.818 Y72.823 E.00734
G1 X112.545 Y72.615 E.01447
G1 X112.094 Y71.557 E.04849
G1 X113.087 Y72.55 E.05921
G1 X113.429 Y71.797 E.03487
G1 X112.112 Y70.479 E.07856
G1 X112.308 Y69.595 E.03818
G1 X113.801 Y71.073 E.08858
G1 X114.183 Y70.359 E.03414
G1 X114.063 Y70.239 E.00716
M204 S1000
;WIPE_START
G1 F8640
G1 X114.183 Y70.359 E-.03919
G1 X113.801 Y71.073 E-.18698
G1 X112.308 Y69.595 E-.48509
G1 X112.225 Y69.97 E-.08874
;WIPE_END
G1 Z.6 F720
G1 X112.447 Y68.903 F10800
G1 Z.2 F720
G1 E.8 F1500
M204 S800
G1 F1200
G1 X112.342 Y69.081 E.00871
G1 X112.154 Y69.18 E.00896
G1 X111.877 Y68.42 E.03411
G1 X112.201 Y68.396 E.0137
G1 X112.495 Y68.67 E.01695
G1 X113.873 Y69.157 E.06162
G1 X113.944 Y69.024 E.00636
G1 X113.003 Y68.083 E.05611
G1 X114.103 Y68.486 E.04939
G1 X114.181 Y69.066 E.02468
G1 X114.478 Y68.884 E.01469
G1 X114.65 Y68.859 E.00733
G1 X114.865 Y68.946 E.00978
G1 X114.517 Y69.596 E.03109
G1 X114.212 Y69.292 E.01816
G1 X114.097 Y68.738 E.02386
G1 X114.056 Y68.815 E.00368
M204 S1000
;WIPE_START
G1 F8640
G1 X114.097 Y68.738 E-.02014
G1 X114.212 Y69.292 E-.13065
G1 X114.517 Y69.596 E-.09943
G1 X114.865 Y68.946 E-.17024
G1 X114.65 Y68.859 E-.05355
G1 X114.478 Y68.884 E-.04013
G1 X114.181 Y69.066 E-.08043
G1 X114.103 Y68.486 E-.13513
G1 X113.817 Y68.381 E-.0703
;WIPE_END
G1 Z.6 F720
G1 X114.294 Y67.428 F10800
G1 Z.2 F720
G1 E.8 F1500
M204 S800
G1 F1200
G1 X114.219 Y67.652 E.00996
G1 X114.449 Y67.802 E.01158
G1 X114.633 Y67.587 E.01193
G1 X114.515 Y67.403 E.00922
M204 S1000
;WIPE_START
G1 F8640
G1 X114.633 Y67.587 E-.05047
G1 X114.449 Y67.802 E-.06534
G1 X114.219 Y67.652 E-.0634
G1 X114.294 Y67.428 E-.05454
;WIPE_END
G1 E-.56625 F2100
G1 Z.6 F720
G1 X112.827 Y67.027 F10800
G1 Z.2 F720
G1 E.8 F1500
M204 S800
G1 F1200
G1 X112.68 Y66.931 E.0074
G1 X112.478 Y66.949 E.00855
G1 X112.689 Y66.673 E.01465
G1 X113.05 Y67.034 E.02153
G1 X113.127 Y66.953 E.00471
G1 X113.039 Y66.598 E.01542
G1 X112.851 Y66.539 E.00831
M204 S1000
;WIPE_START
G1 F8640
G1 X113.039 Y66.598 E-.0455
G1 X113.127 Y66.953 E-.08445
G1 X113.05 Y67.034 E-.02581
G1 X112.689 Y66.673 E-.11788
G1 X112.478 Y66.949 E-.08022
G1 X112.68 Y66.931 E-.04683
G1 X112.827 Y67.027 E-.04054
;WIPE_END
G1 E-.35877 F2100
G1 Z.6 F720
G1 X115.613 Y56.972 F10800
G1 Z.2 F720
G1 E.8 F1500
M204 S800
;TYPE:Support material
;WIDTH:0.65
G1 F1200
G1 X116.28 Y57.124 E.03453
G1 X117.3 Y57.713 E.05946
G1 X118.529 Y57.971 E.06339
G1 X119.55 Y58.561 E.05953
G1 X120.352 Y59.425 E.05951
G1 X120.864 Y60.487 E.05951
M73 Q1 S60
G1 X121.041 Y61.652 E.05948
G1 X120.869 Y62.811 E.05915
M73 P1 R59
G1 X120.255 Y63.994 E.06728
G1 X120.43 Y65.166 E.05982
G1 X120.254 Y66.331 E.05948
G1 X119.741 Y67.394 E.05958
G1 X118.939 Y68.259 E.05954
G1 X117.92 Y68.848 E.05941
G1 X118.008 Y69.27 E.02176
G1 X117.955 Y69.524 E.0131
G1 X121.531 Y71.961 E.21844
G1 X122.133 Y73.626 E.08937
G1 X122.298 Y74.474 E.04361
G1 X122.36 Y75.408 E.04725
G1 X122.262 Y76.506 E.05565
G1 X121.9 Y77.844 E.06997
G1 X121.086 Y79.259 E.0824
G1 X120.617 Y79.747 E.03417
G1 X120.059 Y80.236 E.03745
G1 X119.286 Y80.725 E.04617
G1 X117.907 Y81.249 E.07447
G1 X117.147 Y81.337 E.03862
G1 X115.983 Y82.009 E.06785
G1 X116.367 Y82.737 E.04155
G1 X116.499 Y84.12 E.07013
G1 X116.263 Y85.243 E.05793
G1 X116.079 Y85.708 E.02524
G1 X115.137 Y87.475 E.10108
G1 X114.955 Y88.801 E.06756
G1 X114.304 Y89.948 E.06657
G1 X114.518 Y91.108 E.05954
G1 X114.432 Y91.86 E.03821
G1 X114.108 Y92.816 E.05095
G1 X114.298 Y93.174 E.02046
G1 X114.61 Y94.41 E.06435
G1 X115.051 Y94.965 E.03578
G1 X115.542 Y95.784 E.0482
G1 X116.279 Y95.664 E.03769
G1 X117.464 Y95.688 E.05983
G1 X117.965 Y95.798 E.02589
G1 X119.04 Y95.489 E.05646
