; generated by PrusaSlicer 2.7.4+win64 on 2024-06-08 at 18:22:41 UTC


;
;
; 

; external perimeters extrusion width = 0.68mm
; perimeters extrusion width = 0.68mm
; infill extrusion width = 0.68mm
; solid infill extrusion width = 0.68mm
; top infill extrusion width = 0.60mm
; first layer extrusion width = 0.65mm

; external perimeters extrusion width = 0.68mm
; perimeters extrusion width = 0.68mm
; infill extrusion width = 0.68mm
; solid infill extrusion width = 0.68mm
; top infill extrusion width = 0.60mm
; first layer extrusion width = 0.65mm

M73 P0 R5
M73 Q0 S5
M201 X1000 Y1000 Z200 E5000 ; sets maximum accelerations, mm/sec^2
M203 X200 Y200 Z12 E120 ; sets maximum feedrates, mm / sec
M204 S1250 T1250 ; sets acceleration (S) and retract acceleration (R), mm/sec^2
M205 X8.00 Y8.00 Z0.40 E4.50 ; sets the jerk limits, mm/sec
M205 S0 T0 ; sets the minimum extruding and travel feed rate, mm/sec

; printing object left-rubber-band-knob.stl id:0 copy 0
; stop printing object left-rubber-band-knob.stl id:0 copy 0
; printing object right-rubber-band-knob.stl id:1 copy 0
; stop printing object right-rubber-band-knob.stl id:1 copy 0

;TYPE:Custom
M862.3 P "MK3S" ; printer model check
M862.1 P0.6 ; nozzle diameter check
M115 U3.13.3 ; tell printer latest fw version
G90 ; use absolute coordinates
M83 ; extruder relative mode
M104 S230 ; set extruder temp
M140 S85 ; set bed temp
M190 S85 ; wait for bed temp
M109 S230 ; wait for extruder temp
G28 W ; home all without mesh bed level
G80 X61.6109 Y27.7716 W43.5377 H33.9787 ; mesh bed levelling

G1 Z0.2 F720
G1 Y-3 F1000 ; go outside print area
G92 E0
G1 X60 E9 F1000 ; intro line
G1 X100 E12.5 F1000 ; intro line
M73 P1 R5
M73 Q1 S5

G92 E0
M221 S95
G21 ; set units to millimeters
G90 ; use absolute coordinates
M83 ; use relative distances for extrusion

M900 K0.04 ; Filament gcode LA 1.5
M900 K24 ; Filament gcode LA 1.0




M107
;LAYER_CHANGE
;Z:0.2
;HEIGHT:0.2
G1 E-1 F2100
G1 Z.4 F720
G1 X62.678 Y33.084 F10800
G1 Z.2 F720
M73 P2 R5
M73 Q2 S5
G1 E1 F1500
M204 S800
;TYPE:Skirt/Brim
;WIDTH:0.65
G1 F1200
G1 X65.666 Y30.096 E.21331
G1 X67.334 Y29.338 E.09249
G1 X86.051 Y28.081 E.94694
G1 X94.251 Y28.075 E.41393
G1 X96.094 Y28.839 E.10071
G1 X99.082 Y31.826 E.21327
G1 X99.691 Y32.787 E.05743
G1 X104.691 Y46.687 E.74567
G1 X104.845 Y47.57 E.04525
G1 X104.845 Y54.595 E.35461
G1 X104.082 Y56.438 E.10069
M73 P3 R5
M73 Q3 S5
G1 X101.094 Y59.426 E.21331
G1 X99.389 Y60.186 E.09423
G1 X75.672 Y61.443 E1.19889
G1 X67.509 Y61.447 E.41206
G1 X65.666 Y60.683 E.10071
G1 X62.678 Y57.696 E.21327
G1 X61.914 Y55.852 E.10076
G1 X61.914 Y34.927 E1.05627
G1 X62.644 Y33.167 E.09618
M73 P4 R5
M73 Q4 S5
M204 S1000
;WIPE_START
G1 F8640
G1 X62.678 Y33.084 E-.02071
G1 X65.666 Y30.096 E-.97572
G1 X65.68 Y30.09 E-.00357
;WIPE_END
G1 Z.4 F720
G1 X65.434 Y34.967 F10800
G1 Z.2 F720
G1 E1 F1500
M204 S800
G1 F1200
G1 X66.062 Y34.023 E.05723
G1 X66.956 Y33.2 E.06134
G1 X68.134 Y32.611 E.06648
G1 X68.913 Y32.422 E.04046
G1 X79.047 Y32.412 E.51155
G1 X79.794 Y32.574 E.03858
G1 X80.496 Y32.853 E.03813
G1 X81.26 Y33.333 E.04555
G1 X82.079 Y34.138 E.05797
G1 X82.592 Y34.936 E.04789
G1 X82.914 Y35.757 E.04452
G1 X83.071 Y36.63 E.04478
G1 X83.052 Y40.437 E.19218
G1 X82.876 Y41.245 E.04174
G1 X82.56 Y42.008 E.04169
G1 X82.108 Y42.705 E.04193
G1 X81.355 Y43.471 E.05422
G1 X80.66 Y43.94 E.04232
G1 X79.859 Y44.285 E.04402
G1 X78.982 Y44.474 E.04529
G1 X78.075 Y44.488 E.04579
G1 X78.075 Y54.107 E.48556
G1 X77.928 Y54.969 E.04414
G1 X77.609 Y55.812 E.0455
G1 X76.98 Y56.757 E.0573
G1 X76.137 Y57.542 E.05815
G1 X75.487 Y57.929 E.03819
G1 X74.239 Y58.343 E.06637
G1 X69.263 Y58.393 E.2512
G1 X68.393 Y58.246 E.04454
M73 P5 R5
M73 Q5 S5
G1 X67.549 Y57.927 E.04555
G1 X66.605 Y57.299 E.05723
G1 X65.782 Y56.405 E.06134
G1 X65.189 Y55.218 E.06698
G1 X64.968 Y54.111 E.05698
G1 X64.968 Y36.672 E.8803
G1 X65.115 Y35.81 E.04414
G1 X65.402 Y35.051 E.04096
M204 S1000
G1 X65.402 Y35.051 F10800
G1 X65.968 Y35.269
M204 S800
G1 F1200
G1 X65.987 Y35.219 E.0027
G1 X66.545 Y34.393 E.05032
G1 X67.291 Y33.707 E.05116
G1 X68.343 Y33.181 E.05937
G1 X69.018 Y33.021 E.03502
G1 X78.953 Y33.012 E.50151
G1 X79.595 Y33.148 E.03313
G1 X80.245 Y33.407 E.03532
G1 X80.905 Y33.826 E.03946
G1 X81.625 Y34.543 E.05129
G1 X82.061 Y35.233 E.0412
G1 X82.336 Y35.946 E.03858
G1 X82.468 Y36.706 E.03894
G1 X82.446 Y40.401 E.18652
G1 X82.305 Y41.039 E.03298
G1 X82.032 Y41.706 E.03638
G1 X81.652 Y42.303 E.03572
G1 X80.945 Y43.022 E.0509
G1 X80.349 Y43.418 E.03612
G1 X79.651 Y43.714 E.03827
G1 X78.889 Y43.873 E.03929
G1 X77.468 Y43.882 E.07173
G1 X77.468 Y54.08 E.51478
G1 X77.336 Y54.834 E.03864
M73 P6 R5
M73 Q6 S5
G1 X77.056 Y55.56 E.03928
G1 X76.498 Y56.387 E.05036
G1 X75.752 Y57.073 E.05116
G1 X74.71 Y57.594 E.05881
G1 X74.124 Y57.746 E.03056
G1 X69.287 Y57.786 E.24417
G1 X68.528 Y57.654 E.03889
G1 X67.801 Y57.374 E.03933
G1 X66.975 Y56.816 E.05032
G1 X66.289 Y56.07 E.05116
G1 X65.761 Y55.014 E.0596
G1 X65.576 Y54.081 E.04801
G1 X65.576 Y36.699 E.87742
G1 X65.707 Y35.945 E.03863
G1 X65.936 Y35.353 E.03204
M204 S1000
G1 X65.936 Y35.353 F10800
G1 X66.499 Y35.575
M204 S800
G1 F1200
G1 X66.54 Y35.473 E.00555
G1 X66.985 Y34.813 E.04018
G1 X67.631 Y34.211 E.04457
G1 X68.551 Y33.752 E.0519
G1 X69.12 Y33.621 E.02947
G1 X78.859 Y33.613 E.49161
G1 X79.442 Y33.736 E.03008
G1 X79.989 Y33.958 E.0298
G1 X80.547 Y34.317 E.03349
G1 X81.17 Y34.945 E.04465
G1 X81.507 Y35.482 E.032
G1 X81.744 Y36.085 E.03271
G1 X81.861 Y36.731 E.03314
G1 X81.839 Y40.362 E.18329
G1 X81.503 Y41.408 E.05546
G1 X81.192 Y41.905 E.0296
G1 X80.578 Y42.538 E.04452
G1 X80.08 Y42.873 E.0303
G1 X79.491 Y43.127 E.03238
G1 X78.853 Y43.266 E.03296
G1 X76.86 Y43.279 E.10061
G1 X76.86 Y54.052 E.54381
G1 X76.744 Y54.695 E.03298
M73 P7 R5
M73 Q7 S5
G1 X76.503 Y55.307 E.0332
G1 X76.059 Y55.967 E.04015
G1 X75.412 Y56.568 E.04458
G1 X74.499 Y57.024 E.05152
G1 X74.011 Y57.148 E.02542
G1 X69.312 Y57.179 E.23721
G1 X68.667 Y57.062 E.03309
G1 X68.055 Y56.821 E.0332
G1 X67.394 Y56.377 E.0402
G1 X66.793 Y55.73 E.04458
G1 X66.333 Y54.809 E.05197
G1 X66.183 Y54.051 E.039
G1 X66.183 Y36.727 E.8745
G1 X66.299 Y36.085 E.03293
G1 X66.467 Y35.659 E.02312
M204 S1000
G1 X66.467 Y35.659 F10800
G1 X67.028 Y35.885
M204 S800
G1 F1200
G1 X67.09 Y35.73 E.00843
G1 X67.427 Y35.23 E.03044
G1 X67.974 Y34.712 E.03803
G1 X68.758 Y34.323 E.04418
G1 X69.219 Y34.22 E.02384
G1 X78.769 Y34.214 E.48207
G1 X79.733 Y34.509 E.05089
G1 X80.185 Y34.805 E.02727
G1 X80.712 Y35.345 E.03809
G1 X80.955 Y35.734 E.02315
G1 X81.154 Y36.229 E.02693
G1 X81.253 Y36.758 E.02717
G1 X81.232 Y40.32 E.17981
G1 X80.953 Y41.15 E.0442
G1 X80.698 Y41.551 E.02399
G1 X80.17 Y42.087 E.03798
G1 X79.772 Y42.35 E.02408
G1 X79.284 Y42.556 E.02674
G1 X78.761 Y42.666 E.02698
G1 X76.253 Y42.672 E.1266
G1 X76.253 Y54.023 E.57299
M73 P8 R5
M73 Q8 S5
G1 X76.154 Y54.55 E.02707
G1 X75.953 Y55.049 E.02716
G1 X75.616 Y55.55 E.03048
G1 X75.069 Y56.067 E.03799
G1 X74.289 Y56.454 E.04395
G1 X73.902 Y56.55 E.02013
G1 X69.34 Y56.571 E.23029
G1 X68.811 Y56.472 E.02717
G1 X68.312 Y56.271 E.02716
G1 X67.812 Y55.935 E.03041
G1 X67.294 Y55.387 E.03806
G1 X66.906 Y54.605 E.04407
G1 X66.79 Y54.021 E.03006
G1 X66.79 Y36.757 E.87147
G1 X66.889 Y36.229 E.02712
G1 X66.994 Y35.968 E.0142
M204 S1000
G1 X66.994 Y35.968 F10800
G1 X67.591 Y36.149
M204 S800
G1 F1200
G1 X67.639 Y35.991 E.00834
G1 X67.872 Y35.644 E.0211
G1 X68.322 Y35.211 E.03152
G1 X68.963 Y34.895 E.03608
G1 X69.313 Y34.821 E.01806
G1 X78.734 Y34.821 E.47556
G1 X79.47 Y35.057 E.03902
G1 X79.818 Y35.29 E.02114
G1 X80.25 Y35.74 E.03149
G1 X80.565 Y36.379 E.03596
G1 X80.646 Y36.788 E.02105
G1 X80.633 Y40.215 E.17299
G1 X80.403 Y40.89 E.036
G1 X80.208 Y41.191 E.0181
G1 X79.767 Y41.632 E.03148
G1 X79.082 Y41.983 E.03885
G1 X78.673 Y42.064 E.02105
G1 X75.646 Y42.064 E.1528
G1 X75.646 Y53.991 E.60206
M73 P9 R5
M73 Q9 S5
G1 X75.404 Y54.788 E.04205
G1 X75.171 Y55.136 E.02114
G1 X74.721 Y55.568 E.03149
G1 X73.797 Y55.951 E.05049
G1 X69.37 Y55.964 E.22347
G1 X68.573 Y55.722 E.04205
G1 X68.226 Y55.489 E.0211
G1 X67.793 Y55.039 E.03152
G1 X67.478 Y54.4 E.03596
G1 X67.397 Y53.991 E.02105
G1 X67.397 Y36.788 E.86839
G1 X67.565 Y36.236 E.02913
M204 S1000
G1 X67.565 Y36.236 F10800
G1 X68.145 Y36.476
M204 S800
G1 F1200
G1 X68.32 Y36.054 E.02306
G1 X68.829 Y35.608 E.03416
G1 X69.4 Y35.422 E.03031
G1 X78.699 Y35.428 E.4694
G1 X79.407 Y35.738 E.03901
M73 P9 R4
G1 X79.757 Y36.095 E.02524
G1 X79.993 Y36.584 E.02741
G1 X80.033 Y40.117 E.17835
G1 X79.723 Y40.825 E.03901
G1 X79.214 Y41.271 E.03416
G1 X78.643 Y41.457 E.03031
G1 X75.039 Y41.457 E.18193
G1 X75.039 Y53.962 E.63124
G1 X74.723 Y54.725 E.04169
M73 P10 R4
M73 Q10 S4
G1 X74.214 Y55.171 E.03416
G1 X73.699 Y55.352 E.02756
G1 X69.166 Y55.311 E.22883
G1 X68.636 Y55.041 E.03003
G1 X68.286 Y54.684 E.02524
G1 X68.05 Y54.195 E.02741
G1 X68.004 Y36.818 E.87717
G1 X68.111 Y36.559 E.01415
M204 S1000
G1 X68.111 Y36.559 F10800
G1 X68.644 Y36.76
M204 S800
G1 F1200
G1 X68.738 Y36.511 E.01344
G1 X69.043 Y36.189 E.02239
G1 X69.429 Y36.029 E.02109
G1 X78.672 Y36.041 E.46658
G1 X79 Y36.189 E.01816
G1 X79.272 Y36.461 E.01942
G1 X79.432 Y36.848 E.02114
G1 X79.432 Y40.032 E.16072
G1 X79.272 Y40.418 E.02109
G1 X78.951 Y40.723 E.02235
G1 X78.614 Y40.85 E.01818
G1 X74.432 Y40.85 E.2111
G1 X74.432 Y53.932 E.66036
G1 X74.305 Y54.269 E.01818
M73 P11 R4
M73 Q11 S4
G1 X74 Y54.59 E.02235
G1 X73.614 Y54.75 E.02109
G1 X69.429 Y54.75 E.21125
G1 X69.092 Y54.623 E.01818
G1 X68.771 Y54.318 E.02235
G1 X68.611 Y53.932 E.02109
G1 X68.611 Y36.848 E.86238
G1 X68.612 Y36.844 E.00021
M204 S1000
G1 X68.612 Y36.844 F10800
G1 X69.264 Y36.846
M204 S800
G1 F1200
G1 X69.264 Y36.826 E.00101
G1 X69.52 Y36.636 E.01609
G1 X78.523 Y36.636 E.45446
G1 X78.825 Y36.938 E.02156
G1 X78.825 Y39.941 E.15159
G1 X78.635 Y40.197 E.01609
G1 X73.825 Y40.243 E.24281
G1 X73.779 Y53.953 E.69207
G1 X73.523 Y54.143 E.01609
G1 X69.408 Y54.097 E.20773
G1 X69.218 Y53.841 E.01609
M73 P12 R4
G1 X69.264 Y36.936 E.85335
M204 S1000
;WIPE_START
G1 F8640
M73 Q12 S4
G1 X69.264 Y36.846 E-.02078
G1 X69.264 Y36.826 E-.00462
G1 X69.52 Y36.636 E-.07361
G1 X73.422 Y36.636 E-.90099
;WIPE_END
G1 Z.4 F720
G1 X83.685 Y36.936 F10800
G1 Z.2 F720
G1 E1 F1500
M204 S800
G1 F1200
G1 X83.685 Y35.411 E.07698
G1 X83.905 Y34.303 E.05702
G1 X84.499 Y33.116 E.067
G1 X85.266 Y32.271 E.05761
G1 X86.089 Y31.688 E.05091
G1 X87.017 Y31.301 E.05075
G1 X87.989 Y31.129 E.04983
G1 X92.579 Y31.135 E.2317
G1 X93.395 Y31.283 E.04186
G1 X94.212 Y31.595 E.04415
G1 X95.073 Y32.154 E.05182
G1 X95.674 Y32.738 E.0423
G1 X96.131 Y33.352 E.03864
G1 X96.576 Y34.328 E.05415
G1 X96.76 Y35.11 E.04055
G1 X96.787 Y45.034 E.50095
G1 X97.735 Y45.052 E.04786
G1 X98.553 Y45.23 E.04226
G1 X99.401 Y45.595 E.0466
G1 X100.14 Y46.109 E.04544
G1 X100.805 Y46.794 E.04819
G1 X101.275 Y47.513 E.04336
G1 X101.696 Y48.641 E.06078
G1 X101.791 Y49.335 E.03536
G1 X101.791 Y52.842 E.17703
G1 X101.588 Y53.904 E.05458
M73 P13 R4
G1 X101.155 Y54.87 E.05344
M73 Q13 S4
G1 X100.715 Y55.481 E.03801
G1 X100.172 Y56.028 E.03891
G1 X99.255 Y56.646 E.05582
G1 X98.18 Y57.04 E.05779
G1 X97.481 Y57.135 E.03561
G1 X87.521 Y57.086 E.50278
G1 X86.249 Y56.662 E.06768
G1 X85.31 Y56.035 E.057
G1 X84.373 Y54.962 E.07191
G1 X83.781 Y53.532 E.07813
G1 X83.685 Y52.83 E.03577
G1 X83.685 Y37.026 E.79777
M204 S1000
G1 X83.685 Y37.026 F10800
G1 X84.292 Y37.026
M204 S800
G1 F1200
G1 X84.292 Y35.441 E.08001
G1 X84.478 Y34.508 E.04802
G1 X84.701 Y33.968 E.02949
G1 X85.005 Y33.452 E.03023
G1 X85.691 Y32.706 E.05116
G1 X86.354 Y32.235 E.04105
G1 X87.219 Y31.874 E.04731
G1 X88.014 Y31.736 E.04073
G1 X92.549 Y31.742 E.22892
G1 X93.254 Y31.874 E.03621
G1 X93.961 Y32.149 E.03829
G1 X94.713 Y32.643 E.04542
G1 X95.23 Y33.152 E.03662
G1 X95.623 Y33.686 E.03347
G1 X95.994 Y34.501 E.0452
G1 X96.153 Y35.149 E.03368
G1 X96.181 Y45.638 E.52947
G1 X97.641 Y45.652 E.0737
M73 P14 R4
G1 X98.342 Y45.8 E.03617
M73 Q14 S4
G1 X99.131 Y46.14 E.04337
G1 X99.764 Y46.587 E.03912
G1 X100.346 Y47.192 E.04238
G1 X100.747 Y47.813 E.03731
G1 X101.1 Y48.759 E.05097
G1 X101.184 Y49.357 E.03048
G1 X101.184 Y52.814 E.17451
G1 X101.018 Y53.692 E.04511
G1 X100.644 Y54.541 E.04683
G1 X100.237 Y55.105 E.03511
G1 X99.764 Y55.578 E.03377
G1 X99.007 Y56.091 E.04616
G1 X98.061 Y56.444 E.05097
G1 X97.461 Y56.528 E.03058
G1 X87.636 Y56.488 E.49596
G1 X86.51 Y56.113 E.05991
G1 X85.718 Y55.584 E.04808
G1 X84.882 Y54.628 E.06411
G1 X84.377 Y53.409 E.06661
G1 X84.292 Y52.808 E.03064
G1 X84.292 Y37.116 E.79211
M204 S1000
G1 X84.292 Y37.116 F10800
G1 X84.899 Y37.116
M204 S800
G1 F1200
G1 X84.899 Y35.471 E.08304
G1 X85.05 Y34.712 E.03906
G1 X85.509 Y33.792 E.0519
G1 X86.112 Y33.144 E.04468
G1 X86.672 Y32.753 E.03448
G1 X87.416 Y32.449 E.04057
G1 X88.038 Y32.343 E.03185
G1 X92.518 Y32.349 E.22615
G1 X93.109 Y32.464 E.03039
G1 X93.705 Y32.7 E.03236
G1 X94.35 Y33.13 E.03913
G1 X95.113 Y34.017 E.05906
G1 X95.414 Y34.681 E.0368
G1 X95.546 Y35.191 E.02659
G1 X95.576 Y46.243 E.55789
G1 X97.552 Y46.253 E.09975
M73 P15 R4
M73 Q15 S4
G1 X98.136 Y46.371 E.03008
G1 X98.812 Y46.657 E.03705
G1 X99.351 Y47.032 E.03315
G1 X99.856 Y47.551 E.03655
G1 X100.192 Y48.063 E.03091
G1 X100.505 Y48.881 E.04421
G1 X100.577 Y49.379 E.0254
G1 X100.577 Y52.786 E.17198
G1 X100.447 Y53.484 E.03584
G1 X100.13 Y54.216 E.04027
G1 X99.354 Y55.129 E.06049
G1 X98.756 Y55.537 E.03654
G1 X97.939 Y55.849 E.04415
G1 X97.44 Y55.921 E.02545
G1 X87.749 Y55.891 E.48919
G1 X86.769 Y55.564 E.05215
G1 X86.127 Y55.134 E.039
G1 X85.391 Y54.296 E.0563
G1 X84.972 Y53.284 E.05529
G1 X84.899 Y52.785 E.02546
G1 X84.899 Y37.206 E.78641
M204 S1000
G1 X84.899 Y37.206 F10800
G1 X85.506 Y37.206
M204 S800
G1 F1200
G1 X85.506 Y35.501 E.08607
G1 X85.622 Y34.917 E.03006
G1 X85.805 Y34.476 E.0241
G1 X86.011 Y34.135 E.02011
G1 X86.529 Y33.586 E.0381
G1 X86.985 Y33.274 E.02789
G1 X87.609 Y33.025 E.03391
G1 X88.062 Y32.95 E.02318
G1 X92.486 Y32.956 E.22332
G1 X92.958 Y33.053 E.02432
G1 X93.448 Y33.251 E.02668
G1 X93.941 Y33.581 E.02995
G1 X94.574 Y34.298 E.04828
M73 P16 R4
G1 X94.948 Y35.302 E.05408
G1 X94.97 Y46.85 E.58293
M73 Q16 S4
G1 X97.467 Y46.855 E.12605
G1 X97.935 Y46.945 E.02406
G1 X98.498 Y47.177 E.03074
G1 X98.941 Y47.48 E.02709
G1 X99.37 Y47.915 E.03084
G1 X99.64 Y48.317 E.02444
G1 X99.91 Y49.008 E.03745
G1 X99.97 Y49.403 E.02017
G1 X99.97 Y52.759 E.16941
G1 X99.875 Y53.279 E.02668
G1 X99.614 Y53.896 E.03382
G1 X99.341 Y54.284 E.02395
G1 X98.945 Y54.681 E.02831
G1 X98.502 Y54.985 E.02712
G1 X97.812 Y55.254 E.03738
G1 X97.417 Y55.314 E.02017
G1 X87.858 Y55.293 E.48253
G1 X87.029 Y55.014 E.04415
G1 X86.535 Y54.684 E.02999
G1 X85.902 Y53.966 E.04832
G1 X85.566 Y53.155 E.04431
G1 X85.506 Y52.761 E.02012
G1 X85.506 Y37.296 E.78066
M204 S1000
G1 X85.506 Y37.296 F10800
G1 X86.118 Y37.294
M204 S800
G1 F1200
G1 X86.113 Y35.53 E.08905
G1 X86.195 Y35.122 E.02101
G1 X86.509 Y34.483 E.03594
G1 X86.942 Y34.032 E.03156
G1 X87.291 Y33.799 E.02118
G1 X87.796 Y33.604 E.02733
G1 X92.451 Y33.563 E.23499
G1 X93.187 Y33.8 E.03903
M73 P17 R4
G1 X93.533 Y34.031 E.021
G1 X94.062 Y34.625 E.04015
G1 X94.35 Y35.407 E.04207
G1 X94.363 Y47.457 E.60827
M73 Q17 S4
G1 X97.389 Y47.457 E.15275
G1 X97.735 Y47.519 E.01774
G1 X98.236 Y47.726 E.02736
G1 X98.888 Y48.286 E.04339
G1 X99.091 Y48.578 E.01795
G1 X99.317 Y49.14 E.03058
G1 X99.363 Y52.733 E.18139
G1 X99.301 Y53.08 E.01779
G1 X99.094 Y53.58 E.02732
G1 X98.534 Y54.233 E.04342
G1 X98.242 Y54.435 E.01792
G1 X97.68 Y54.661 E.03058
G1 X87.962 Y54.694 E.49056
G1 X87.289 Y54.465 E.03589
G1 X86.943 Y54.233 E.02103
G1 X86.415 Y53.641 E.04004
G1 X86.159 Y53.023 E.03377
G1 X86.118 Y37.384 E.78944
M204 S1000
G1 X86.118 Y37.384 F10800
G1 X86.72 Y37.384
M204 S800
G1 F1200
G1 X86.72 Y35.56 E.09207
G1 X86.906 Y34.99 E.03027
G1 X87.352 Y34.481 E.03416
G1 X88.112 Y34.165 E.04155
G1 X92.415 Y34.17 E.21721
G1 X93.125 Y34.481 E.03913
G1 X93.546 Y34.946 E.03166
G1 X93.75 Y35.505 E.03004
G1 X93.756 Y48.064 E.63396
M73 P18 R4
G1 X97.364 Y48.064 E.18213
M73 Q18 S4
G1 X97.929 Y48.25 E.03003
G1 X98.441 Y48.698 E.03434
G1 X98.756 Y49.457 E.04148
G1 X98.756 Y52.708 E.16411
G1 X98.57 Y53.273 E.03003
