; generated by PrusaSlicer 2.8.0+win64 on 2024-09-04 at 19:35:30 UTC


;
;
; 

; external perimeters extrusion width = 0.65mm
; perimeters extrusion width = 0.65mm
; infill extrusion width = 0.65mm
; solid infill extrusion width = 0.65mm
; top infill extrusion width = 0.60mm
; support material extrusion width = 0.55mm
; first layer extrusion width = 0.65mm

M73 P0 R35
M73 Q0 S36
M201 X1000 Y1000 Z200 E5000 ; sets maximum accelerations, mm/sec^2
M203 X200 Y200 Z12 E120 ; sets maximum feedrates, mm / sec
M204 S1250 T1250 ; sets acceleration (S) and retract acceleration (R), mm/sec^2
M205 X8.00 Y8.00 Z0.40 E4.50 ; sets the jerk limits, mm/sec
M205 S0 T0 ; sets the minimum extruding and travel feed rate, mm/sec

; printing object tinker(1).obj id:0 copy 0
; stop printing object tinker(1).obj id:0 copy 0

;TYPE:Custom
M862.3 P "MK3S" ; printer model check
M862.1 P0.6 ; nozzle diameter check
M115 U3.14.0 ; tell printer latest fw version
G90 ; use absolute coordinates
M83 ; extruder relative mode
M104 S215 ; set extruder temp
M140 S60 ; set bed temp
M190 S60 ; wait for bed temp
M109 S215 ; wait for extruder temp
G28 W ; home all without mesh bed level
G80 X88.3651 Y24.8173 W73.4206 H160.092 ; mesh bed levelling

G1 Z0.2 F720
G1 Y-3 F1000 ; go outside print area
G92 E0
G1 X60 E9 F1000 ; intro line
G1 X100 E12.5 F1000 ; intro line

G92 E0
M221 S95
G21 ; set units to millimeters
G90 ; use absolute coordinates
M83 ; use relative distances for extrusion

M900 K0.04 ; Filament gcode LA 1.5
M900 K18 ; Filament gcode LA 1.0




M107
;LAYER_CHANGE
;Z:0.2
;HEIGHT:0.2
G1 E-.8 F2100
G1 Z.6 F720
G1 X89.231 Y62.026 F10800
G1 Z.2 F720
G1 E.8 F1500
M204 S800
;TYPE:Skirt/Brim
;WIDTH:0.65
G1 F1200
G1 X119.965 Y27.123 E2.34757
G1 X121.476 Y25.901 E.0981
G1 X122.196 Y25.524 E.04103
G1 X123.582 Y25.165 E.07227
G1 X125.068 Y25.122 E.07504
G1 X131.417 Y25.483 E.32101
G1 X132.188 Y25.674 E.0401
G1 X156.468 Y36.383 E1.33955
G1 X156.919 Y36.647 E.02638
G1 X158.865 Y38.119 E.12317
G1 X159.962 Y39.13 E.07531
G1 X160.547 Y39.985 E.05229
G1 X161.251 Y41.787 E.09766
G1 X161.406 Y42.512 E.03742
G1 X161.482 Y44.086 E.07955
G1 X161.391 Y44.851 E.03889
G1 X120.551 Y182.958 E7.26991
G1 X119.812 Y184.078 E.06773
G1 X118.247 Y184.606 E.08337
G1 X102.113 Y183.893 E.81522
G1 X100.852 Y183.433 E.06776
G1 X99.944 Y181.811 E.09383
G1 X88.667 Y63.767 E5.98586
G1 X89.204 Y62.112 E.08783
M73 P1 R35
M73 Q1 S36
M204 S1000
;WIPE_START
G1 F8640
G1 X89.231 Y62.026 E-.02081
G1 X91.461 Y59.493 E-.77919
;WIPE_END
G1 Z.6 F720
; printing object tinker(1).obj id:0 copy 0
G1 X107.819 Y178.186 F10800
G1 Z.2 F720
G1 E.8 F1500
M204 S800
;TYPE:Support material interface
;WIDTH:0.55
G1 F1200
G1 X107.663 Y178.776 E.02573
G1 X108.725 Y178.796 E.04479
G1 X107.881 Y177.951 E.05036
G1 X108.112 Y177.072 E.03832
G1 X109.759 Y178.719 E.09821
G1 X109.991 Y177.839 E.03837
G1 X108.344 Y176.193 E.09818
G1 X108.576 Y175.313 E.03837
G1 X110.222 Y176.96 E.09818
G1 X110.454 Y176.081 E.03833
G1 X108.807 Y174.434 E.09821
G1 X109.039 Y173.555 E.03833
G1 X110.686 Y175.202 E.09821
G1 X110.918 Y174.322 E.03837
G1 X109.271 Y172.676 E.09818
G1 X109.503 Y171.796 E.03837
G1 X111.149 Y173.443 E.09818
G1 X111.381 Y172.564 E.03833
G1 X109.734 Y170.917 E.09821
G1 X109.966 Y170.038 E.03833
G1 X111.613 Y171.684 E.09818
G1 X112.799 Y171.76 E.05011
G1 X110.198 Y169.158 E.15512
G1 X110.429 Y168.279 E.03832
G1 X114.063 Y171.913 E.21669
G1 X113.996 Y170.734 E.04979
G1 X110.661 Y167.4 E.19883
G1 X110.893 Y166.52 E.03837
G1 X113.928 Y169.555 E.18097
G1 X113.86 Y168.377 E.04975
M73 Q1 S35
G1 X111.125 Y165.641 E.16311
G1 X111.356 Y164.762 E.03832
G1 X113.793 Y167.198 E.14529
G1 X113.725 Y166.02 E.04975
G1 X111.588 Y163.882 E.12746
G1 X111.82 Y163.003 E.03833
G1 X113.658 Y164.841 E.1096
G1 X113.59 Y163.662 E.04979
G1 X112.052 Y162.124 E.09171
G1 X112.283 Y161.244 E.03836
G1 X113.522 Y162.484 E.07391
G1 X113.455 Y161.305 E.04979
G1 X112.625 Y160.476 E.04946
G1 X113.412 Y160.555 E.03335
G1 X113.441 Y161.062 E.02141
M204 S1000
;WIPE_START
G1 F8640
G1 X113.412 Y160.555 E-.11726
G1 X112.625 Y160.476 E-.18263
G1 X113.455 Y161.305 E-.27087
G1 X113.512 Y162.296 E-.22924
;WIPE_END
G1 Z.6 F720
G1 X112.927 Y171.887 F10800
G1 Z.2 F720
G1 E.8 F1500
M204 S800
G1 F1200
G1 X114.131 Y173.091 E.07179
G1 X114.199 Y174.27 E.04979
G1 X112.994 Y173.066 E.07182
G1 X113.062 Y174.244 E.04975
G1 X114.266 Y175.449 E.07182
G1 X114.334 Y176.627 E.04975
G1 X113.129 Y175.423 E.07182
G1 X113.197 Y176.602 E.04979
G1 X114.401 Y177.806 E.07179
G1 X114.43 Y178.306 E.02112
G1 X114.537 Y178.412 E.00635
G1 X114.504 Y179.02 E.02567
G1 X113.265 Y177.78 E.07391
G1 X113.332 Y178.959 E.04979
G1 X113.424 Y179.051 E.00549
M204 S1000
;WIPE_START
G1 F8640
G1 X113.332 Y178.959 E-.03004
G1 X113.265 Y177.78 E-.27267
G1 X114.504 Y179.02 E-.40475
G1 X114.526 Y178.62 E-.09254
;WIPE_END
G1 Z.6 F720
G1 X112.381 Y172.288 F10800
G1 Z.2 F720
G1 E.8 F1500
M204 S800
;TYPE:Support material
;WIDTH:0.65
G1 F1200
G1 X112.619 Y176.445 E.21018
G1 X111.883 Y176.371 E.03734
G1 X111.793 Y174.801 E.07938
G1 X111.389 Y174.76 E.0205
G1 X112.05 Y172.255 E.13078
G1 X112.29 Y172.279 E.01218
M204 S1000
;WIPE_START
G1 F8640
G1 X112.05 Y172.255 E-.05569
G1 X111.389 Y174.76 E-.59821
G1 X111.793 Y174.801 E-.09376
G1 X111.806 Y175.027 E-.05234
;WIPE_END
G1 Z.6 F720
G1 X115.743 Y134.951 F10800
G1 Z.2 F720
G1 E.8 F1500
M204 S800
;TYPE:Support material interface
;WIDTH:0.55
G1 F1200
G1 X115.74 Y135.535 E.02462
G1 X116.663 Y135.679 E.03939
G1 X115.744 Y134.708 E.05637
G1 X115.75 Y133.602 E.04663
G1 X116.941 Y134.794 E.07105
G1 X117.207 Y133.948 E.03739
G1 X115.755 Y132.496 E.08658
G1 X115.76 Y131.391 E.04659
G1 X117.473 Y133.103 E.10211
G1 X117.738 Y132.257 E.03738
G1 X115.766 Y130.285 E.11759
G1 X115.771 Y129.179 E.04663
G1 X118.004 Y131.412 E.13315
G1 X118.269 Y130.566 E.03738
G1 X115.776 Y128.073 E.14865
G1 X115.782 Y126.968 E.04659
G1 X118.535 Y129.721 E.16416
G1 X118.8 Y128.876 E.03734
G1 X115.787 Y125.862 E.17969
G1 X115.792 Y124.756 E.04663
G1 X119.066 Y128.03 E.19522
G1 X119.332 Y127.185 E.03735
G1 X115.798 Y123.65 E.21076
G1 X115.803 Y122.545 E.04659
G1 X119.597 Y126.339 E.22623
G1 X119.863 Y125.494 E.03735
G1 X118.231 Y123.862 E.09731
G1 X117.863 Y123.805 E.0157
G1 X117.865 Y123.496 E.01303
G1 X115.808 Y121.439 E.12266
G1 X115.813 Y120.333 E.04663
G1 X117.87 Y122.39 E.12266
G1 X117.876 Y121.284 E.04663
G1 X115.819 Y119.228 E.12263
G1 X115.861 Y118.159 E.04511
G1 X117.881 Y120.179 E.12045
G1 X117.89 Y119.077 E.04647
G1 X115.908 Y117.094 E.11821
G1 X115.955 Y116.03 E.04491
G1 X117.937 Y118.012 E.11818
G1 X117.983 Y116.948 E.0449
G1 X116.001 Y114.966 E.11818
G1 X116.048 Y113.902 E.04491
G1 X118.03 Y115.884 E.11818
G1 X118.077 Y114.82 E.04491
G1 X116.095 Y112.838 E.11818
G1 X116.142 Y111.774 E.04491
G1 X118.124 Y113.756 E.11818
G1 X118.171 Y112.692 E.04491
G1 X116.189 Y110.709 E.11821
G1 X116.236 Y109.645 E.04491
G1 X118.218 Y111.627 E.11818
G1 X118.265 Y110.563 E.04491
G1 X116.283 Y108.581 E.11818
G1 X116.329 Y107.517 E.0449
G1 X118.312 Y109.499 E.11821
G1 X118.358 Y108.435 E.0449
G1 X116.376 Y106.452 E.11821
G1 X116.422 Y105.387 E.04495
G1 X118.405 Y107.371 E.11827
G1 X118.452 Y106.307 E.04491
G1 X116.468 Y104.323 E.1183
G1 X116.515 Y103.258 E.04495
G1 X118.499 Y105.242 E.1183
G1 X118.546 Y104.178 E.04491
G1 X116.561 Y102.194 E.11833
G1 X116.608 Y101.129 E.04495
G1 X118.593 Y103.114 E.11836
G1 X118.64 Y102.05 E.04491
G1 X116.654 Y100.064 E.11842
G1 X116.69 Y99.242 E.03469
M204 S1000
;WIPE_START
G1 F8640
G1 X116.654 Y100.064 E-.18998
G1 X118.522 Y101.932 E-.61002
;WIPE_END
G1 Z.6 F720
G1 X113.716 Y95.466 F10800
G1 Z.2 F720
G1 E.8 F1500
M204 S800
G1 F1200
G1 X112.604 Y93.792 E.08474
G1 X106.619 Y87.807 E.35688
G1 X106.203 Y88.16 E.023
M73 P2 R35
M73 Q2 S35
M204 S1000
G1 X106.203 Y88.16 F10800
G1 X106.254 Y87.372
M204 S800
;TYPE:Support material
;WIDTH:0.65
G1 F1200
G1 X105.99 Y87.597 E.01751
G1 X105.485 Y87.126 E.03486
G1 X105.865 Y86.787 E.02571
G1 X106.204 Y87.297 E.03091
M204 S1000
;WIPE_START
G1 F8640
G1 X105.865 Y86.787 E-.1414
G1 X105.485 Y87.126 E-.11758
G1 X105.99 Y87.597 E-.15945
G1 X106.254 Y87.372 E-.08009
;WIPE_END
G1 E-.30148 F2100
G1 Z.6 F720
G1 X105.111 Y84.627 F10800
G1 Z.2 F720
G1 E.8 F1500
M204 S800
;TYPE:Support material interface
;WIDTH:0.55
G1 F1200
G1 X106.224 Y86.301 E.08476
G1 X110.404 Y90.482 E.24928
G1 X111.516 Y92.155 E.0847
M204 S1000
;WIPE_START
G1 F8640
G1 X110.404 Y90.482 E-.46385
G1 X109.375 Y89.452 E-.33615
;WIPE_END
G1 Z.6 F720
G1 X109.317 Y88.844 F10800
G1 Z.2 F720
G1 E.8 F1500
M204 S800
G1 F1200
G1 X108.667 Y87.868 E.04944
G1 X108.402 Y87.646 E.01458
G1 X107.183 Y86.15 E.08137
G1 X104.024 Y82.99 E.1884
G1 X102.042 Y79.975 E.15213
M204 S1000
G1 X102.042 Y79.975 F10800
G1 X102.179 Y79.905
M204 S800
G1 F1200
G1 X101.76 Y78.919 E.04517
G1 X101.666 Y78.41 E.02182
G1 X97.535 Y74.279 E.24633
G1 X97.525 Y75.381 E.04647
G1 X99.521 Y77.376 E.11899
G1 X99.121 Y77.516 E.01787
G1 X99.116 Y78.083 E.02391
G1 X97.516 Y76.482 E.09544
G1 X97.555 Y77.632 E.04852
G1 X99.107 Y79.184 E.09254
G1 X99.098 Y80.286 E.04647
G1 X97.739 Y78.927 E.08104
G1 X98.017 Y80.316 E.05973
G1 X99.089 Y81.388 E.06392
G1 X99.086 Y81.76 E.01569
G1 X99.212 Y82.054 E.01349
G1 X105.972 Y88.357 E.3897
G1 X106.018 Y88.317 E.00257
G1 X114.806 Y97.105 E.52402
G1 X115.099 Y97.546 E.02232
G1 X115.335 Y97.634 E.01062
G1 X115.828 Y98.127 E.0294
G1 X116.053 Y98.099 E.00956
G1 X116.257 Y98.199 E.00958
G1 X116.701 Y99 E.03861
G1 X118.686 Y100.986 E.11839
G1 X118.733 Y99.922 E.04491
G1 X116.388 Y97.576 E.13986
G1 X116.784 Y97.077 E.02686
G1 X116.793 Y96.87 E.00874
G1 X118.78 Y98.857 E.11848
G1 X118.827 Y97.793 E.04491
G1 X116.84 Y95.806 E.11848
G1 X116.886 Y94.741 E.04495
G1 X118.874 Y96.729 E.11854
G1 X118.921 Y95.665 E.04491
G1 X116.934 Y93.678 E.11848
G1 X116.98 Y92.613 E.04495
G1 X118.968 Y94.601 E.11854
G1 X119.015 Y93.537 E.04491
G1 X117.027 Y91.549 E.11854
G1 X117.074 Y90.485 E.04491
G1 X119.061 Y92.472 E.11848
G1 X119.108 Y91.408 E.04491
G1 X117.12 Y89.42 E.11854
G1 X117.167 Y88.356 E.04491
G1 X119.155 Y90.344 E.11854
G1 X119.202 Y89.28 E.04491
G1 X117.214 Y87.291 E.11857
G1 X117.26 Y86.227 E.0449
G1 X119.249 Y88.216 E.1186
G1 X119.296 Y87.151 E.04495
G1 X117.307 Y85.163 E.11857
M73 P2 R34
G1 X117.354 Y84.098 E.04495
G1 X119.342 Y86.087 E.11857
G1 X119.388 Y85.022 E.04495
G1 X117.4 Y83.034 E.11854
G1 X117.447 Y81.97 E.04491
G1 X119.435 Y83.958 E.11854
G1 X119.481 Y82.893 E.04495
G1 X117.494 Y80.905 E.11851
G1 X117.54 Y79.841 E.0449
G1 X119.528 Y81.829 E.11854
G1 X119.575 Y80.764 E.04495
G1 X117.587 Y78.777 E.11851
G1 X117.634 Y77.712 E.04495
G1 X119.621 Y79.7 E.11851
G1 X119.668 Y78.636 E.04491
G1 X117.68 Y76.648 E.11854
G1 X117.727 Y75.583 E.04495
G1 X119.715 Y77.571 E.11854
G1 X119.761 Y76.507 E.0449
G1 X117.954 Y74.7 E.10775
G1 X118.234 Y73.869 E.03697
G1 X119.808 Y75.443 E.09386
G1 X120.073 Y74.596 E.03742
G1 X118.514 Y73.038 E.09293
G1 X118.794 Y72.207 E.03697
G1 X120.353 Y73.765 E.09293
G1 X120.633 Y72.934 E.03697
G1 X119.074 Y71.376 E.09293
G1 X119.354 Y70.545 E.03697
G1 X120.913 Y72.103 E.09293
G1 X121.193 Y71.272 E.03697
G1 X119.634 Y69.714 E.09293
G1 X119.914 Y68.883 E.03697
G1 X121.473 Y70.441 E.09293
G1 X121.753 Y69.61 E.03697
G1 X120.194 Y68.052 E.09293
G1 X120.474 Y67.221 E.03697
G1 X122.033 Y68.78 E.09296
G1 X122.066 Y68.683 E.00432
G1 X123.227 Y68.862 E.04953
G1 X120.754 Y66.39 E.14743
G1 X121.034 Y65.559 E.03697
G1 X124.477 Y69.001 E.20527
G1 X124.455 Y67.868 E.04778
G1 X121.314 Y64.728 E.18726
G1 X121.595 Y63.897 E.03699
G1 X124.434 Y66.736 E.16929
G1 X124.412 Y65.603 E.04778
G1 X121.875 Y63.066 E.15128
G1 X122.155 Y62.235 E.03697
G1 X124.39 Y64.47 E.13327
G1 X124.369 Y63.338 E.04774
G1 X122.435 Y61.404 E.11532
G1 X122.715 Y60.573 E.03697
G1 X124.347 Y62.205 E.09731
G1 X124.325 Y61.072 E.04778
G1 X122.995 Y59.742 E.07931
G1 X123.275 Y58.911 E.03697
G1 X124.304 Y59.94 E.06136
G1 X124.282 Y58.807 E.04778
G1 X124.208 Y58.733 E.00441
M204 S1000
;WIPE_START
G1 F8640
G1 X124.282 Y58.807 E-.02416
G1 X124.304 Y59.94 E-.26166
G1 X123.275 Y58.911 E-.33602
G1 X123.029 Y59.642 E-.17816
;WIPE_END
G1 Z.6 F720
G1 X123.336 Y68.971 F10800
G1 Z.2 F720
G1 E.8 F1500
M204 S800
G1 F1200
G1 X124.499 Y70.134 E.06935
G1 X124.52 Y71.266 E.04774
G1 X123.358 Y70.104 E.06929
G1 X123.379 Y71.237 E.04778
G1 X124.542 Y72.399 E.06932
G1 X124.563 Y73.532 E.04778
G1 X123.401 Y72.369 E.06932
G1 X123.423 Y73.502 E.04778
G1 X124.585 Y74.664 E.06929
G1 X124.605 Y75.774 E.04681
G1 X123.444 Y74.635 E.06858
G1 X123.456 Y75.758 E.04735
G1 X124.536 Y76.837 E.06437
G1 X124.468 Y77.88 E.04407
G1 X123.388 Y76.801 E.06437
G1 X123.32 Y77.844 E.04407
G1 X124.4 Y78.923 E.06437
G1 X124.332 Y79.966 E.04407
G1 X123.252 Y78.887 E.06437
G1 X123.184 Y79.93 E.04407
G1 X124.264 Y81.009 E.06437
G1 X124.196 Y82.052 E.04407
G1 X123.116 Y80.973 E.06437
G1 X123.048 Y82.016 E.04407
G1 X124.128 Y83.095 E.06437
G1 X124.06 Y84.138 E.04407
G1 X122.98 Y83.059 E.06437
G1 X122.912 Y84.102 E.04407
G1 X123.992 Y85.181 E.06437
G1 X123.924 Y86.224 E.04407
G1 X122.844 Y85.145 E.06437
G1 X122.776 Y86.188 E.04407
G1 X123.856 Y87.267 E.06437
G1 X123.788 Y88.31 E.04407
G1 X122.708 Y87.231 E.06437
G1 X122.64 Y88.274 E.04407
G1 X123.72 Y89.353 E.06437
G1 X123.652 Y90.397 E.04411
G1 X122.572 Y89.317 E.0644
G1 X122.504 Y90.36 E.04407
G1 X123.584 Y91.44 E.0644
G1 X123.516 Y92.483 E.04407
G1 X122.436 Y91.403 E.0644
G1 X122.368 Y92.446 E.04407
G1 X123.448 Y93.526 E.0644
G1 X123.38 Y94.569 E.04407
G1 X122.3 Y93.489 E.0644
G1 X122.232 Y94.532 E.04407
G1 X123.312 Y95.612 E.0644
G1 X123.244 Y96.655 E.04407
G1 X122.164 Y95.575 E.0644
G1 X122.096 Y96.618 E.04407
G1 X123.176 Y97.698 E.0644
G1 X123.108 Y98.741 E.04407
G1 X122.028 Y97.661 E.0644
G1 X121.96 Y98.704 E.04407
G1 X123.039 Y99.784 E.06437
G1 X122.971 Y100.826 E.04403
G1 X121.892 Y99.747 E.06434
G1 X121.824 Y100.79 E.04407
G1 X122.903 Y101.869 E.06434
G1 X122.835 Y102.912 E.04407
G1 X121.756 Y101.833 E.06434
G1 X121.688 Y102.876 E.04407
G1 X122.767 Y103.955 E.06434
G1 X122.699 Y104.998 E.04407
G1 X121.62 Y103.919 E.06434
G1 X121.552 Y104.962 E.04407
G1 X122.631 Y106.041 E.06434
G1 X122.563 Y107.084 E.04407
G1 X121.484 Y106.005 E.06434
G1 X121.416 Y107.048 E.04407
G1 X122.495 Y108.127 E.06434
G1 X122.427 Y109.17 E.04407
G1 X121.348 Y108.091 E.06434
G1 X121.28 Y109.134 E.04407
G1 X122.359 Y110.213 E.06434
G1 X122.291 Y111.256 E.04407
G1 X121.212 Y110.177 E.06434
G1 X121.144 Y111.22 E.04407
G1 X122.223 Y112.299 E.06434
G1 X122.155 Y113.342 E.04407
G1 X121.076 Y112.263 E.06434
G1 X121.008 Y113.306 E.04407
G1 X122.086 Y114.385 E.06431
G1 X122.018 Y115.428 E.04407
G1 X120.94 Y114.349 E.06431
G1 X120.872 Y115.392 E.04407
G1 X121.95 Y116.471 E.06431
G1 X121.882 Y117.514 E.04407
G1 X120.803 Y116.435 E.06434
G1 X120.735 Y117.478 E.04407
G1 X121.814 Y118.557 E.06434
G1 X121.757 Y119.439 E.03727
G1 X121.722 Y119.575 E.00592
G1 X120.667 Y118.521 E.06288
G1 X120.566 Y119.531 E.0428
G1 X121.456 Y120.421 E.05307
G1 X121.191 Y121.266 E.03734
G1 X120.301 Y120.377 E.05304
G1 X120.035 Y121.222 E.03735
G1 X120.925 Y122.112 E.05307
G1 X120.659 Y122.957 E.03735
G1 X119.77 Y122.068 E.05301
M73 P3 R34
G1 X119.504 Y122.913 E.03735
G1 X120.394 Y123.803 E.05307
G1 X120.128 Y124.648 E.03735
G1 X119.239 Y123.758 E.05304
G1 X119.16 Y124.007 E.01101
G1 X118.471 Y123.9 E.0294
M204 S1000
;WIPE_START
G1 F8640
G1 X119.16 Y124.007 E-.161
G1 X119.239 Y123.758 E-.06032
M73 Q3 S35
G1 X120.128 Y124.648 E-.29046
G1 X120.394 Y123.803 E-.20455
G1 X120.138 Y123.547 E-.08367
;WIPE_END
G1 Z.6 F720
G1 X120.963 Y105.257 F10800
G1 Z.2 F720
G1 E.8 F1500
M204 S800
;TYPE:Support material
;WIDTH:0.65
G1 F1200
G1 X120.049 Y119.274 E.70907
G1 X118.765 Y123.371 E.21673
G1 X118.434 Y123.319 E.01691
G1 X118.446 Y120.717 E.13135
G1 X118.797 Y120.772 E.01793
G1 X119.347 Y119.021 E.09265
G1 X120.247 Y105.218 E.69824
G1 X120.873 Y105.252 E.03165
M204 S1000
;WIPE_START
G1 F8640
G1 X120.247 Y105.218 E-.14476
G1 X120.062 Y108.05 E-.65524
;WIPE_END
G1 Z.6 F720
G1 X106.464 Y90.985 F10800
G1 Z.2 F720
G1 E.8 F1500
M204 S800
;TYPE:Support material interface
;WIDTH:0.55
G1 F1200
