; generated by PrusaSlicer 2.7.4+win64 on 2024-06-05 at 16:36:40 UTC


;
;
; 

; external perimeters extrusion width = 0.68mm
; perimeters extrusion width = 0.68mm
; infill extrusion width = 0.68mm
; solid infill extrusion width = 0.68mm
; top infill extrusion width = 0.60mm
; first layer extrusion width = 0.65mm

M73 P0 R41
M73 Q0 S42
M201 X1000 Y1000 Z200 E5000 ; sets maximum accelerations, mm/sec^2
M203 X200 Y200 Z12 E120 ; sets maximum feedrates, mm / sec
M204 S1250 T1250 ; sets acceleration (S) and retract acceleration (R), mm/sec^2
M205 X8.00 Y8.00 Z0.40 E4.50 ; sets the jerk limits, mm/sec
M205 S0 T0 ; sets the minimum extruding and travel feed rate, mm/sec

; printing object Spool_Bushing_one_lip-Part.stl id:0 copy 0
; stop printing object Spool_Bushing_one_lip-Part.stl id:0 copy 0

;TYPE:Custom
M862.3 P "MK3S" ; printer model check
M862.1 P0.6 ; nozzle diameter check
M115 U3.13.3 ; tell printer latest fw version
G90 ; use absolute coordinates
M83 ; extruder relative mode
M104 S230 ; set extruder temp
M140 S85 ; set bed temp
M190 S85 ; wait for bed temp
M109 S230 ; wait for extruder temp
G28 W ; home all without mesh bed level
G80 X92.0903 Y87.1449 W65.8194 H35.8119 ; mesh bed levelling

G1 Z0.2 F720
G1 Y-3 F1000 ; go outside print area
G92 E0
G1 X60 E9 F1000 ; intro line
G1 X100 E12.5 F1000 ; intro line

G92 E0
M221 S95
G21 ; set units to millimeters
G90 ; use absolute coordinates
M83 ; use relative distances for extrusion

M900 K0.04 ; Filament gcode LA 1.5
M900 K24 ; Filament gcode LA 1.0




M107
;LAYER_CHANGE
;Z:0.2
;HEIGHT:0.2
G1 E-1 F2100
G1 Z.4 F720
G1 X92.752 Y88.736 F10800
G1 Z.2 F720
G1 E1 F1500
M204 S800
;TYPE:Skirt/Brim
;WIDTH:0.65
G1 F1200
G1 X93.786 Y87.748 E.07219
G1 X95 Y87.448 E.06312
G1 X155 Y87.448 E3.02873
G1 X156.375 Y87.841 E.07219
M73 Q0 S41
G1 X157.337 Y88.9 E.07222
G1 X157.606 Y90.121 E.06311
G1 X157.451 Y93.237 E.15749
G1 X157.252 Y94.851 E.08209
G1 X156.582 Y98.164 E.17062
G1 X156.139 Y99.729 E.0821
G1 X155.071 Y102.661 E.15752
G1 X153.667 Y105.593 E.1641
G1 X151.977 Y108.37 E.1641
G1 X150.02 Y110.965 E.16407
G1 X147.813 Y113.352 E.1641
G1 X145.279 Y115.589 E.17063
G1 X142.636 Y117.481 E.16408
G1 X139.818 Y119.101 E.16408
G1 X136.852 Y120.432 E.1641
G1 X133.769 Y121.461 E.16407
G1 X130.598 Y122.178 E.16411
G1 X127.372 Y122.575 E.16407
G1 X124.252 Y122.653 E.15754
G1 X121.01 Y122.417 E.16409
G1 X117.808 Y121.859 E.16407
G1 X114.677 Y120.985 E.16409
G1 X111.649 Y119.803 E.16408
G1 X108.753 Y118.326 E.1641
G1 X106.019 Y116.568 E.16408
G1 X103.474 Y114.546 E.16408
G1 X101.142 Y112.281 E.1641
G1 X99.048 Y109.795 E.16408
G1 X97.211 Y107.113 E.1641
G1 X95.651 Y104.261 E.1641
G1 X94.382 Y101.269 E.16406
G1 X93.418 Y98.164 E.16412
G1 X92.768 Y94.98 E.16404
G1 X92.438 Y91.746 E.1641
G1 X92.394 Y90.121 E.08206
G1 X92.729 Y88.823 E.06767
M204 S1000
;WIPE_START
G1 F8640
G1 X92.752 Y88.736 E-.02078
G1 X93.786 Y87.748 E-.33022
G1 X95 Y87.448 E-.28875
G1 X96.56 Y87.448 E-.36025
;WIPE_END
G1 Z.4 F720
; printing object Spool_Bushing_one_lip-Part.stl id:0 copy 0
G1 X101.373 Y91.188 F10800
G1 Z.2 F720
G1 E1 F1500
M204 S800
;TYPE:Perimeter
;WIDTH:0.649999
G1 F1200
G1 X101.399 Y91.256 E.00367
G1 X101.483 Y92.386 E.0572
G1 X101.619 Y93.479 E.0556
G1 X101.832 Y94.716 E.06336
G1 X102.093 Y95.865 E.05948
G1 X102.411 Y96.999 E.05945
G1 X102.786 Y98.117 E.05953
G1 X103.215 Y99.214 E.05946
G1 X103.699 Y100.289 E.05951
G1 X104.235 Y101.338 E.05946
G1 X104.823 Y102.359 E.05947
G1 X105.462 Y103.349 E.05948
G1 X106.149 Y104.306 E.05947
G1 X106.882 Y105.228 E.05946
G1 X107.661 Y106.113 E.05952
G1 X108.483 Y106.957 E.05947
G1 X109.346 Y107.759 E.05947
G1 X110.284 Y108.546 E.06181
G1 X111.222 Y109.255 E.05935
G1 X112.16 Y109.895 E.05732
G1 X113.164 Y110.51 E.05943
G1 X114.199 Y111.075 E.05952
G1 X115.301 Y111.605 E.06173
G1 X116.345 Y112.046 E.05721
G1 X117.452 Y112.45 E.05949
G1 X118.621 Y112.81 E.06174
G1 X119.764 Y113.1 E.05953
G1 X120.919 Y113.332 E.05947
G1 X122.084 Y113.507 E.05947
G1 X123.211 Y113.62 E.05717
G1 X124.434 Y113.681 E.06181
G1 X125.612 Y113.679 E.05946
G1 X126.743 Y113.623 E.05716
G1 X127.961 Y113.501 E.06179
G1 X129.081 Y113.332 E.05718
G1 X130.236 Y113.1 E.05947
G1 X131.379 Y112.81 E.05953
G1 X132.505 Y112.464 E.05946
G1 X133.655 Y112.046 E.06177
G1 X134.699 Y111.605 E.05721
G1 X135.761 Y111.095 E.05947
G1 X136.836 Y110.51 E.06178
G1 X137.84 Y109.895 E.05943
G1 X138.813 Y109.23 E.05949
G1 X139.752 Y108.518 E.05949
G1 X140.654 Y107.759 E.05951
G1 X141.517 Y106.957 E.05947
G1 X142.339 Y106.113 E.05947
G1 X143.088 Y105.263 E.05719
G1 X143.824 Y104.343 E.05947
G1 X144.513 Y103.387 E.05948
G1 X145.177 Y102.359 E.06178
G1 X145.765 Y101.338 E.05947
G1 X146.301 Y100.289 E.05946
G1 X146.785 Y99.214 E.05951
G1 X147.199 Y98.159 E.05721
G1 X147.575 Y97.043 E.05945
G1 X147.896 Y95.909 E.05949
G1 X148.159 Y94.76 E.0595
G1 X148.371 Y93.555 E.06176
G1 X148.517 Y92.386 E.05947
G1 X148.604 Y91.188 E.06063
G1 X153.839 Y91.188 E.26426
G1 X153.832 Y91.487 E.0151
G1 X153.724 Y92.93 E.07304
G1 X153.545 Y94.358 E.07265
G1 X153.295 Y95.776 E.07268
G1 X152.975 Y97.179 E.07264
G1 X152.585 Y98.564 E.07263
G1 X152.127 Y99.929 E.07268
G1 X151.601 Y101.269 E.07267
G1 X151.009 Y102.581 E.07266
G1 X150.352 Y103.862 E.07267
G1 X149.632 Y105.108 E.07264
G1 X148.852 Y106.317 E.07263
G1 X148.011 Y107.486 E.07269
G1 X147.114 Y108.611 E.07263
G1 X146.161 Y109.69 E.07267
G1 X145.156 Y110.721 E.07268
G1 X144.101 Y111.7 E.07265
G1 X142.999 Y112.625 E.07263
G1 X141.851 Y113.494 E.07268
G1 X140.662 Y114.305 E.07265
G1 X139.434 Y115.056 E.07266
G1 X138.17 Y115.744 E.07264
G1 X136.873 Y116.368 E.07265
G1 X135.546 Y116.928 E.07271
G1 X134.194 Y117.42 E.07263
G1 X132.818 Y117.844 E.07268
G1 X131.424 Y118.199 E.07261
G1 X130.013 Y118.485 E.07267
G1 X128.59 Y118.699 E.07264
G1 X127.157 Y118.842 E.0727
G1 X125.72 Y118.914 E.07263
G1 X124.28 Y118.914 E.07269
G1 X122.843 Y118.842 E.07263
G1 X121.41 Y118.699 E.0727
G1 X119.987 Y118.485 E.07264
G1 X118.576 Y118.199 E.07267
G1 X117.182 Y117.844 E.07261
G1 X115.806 Y117.42 E.07268
G1 X114.453 Y116.928 E.07267
G1 X113.127 Y116.368 E.07266
G1 X111.83 Y115.744 E.07265
G1 X110.566 Y115.056 E.07264
G1 X109.339 Y114.306 E.07259
G1 X108.094 Y113.453 E.07618
G1 X107.001 Y112.625 E.06922
G1 X105.899 Y111.7 E.07263
G1 X104.844 Y110.721 E.07265
G1 X103.839 Y109.69 E.07268
G1 X102.886 Y108.611 E.07267
G1 X101.989 Y107.486 E.07263
G1 X101.148 Y106.317 E.07269
G1 X100.368 Y105.108 E.07263
G1 X99.682 Y103.921 E.06921
G1 X98.991 Y102.58 E.07615
G1 X98.399 Y101.269 E.07261
G1 X97.873 Y99.929 E.07267
G1 X97.415 Y98.564 E.07268
G1 X97.025 Y97.179 E.07263
G1 X96.705 Y95.775 E.07269
G1 X96.455 Y94.358 E.07263
G1 X96.276 Y92.93 E.07265
G1 X96.169 Y91.502 E.07229
G1 X96.161 Y91.188 E.01586
G1 X101.283 Y91.188 E.25855
M204 S1000
G1 X101.283 Y91.188 F10800
G1 X101.988 Y90.581
M204 S800
;TYPE:External perimeter
G1 F1200
G1 X102.004 Y91.211 E.03181
G1 X102.089 Y92.341 E.0572
G1 X102.233 Y93.495 E.0587
G1 X102.433 Y94.625 E.05793
G1 X102.685 Y95.73 E.05721
G1 X102.996 Y96.835 E.05795
M73 Q1 S41
G1 X103.361 Y97.923 E.05793
M73 P1 R41
G1 X103.78 Y98.992 E.05796
G1 X104.259 Y100.053 E.05876
G1 X104.782 Y101.072 E.05782
G1 X105.357 Y102.068 E.05805
G1 X105.98 Y103.032 E.05794
G1 X106.641 Y103.952 E.05718
G1 X107.357 Y104.85 E.05798
G1 X108.127 Y105.722 E.05872
G1 X108.929 Y106.544 E.05797
G1 X109.77 Y107.324 E.0579
G1 X110.65 Y108.062 E.05797
G1 X111.565 Y108.754 E.05791
G1 X112.502 Y109.393 E.05725
G1 X113.494 Y110 E.05871
G1 X114.503 Y110.548 E.05796
G1 X115.537 Y111.046 E.05793
G1 X116.595 Y111.492 E.05796
G1 X117.66 Y111.879 E.0572
G1 X118.771 Y112.222 E.05869
G1 X119.884 Y112.505 E.05797
G1 X120.994 Y112.729 E.05716
G1 X122.144 Y112.903 E.05871
G1 X123.287 Y113.017 E.05798
G1 X124.434 Y113.074 E.05797
G1 X125.566 Y113.074 E.05714
G1 X126.713 Y113.017 E.05797
G1 X127.871 Y112.901 E.05875
G1 X129.006 Y112.729 E.05795
G1 X130.116 Y112.505 E.05716
G1 X131.229 Y112.222 E.05797
G1 X132.326 Y111.884 E.05794
G1 X133.419 Y111.486 E.05872
G1 X134.477 Y111.04 E.05796
G1 X135.497 Y110.548 E.05717
G1 X136.519 Y109.992 E.05873
G1 X137.498 Y109.393 E.05794
G1 X138.447 Y108.746 E.05798
G1 X139.362 Y108.052 E.05797
G1 X140.241 Y107.314 E.05794
G1 X141.082 Y106.533 E.05794
G1 X141.873 Y105.722 E.05719
G1 X142.633 Y104.862 E.05793
G1 X143.349 Y103.964 E.05798
G1 X144.02 Y103.032 E.05797
G1 X144.651 Y102.055 E.05871
G1 X145.225 Y101.061 E.05794
G1 X145.748 Y100.039 E.05795
G1 X146.22 Y98.992 E.05797
G1 X146.634 Y97.938 E.05716
G1 X147 Y96.85 E.05795
G1 X147.311 Y95.744 E.05799
G1 X147.567 Y94.625 E.05795
G1 X147.769 Y93.48 E.05869
G1 X147.911 Y92.341 E.05794
G1 X147.996 Y91.211 E.0572
G1 X148.012 Y90.581 E.03181
G1 X154.462 Y90.581 E.32559
G1 X154.439 Y91.502 E.04651
G1 X154.328 Y92.99 E.07532
G1 X154.146 Y94.449 E.07422
G1 X153.89 Y95.896 E.07418
G1 X153.563 Y97.329 E.0742
G1 X153.165 Y98.743 E.07415
G1 X152.697 Y100.137 E.07423
G1 X152.16 Y101.505 E.07418
G1 X151.556 Y102.844 E.07415
G1 X150.885 Y104.152 E.07421
G1 X150.151 Y105.425 E.07418
G1 X149.353 Y106.659 E.07418
G1 X148.495 Y107.853 E.07422
G1 X147.579 Y109.002 E.07418
G1 X146.607 Y110.104 E.07417
G1 X145.58 Y111.156 E.07421
G1 X144.503 Y112.155 E.07415
G1 X143.377 Y113.1 E.0742
G1 X142.206 Y113.987 E.07415
G1 X140.991 Y114.815 E.07422
G1 X139.737 Y115.581 E.07418
G1 X138.447 Y116.284 E.07416
G1 X137.123 Y116.922 E.07419
G1 X135.768 Y117.493 E.07422
G1 X134.387 Y117.996 E.07419
G1 X132.983 Y118.429 E.07417
G1 X131.559 Y118.791 E.07417
G1 X130.118 Y119.083 E.07422
G1 X128.665 Y119.302 E.07417
G1 X127.203 Y119.448 E.07417
G1 X125.735 Y119.521 E.07419
G1 X124.265 Y119.521 E.0742
G1 X122.797 Y119.448 E.07419
G1 X121.335 Y119.302 E.07417
G1 X119.882 Y119.083 E.07417
G1 X118.441 Y118.791 E.07422
G1 X117.017 Y118.429 E.07417
G1 X115.613 Y117.996 E.07417
G1 X114.232 Y117.493 E.07419
G1 X112.877 Y116.922 E.07422
G1 X111.553 Y116.284 E.07419
G1 X110.263 Y115.581 E.07416
G1 X109.009 Y114.815 E.07418
G1 X107.739 Y113.945 E.07771
G1 X106.623 Y113.1 E.07066
G1 X105.497 Y112.155 E.0742
G1 X104.42 Y111.156 E.07415
G1 X103.393 Y110.104 E.07421
G1 X102.421 Y109.002 E.07417
G1 X101.505 Y107.853 E.07418
G1 X100.647 Y106.659 E.07422
G1 X99.849 Y105.425 E.07418
G1 X99.149 Y104.212 E.0707
G1 X98.444 Y102.844 E.07769
G1 X97.84 Y101.505 E.07415
G1 X97.303 Y100.137 E.07418
G1 X96.835 Y98.743 E.07423
G1 X96.437 Y97.329 E.07415
G1 X96.11 Y95.896 E.0742
G1 X95.854 Y94.449 E.07418
G1 X95.672 Y92.99 E.07422
G1 X95.562 Y91.525 E.07416
G1 X95.538 Y90.581 E.04767
G1 X101.898 Y90.581 E.32105
M204 S1000
;WIPE_START
G1 F8640
G1 X101.988 Y90.581 E-.02078
G1 X102.004 Y91.211 E-.14552
G1 X102.089 Y92.341 E-.26166
G1 X102.233 Y93.495 E-.26853
G1 X102.433 Y94.625 E-.26498
G1 X102.47 Y94.788 E-.03853
;WIPE_END
G1 Z.4 F720
G1 X153.506 Y92.585 F10800
G1 Z.2 F720
G1 E1 F1500
M204 S800
;TYPE:Solid infill
;WIDTH:0.657579
G1 F1200
G1 X152.625 Y91.704 E.06368
G1 X151.756 Y91.704 E.04441
G1 X153.179 Y93.127 E.10285
G1 X153.083 Y93.899 E.03976
G1 X150.887 Y91.704 E.15869
G1 X150.017 Y91.704 E.04446
G1 X152.969 Y94.655 E.21333
G1 X152.839 Y95.394 E.03835
G1 X149.148 Y91.704 E.26675
G1 X149.085 Y91.704 E.00322
G1 X149.028 Y92.452 E.03834
G1 X152.689 Y96.113 E.26461
G1 X152.527 Y96.821 E.03712
G1 X148.933 Y93.226 E.25981
G1 X148.82 Y93.983 E.03912
G1 X152.346 Y97.509 E.25486
G1 X152.155 Y98.188 E.03605
G1 X148.69 Y94.723 E.25045
G1 X148.533 Y95.435 E.03726
G1 X151.946 Y98.847 E.24665
G1 X151.727 Y99.498 E.0351
G1 X148.367 Y96.138 E.24286
G1 X148.176 Y96.816 E.036
G1 X151.492 Y100.133 E.23971
G1 X151.247 Y100.757 E.03426
G1 X147.971 Y97.481 E.23679
G1 X147.753 Y98.132 E.03509
G1 X150.99 Y101.368 E.23393
G1 X150.719 Y101.967 E.0336
G1 X147.516 Y98.764 E.23151
G1 X147.271 Y99.388 E.03426
G1 X150.441 Y102.558 E.22913
G1 X150.146 Y103.133 E.03303
G1 X147.002 Y99.989 E.22725
G1 X146.73 Y100.586 E.03353
G1 X149.848 Y103.703 E.22533
G1 X149.529 Y104.254 E.03254
G1 X146.435 Y101.16 E.22363
G1 X146.135 Y101.729 E.03288
G1 X149.211 Y104.806 E.22237
G1 X148.872 Y105.335 E.03211
G1 X145.817 Y102.28 E.22081
G1 X145.491 Y102.824 E.03241
G1 X148.53 Y105.863 E.21966
G1 X148.174 Y106.376 E.03191
G1 X145.15 Y103.352 E.21857
G1 X144.8 Y103.871 E.03199
G1 X147.81 Y106.882 E.2176
G1 X147.437 Y107.378 E.03172
G1 X144.436 Y104.377 E.21691
G1 X144.062 Y104.872 E.03171
G1 X147.052 Y107.862 E.21611
G1 X146.663 Y108.342 E.03158
G1 X143.676 Y105.355 E.2159
G1 X143.279 Y105.827 E.03152
G1 X146.256 Y108.804 E.21518
G1 X145.848 Y109.266 E.0315
G1 X142.871 Y106.289 E.21518
G1 X142.451 Y106.738 E.03142
G1 X145.422 Y109.709 E.21474
G1 X144.993 Y110.149 E.03141
G1 X142.022 Y107.178 E.21474
G1 X141.579 Y107.604 E.03141
G1 X144.552 Y110.578 E.21492
G1 X144.101 Y110.996 E.03143
G1 X141.128 Y108.023 E.21489
G1 X140.662 Y108.426 E.03149
G1 X143.645 Y111.409 E.21561
G1 X143.172 Y111.806 E.03156
G1 X140.189 Y108.822 E.21564
G1 X139.702 Y109.204 E.03163
M73 P1 R40
G1 X142.7 Y112.202 E.21669
G1 X142.677 Y112.222 E.00156
G1 X142.206 Y112.578 E.03018
G1 X139.207 Y109.579 E.21677
G1 X138.695 Y109.936 E.0319
G1 X141.712 Y112.953 E.21807
G1 X141.55 Y113.075 E.01036
G1 X141.202 Y113.312 E.02152
G1 X138.178 Y110.288 E.21857
G1 X137.642 Y110.621 E.03225
G1 X140.685 Y113.665 E.21998
G1 X140.159 Y114.008 E.03209
G1 X137.102 Y110.951 E.22096
G1 X136.541 Y111.259 E.03271
G1 X139.619 Y114.337 E.22248
G1 X139.176 Y114.609 E.02657
G1 X139.076 Y114.663 E.00581
G1 X135.976 Y111.563 E.22407
G1 X135.389 Y111.845 E.03328
G1 X138.513 Y114.969 E.2258
G1 X137.95 Y115.276 E.03277
G1 X134.798 Y112.124 E.22782
G1 X134.186 Y112.381 E.03392
G1 X137.364 Y115.559 E.2297
G1 X136.777 Y115.842 E.03331
G1 X133.564 Y112.628 E.23227
G1 X132.927 Y112.86 E.03465
G1 X136.171 Y116.104 E.23447
G1 X135.559 Y116.362 E.03394
G1 X132.273 Y113.075 E.23755
G1 X131.608 Y113.28 E.03557
G1 X134.931 Y116.603 E.24018
G1 X134.293 Y116.835 E.0347
G1 X130.918 Y113.46 E.24394
G1 X130.218 Y113.629 E.0368
G1 X133.64 Y117.051 E.24734
G1 X132.976 Y117.256 E.03552
G1 X129.495 Y113.775 E.2516
G1 X128.754 Y113.903 E.03843
G1 X132.296 Y117.445 E.25601
G1 X131.603 Y117.621 E.03654
G1 X127.998 Y114.017 E.26053
G1 X127.208 Y114.096 E.04058
G1 X130.893 Y117.78 E.26631
G1 X130.17 Y117.926 E.0377
G1 X126.4 Y114.156 E.27249
G1 X125.57 Y114.196 E.04247
G1 X129.425 Y118.051 E.27864
G1 X128.67 Y118.165 E.03902
G1 X124.701 Y114.197 E.28684
G1 X123.801 Y114.165 E.04603
M73 Q2 S41
G1 X127.886 Y118.251 E.2953
M73 P2 R40
G1 X127.095 Y118.329 E.04062
G1 X122.87 Y114.104 E.30538
G1 X121.898 Y114.001 E.04996
G1 X126.263 Y118.366 E.3155
G1 X125.426 Y118.398 E.04281
G1 X120.873 Y113.846 E.32905
G1 X119.79 Y113.631 E.05643
G1 X124.556 Y118.398 E.34452
G1 X123.655 Y118.366 E.04608
G1 X118.635 Y113.346 E.36284
G1 X117.392 Y112.972 E.06634
G1 X122.733 Y118.313 E.38604
G1 X121.767 Y118.216 E.04962
G1 X116.018 Y112.468 E.4155
G1 X115.068 Y112.067 E.0527
G1 X114.451 Y111.769 E.03502
G1 X120.761 Y118.079 E.45608
G1 X119.715 Y117.903 E.05421
G1 X111.657 Y109.845 E.58243
M204 S1000
;WIPE_START
G1 F8640
G1 X114.719 Y112.907 E-1
;WIPE_END
G1 Z.4 F720
G1 X101.25 Y92.484 F10800
G1 Z.2 F720
G1 E1 F1500
M204 S800
G1 F1200
G1 X100.47 Y91.704 E.05638
G1 X99.6 Y91.704 E.04446
G1 X101.059 Y93.163 E.10546
G1 X101.216 Y94.188 E.053
G1 X98.731 Y91.704 E.17958
G1 X97.862 Y91.704 E.04441
G1 X101.43 Y95.271 E.25786
G1 X101.598 Y96.014 E.03893
G1 X101.714 Y96.425 E.02183
G1 X96.993 Y91.704 E.34123
G1 X96.701 Y91.704 E.01492
G1 X96.748 Y92.328 E.03198
G1 X102.093 Y97.674 E.38637
G1 X102.308 Y98.315 E.03455
G1 X102.594 Y99.044 E.04002
G1 X96.841 Y93.291 E.41582
G1 X96.966 Y94.285 E.0512
G1 X103.274 Y100.592 E.4559
G1 X103.78 Y101.58 E.05673
G1 X104.309 Y102.497 E.05411
G1 X97.152 Y95.34 E.5173
G1 X97.387 Y96.444 E.05769
G1 X118.621 Y117.678 E1.53478
G1 X117.455 Y117.381 E.0615
G1 X97.682 Y97.609 E1.42914
G1 X97.908 Y98.412 E.04264
G1 X98.057 Y98.853 E.02379
G1 X116.208 Y117.004 E1.31194
G1 X114.862 Y116.527 E.07298
G1 X98.534 Y100.199 E1.18017
G1 X98.875 Y101.068 E.04771
G1 X99.155 Y101.689 E.03482
G1 X113.381 Y115.916 E1.02828
G1 X112.066 Y115.285 E.07455
