; generated by PrusaSlicer 2.7.4+win64 on 2024-06-05 at 15:09:38 UTC


;
;
; 

; external perimeters extrusion width = 0.68mm
; perimeters extrusion width = 0.68mm
; infill extrusion width = 0.68mm
; solid infill extrusion width = 0.68mm
; top infill extrusion width = 0.60mm
; support material extrusion width = 0.55mm
; first layer extrusion width = 0.65mm

M73 P0 R54
M73 Q0 S55
M201 X1000 Y1000 Z200 E5000 ; sets maximum accelerations, mm/sec^2
M203 X200 Y200 Z12 E120 ; sets maximum feedrates, mm / sec
M204 S1250 T1250 ; sets acceleration (S) and retract acceleration (R), mm/sec^2
M205 X8.00 Y8.00 Z0.40 E4.50 ; sets the jerk limits, mm/sec
M205 S0 T0 ; sets the minimum extruding and travel feed rate, mm/sec

; printing object Spool_Bushing-Part.stl id:0 copy 0
; stop printing object Spool_Bushing-Part.stl id:0 copy 0

;TYPE:Custom
M862.3 P "MK3S" ; printer model check
M862.1 P0.6 ; nozzle diameter check
M115 U3.13.3 ; tell printer latest fw version
G90 ; use absolute coordinates
M83 ; extruder relative mode
M104 S230 ; set extruder temp
M140 S85 ; set bed temp
M190 S85 ; wait for bed temp
M109 S230 ; wait for extruder temp
G28 W ; home all without mesh bed level
G80 X83.8756 Y87.1449 W74.0342 H43.601 ; mesh bed levelling

G1 Z0.2 F720
G1 Y-3 F1000 ; go outside print area
G92 E0
G1 X60 E9 F1000 ; intro line
G1 X100 E12.5 F1000 ; intro line

G92 E0
M221 S95
G21 ; set units to millimeters
G90 ; use absolute coordinates
M83 ; use relative distances for extrusion

M900 K0.04 ; Filament gcode LA 1.5
M900 K24 ; Filament gcode LA 1.0




M107
;LAYER_CHANGE
;Z:0.2
;HEIGHT:0.2
G1 E-1 F2100
G1 Z.4 F720
G1 X93.64 Y87.831 F10800
G1 Z.2 F720
G1 E1 F1500
M204 S800
;TYPE:Skirt/Brim
;WIDTH:0.65
G1 F1200
G1 X95 Y87.448 E.07132
G1 X155 Y87.448 E3.02873
G1 X156.375 Y87.841 E.07219
G1 X157.337 Y88.9 E.07222
G1 X157.606 Y90.121 E.06311
G1 X157.438 Y93.367 E.16407
G1 X157.237 Y94.955 E.0808
G1 X152.526 Y123.152 E1.44308
G1 X152.078 Y124.673 E.08004
G1 X151.599 Y125.699 E.05716
G1 X150.43 Y127.369 E.1029
G1 X149.629 Y128.17 E.05718
G1 X148.353 Y129.111 E.08003
G1 X146.506 Y129.973 E.10289
G1 X145.412 Y130.266 E.05717
G1 X143.836 Y130.444 E.08006
G1 X141.808 Y130.267 E.10276
G1 X90.376 Y116.538 E2.68713
G1 X88.922 Y115.903 E.08009
G1 X87.253 Y114.734 E.10286
G1 X86.452 Y113.934 E.05715
G1 X85.51 Y112.658 E.08006
G1 X84.649 Y110.811 E.10287
G1 X84.277 Y109.269 E.08007
G1 X84.178 Y107.686 E.08006
G1 X84.356 Y106.111 E.08001
G1 X84.804 Y104.589 E.08009
G1 X92.671 Y88.883 E.88672
G1 X93.579 Y87.897 E.06766
M204 S1000
;WIPE_START
G1 F8640
G1 X93.64 Y87.831 E-.02075
G1 X95 Y87.448 E-.32624
G1 X97.828 Y87.448 E-.65301
;WIPE_END
G1 Z.4 F720
; printing object Spool_Bushing-Part.stl id:0 copy 0
G1 X144.196 Y114.903 F10800
G1 Z.2 F720
G1 E1 F1500
M204 S800
;TYPE:Support material
G1 F1200
G1 X144.737 Y114.95 E.02741
G1 X145.831 Y115.243 E.05717
G1 X146.858 Y115.722 E.0572
G1 X147.786 Y116.371 E.05716
G1 X148.587 Y117.172 E.05718
G1 X149.236 Y118.1 E.05716
G1 X149.715 Y119.126 E.05716
G1 X150.008 Y120.22 E.05717
G1 X150.107 Y121.349 E.05721
G1 X150.008 Y122.477 E.05716
G1 X149.715 Y123.571 E.05717
G1 X149.236 Y124.598 E.0572
G1 X148.587 Y125.525 E.05712
G1 X147.786 Y126.326 E.05718
G1 X147.303 Y126.664 E.02976
G1 X146.858 Y126.976 E.02743
G1 X145.831 Y127.455 E.0572
G1 X144.737 Y127.748 E.05717
G1 X143.609 Y127.846 E.05715
G1 X142.481 Y127.748 E.05715
G1 X141.387 Y127.455 E.05717
G1 X140.36 Y126.976 E.0572
G1 X139.433 Y126.326 E.05715
G1 X138.632 Y125.525 E.05718
G1 X137.982 Y124.598 E.05715
G1 X137.503 Y123.571 E.0572
G1 X137.21 Y122.477 E.05717
G1 X137.112 Y121.349 E.05715
G1 X137.21 Y120.221 E.05715
G1 X137.503 Y119.126 E.05722
G1 X138.029 Y118.033 E.06123
G1 X140.444 Y116.783 E.13727
G1 X141.757 Y115.98 E.07769
G1 X143.343 Y114.874 E.0976
G1 X144.105 Y114.895 E.03848
M204 S1000
G1 X144.105 Y114.895 F10800
G1 X149.283 Y123.85
M204 S800
G1 F1200
G1 X149.283 Y119.626 E.21322
G1 X149.199 Y119.314 E.01631
G1 X148.609 Y118.156 E.0656
G1 X148.609 Y124.541 E.32231
G1 X147.934 Y125.405 E.05535
G1 X147.934 Y117.292 E.40954
G1 X147.26 Y116.67 E.0463
G1 X147.26 Y126.028 E.47238
G1 X146.585 Y126.5 E.04158
G1 X146.585 Y116.198 E.52003
G1 X145.91 Y115.883 E.0376
G1 X145.91 Y126.815 E.55184
G1 X145.236 Y127.048 E.036
G1 X145.236 Y115.649 E.57541
G1 X144.561 Y115.483 E.03509
G1 X144.561 Y127.215 E.59222
G1 X143.887 Y127.274 E.03415
G1 X143.887 Y115.424 E.59817
G1 X143.609 Y115.4 E.01409
G1 X143.212 Y115.649 E.02366
G1 X143.212 Y127.263 E.58626
G1 X142.538 Y127.197 E.03419
G1 X142.538 Y116.109 E.55971
G1 X141.863 Y116.556 E.04087
G1 X141.863 Y127.017 E.52806
G1 X141.189 Y126.759 E.03643
G1 X141.189 Y116.969 E.49419
G1 X140.514 Y117.368 E.03958
G1 X140.514 Y126.417 E.45678
G1 X139.84 Y125.944 E.04156
G1 X139.84 Y117.735 E.41438
G1 X139.165 Y118.092 E.03855
G1 X139.165 Y125.286 E.36315
G1 X138.491 Y124.371 E.05737
G1 X138.491 Y118.417 E.30055
G1 X138.019 Y119.314 E.05117
G1 X137.816 Y120.07 E.03951
G1 X137.816 Y123.595 E.17794
M204 S1000
;WIPE_START
G1 F8640
G1 X137.816 Y120.07 E-.81393
G1 X138.019 Y119.314 E-.18075
G1 X138.03 Y119.294 E-.00532
;WIPE_END
G1 Z.4 F720
G1 X93.86 Y101.467 F10800
G1 Z.2 F720
G1 E1 F1500
M204 S800
G1 F1200
G1 X94.401 Y101.515 E.02742
G1 X95.495 Y101.808 E.05717
G1 X96.729 Y102.431 E.06978
G1 X97.895 Y104.828 E.13455
G1 X99.77 Y107.914 E.18228
G1 X99.672 Y109.042 E.05715
G1 X99.378 Y110.136 E.05718
G1 X98.9 Y111.162 E.05714
G1 X98.25 Y112.09 E.05719
G1 X97.449 Y112.891 E.05718
G1 X96.521 Y113.541 E.05719
G1 X95.495 Y114.019 E.05714
G1 X94.401 Y114.312 E.05717
G1 X93.273 Y114.411 E.05716
G1 X92.144 Y114.312 E.05721
G1 X91.05 Y114.019 E.05717
G1 X90.024 Y113.541 E.05714
G1 X89.096 Y112.891 E.05719
G1 X88.295 Y112.09 E.05718
G1 X87.646 Y111.162 E.05716
G1 X87.167 Y110.136 E.05716
G1 X86.874 Y109.042 E.05717
G1 X86.775 Y107.914 E.05716
G1 X86.874 Y106.785 E.05721
G1 X87.167 Y105.691 E.05717
G1 X87.646 Y104.665 E.05716
G1 X88.295 Y103.737 E.05716
G1 X89.096 Y102.936 E.05718
G1 X90.024 Y102.286 E.05719
G1 X91.05 Y101.808 E.05714
G1 X92.144 Y101.515 E.05717
G1 X93.273 Y101.416 E.05721
G1 X93.769 Y101.459 E.02513
M204 S1000
G1 X93.769 Y101.459 F10800
G1 X98.693 Y110.959
M204 S800
G1 F1200
G1 X98.693 Y107.211 E.18919
G1 X98.019 Y106.135 E.06409
G1 X98.019 Y111.468 E.2692
G1 X97.344 Y112.223 E.05112
G1 X97.344 Y104.952 E.36703
G1 X96.67 Y103.629 E.07495
M73 P1 R54
M73 Q1 S55
G1 X96.67 Y112.77 E.46143
G1 X95.995 Y113.183 E.03995
G1 X95.995 Y102.644 E.532
G1 X95.321 Y102.329 E.03756
G1 X95.321 Y113.498 E.5638
G1 X94.646 Y113.681 E.0353
G1 X94.646 Y102.146 E.58227
G1 X93.972 Y102.026 E.03456
G1 X93.972 Y113.802 E.59444
G1 X93.297 Y113.861 E.0342
G1 X93.297 Y101.967 E.6004
G1 X92.622 Y102.021 E.03418
G1 X92.622 Y113.806 E.59489
G1 X91.948 Y113.694 E.03449
G1 X91.948 Y102.133 E.58359
G1 X91.273 Y102.314 E.03528
G1 X91.273 Y113.513 E.56531
G1 X90.599 Y113.206 E.03739
G1 X90.599 Y102.621 E.53432
G1 X89.924 Y103.023 E.03966
G1 X89.924 Y112.804 E.49373
G1 X89.25 Y112.272 E.04334
G1 X89.25 Y103.555 E.44002
G1 X88.575 Y104.29 E.05037
G1 X88.575 Y111.537 E.36582
G1 X88.121 Y110.888 E.03998
G1 X87.901 Y110.417 E.02624
G1 X87.901 Y104.777 E.2847
M204 S1000
;WIPE_START
G1 F8640
G1 X87.901 Y109.108 E-1
;WIPE_END
G1 Z.4 F720
G1 X101.373 Y91.188 F10800
G1 Z.2 F720
G1 E1 F1500
M204 S800
;TYPE:Perimeter
;WIDTH:0.649999
G1 F1200
G1 X101.399 Y91.256 E.00367
G1 X101.483 Y92.386 E.0572
G1 X101.619 Y93.479 E.0556
G1 X101.832 Y94.716 E.06336
G1 X102.093 Y95.865 E.05948
G1 X102.411 Y96.999 E.05945
G1 X102.786 Y98.117 E.05953
G1 X103.215 Y99.214 E.05946
G1 X103.699 Y100.289 E.05951
G1 X104.235 Y101.338 E.05946
G1 X104.823 Y102.359 E.05947
G1 X105.462 Y103.349 E.05948
G1 X106.149 Y104.306 E.05947
G1 X106.882 Y105.228 E.05946
G1 X107.661 Y106.113 E.05952
G1 X108.483 Y106.957 E.05947
G1 X109.346 Y107.759 E.05947
G1 X110.284 Y108.546 E.06181
G1 X111.222 Y109.255 E.05935
G1 X112.16 Y109.895 E.05732
G1 X113.164 Y110.51 E.05943
G1 X114.199 Y111.075 E.05952
G1 X115.301 Y111.605 E.06173
G1 X116.345 Y112.046 E.05721
G1 X117.452 Y112.45 E.05949
G1 X118.621 Y112.81 E.06174
G1 X119.764 Y113.1 E.05953
G1 X120.919 Y113.332 E.05947
G1 X122.084 Y113.507 E.05947
G1 X123.211 Y113.62 E.05717
G1 X124.434 Y113.681 E.06181
G1 X125.612 Y113.679 E.05946
G1 X126.743 Y113.623 E.05716
G1 X127.961 Y113.501 E.06179
G1 X129.126 Y113.324 E.05948
G1 X130.281 Y113.09 E.05949
G1 X131.422 Y112.798 E.05945
G1 X132.505 Y112.464 E.05721
G1 X133.655 Y112.046 E.06177
G1 X134.699 Y111.605 E.05721
G1 X135.761 Y111.095 E.05947
G1 X136.836 Y110.51 E.06178
G1 X137.84 Y109.895 E.05943
G1 X138.813 Y109.23 E.05949
G1 X139.752 Y108.518 E.05949
G1 X140.654 Y107.759 E.05951
G1 X141.517 Y106.957 E.05947
G1 X142.339 Y106.113 E.05947
G1 X143.088 Y105.263 E.05719
G1 X143.824 Y104.343 E.05947
G1 X144.513 Y103.387 E.05948
G1 X145.14 Y102.416 E.05835
G1 X145.765 Y101.338 E.0629
G1 X146.301 Y100.289 E.05946
G1 X146.785 Y99.214 E.05951
G1 X147.214 Y98.117 E.05946
G1 X147.575 Y97.043 E.05719
G1 X147.896 Y95.909 E.05949
G1 X148.159 Y94.76 E.0595
G1 X148.371 Y93.555 E.06176
G1 X148.517 Y92.386 E.05947
G1 X148.604 Y91.188 E.06063
G1 X153.839 Y91.188 E.26426
G1 X153.832 Y91.487 E.0151
G1 X153.724 Y92.93 E.07304
G1 X153.545 Y94.358 E.07265
G1 X153.295 Y95.776 E.07268
G1 X152.975 Y97.179 E.07264
G1 X152.585 Y98.564 E.07263
G1 X152.127 Y99.929 E.07268
G1 X151.601 Y101.269 E.07267
G1 X151.009 Y102.581 E.07266
G1 X150.352 Y103.862 E.07267
G1 X149.632 Y105.108 E.07264
G1 X148.852 Y106.317 E.07263
G1 X148.011 Y107.486 E.07269
G1 X147.114 Y108.611 E.07263
G1 X146.161 Y109.69 E.07267
G1 X145.156 Y110.721 E.07268
G1 X144.101 Y111.7 E.07265
G1 X142.999 Y112.625 E.07263
G1 X141.851 Y113.494 E.07268
G1 X140.662 Y114.305 E.07265
G1 X139.434 Y115.056 E.07266
G1 X138.17 Y115.744 E.07264
G1 X136.873 Y116.368 E.07265
G1 X135.546 Y116.928 E.07271
G1 X134.194 Y117.42 E.07263
G1 X132.818 Y117.844 E.07268
G1 X131.424 Y118.199 E.07261
G1 X130.013 Y118.485 E.07267
G1 X128.59 Y118.699 E.07264
G1 X127.157 Y118.842 E.0727
G1 X125.72 Y118.914 E.07263
G1 X124.28 Y118.914 E.07269
G1 X122.843 Y118.842 E.07263
G1 X121.41 Y118.699 E.0727
G1 X119.987 Y118.485 E.07264
G1 X118.576 Y118.199 E.07267
G1 X117.182 Y117.844 E.07261
G1 X115.806 Y117.42 E.07268
G1 X114.453 Y116.928 E.07267
G1 X113.127 Y116.368 E.07266
G1 X111.83 Y115.744 E.07265
G1 X110.566 Y115.056 E.07264
G1 X109.339 Y114.306 E.07259
G1 X108.094 Y113.453 E.07618
G1 X107.001 Y112.625 E.06922
G1 X105.899 Y111.7 E.07263
G1 X104.844 Y110.721 E.07265
G1 X103.839 Y109.69 E.07268
G1 X102.886 Y108.611 E.07267
G1 X101.989 Y107.486 E.07263
G1 X101.148 Y106.317 E.07269
G1 X100.368 Y105.108 E.07263
G1 X99.682 Y103.921 E.06921
G1 X98.991 Y102.58 E.07615
G1 X98.399 Y101.269 E.07261
G1 X97.873 Y99.929 E.07267
G1 X97.415 Y98.564 E.07268
G1 X97.025 Y97.179 E.07263
G1 X96.705 Y95.775 E.07269
G1 X96.455 Y94.358 E.07263
G1 X96.276 Y92.93 E.07265
G1 X96.169 Y91.502 E.07229
G1 X96.161 Y91.188 E.01586
G1 X101.283 Y91.188 E.25855
M204 S1000
G1 X101.283 Y91.188 F10800
G1 X101.988 Y90.581
M204 S800
;TYPE:External perimeter
G1 F1200
G1 X102.004 Y91.211 E.03181
G1 X102.089 Y92.341 E.0572
G1 X102.233 Y93.495 E.0587
G1 X102.433 Y94.625 E.05793
G1 X102.685 Y95.73 E.05721
M73 Q1 S54
G1 X102.996 Y96.835 E.05795
G1 X103.361 Y97.923 E.05793
G1 X103.786 Y99.006 E.05873
G1 X104.259 Y100.053 E.05799
G1 X104.782 Y101.072 E.05782
G1 X105.357 Y102.068 E.05805
G1 X105.98 Y103.032 E.05794
G1 X106.641 Y103.952 E.05718
G1 X107.357 Y104.85 E.05798
G1 X108.127 Y105.722 E.05872
G1 X108.929 Y106.544 E.05797
G1 X109.77 Y107.324 E.0579
G1 X110.65 Y108.062 E.05797
G1 X111.565 Y108.754 E.05791
G1 X112.502 Y109.393 E.05725
G1 X113.494 Y110 E.05871
G1 X114.489 Y110.541 E.05717
G1 X115.523 Y111.04 E.05796
G1 X116.581 Y111.486 E.05796
G1 X117.66 Y111.879 E.05797
G1 X118.771 Y112.222 E.05869
G1 X119.884 Y112.505 E.05797
G1 X120.994 Y112.729 E.05716
G1 X122.144 Y112.903 E.05871
G1 X123.287 Y113.017 E.05798
G1 X124.434 Y113.074 E.05797
G1 X125.566 Y113.074 E.05714
G1 X126.713 Y113.017 E.05797
G1 X127.871 Y112.901 E.05875
G1 X129.006 Y112.729 E.05795
G1 X130.116 Y112.505 E.05716
G1 X131.229 Y112.222 E.05797
G1 X132.326 Y111.884 E.05794
G1 X133.419 Y111.486 E.05872
G1 X134.477 Y111.04 E.05796
G1 X135.511 Y110.541 E.05796
G1 X136.519 Y109.992 E.05794
G1 X137.486 Y109.401 E.05721
G1 X138.447 Y108.746 E.05871
G1 X139.362 Y108.052 E.05797
G1 X140.241 Y107.314 E.05794
G1 X141.082 Y106.533 E.05794
G1 X141.873 Y105.722 E.05719
G1 X142.633 Y104.862 E.05793
G1 X143.349 Y103.964 E.05798
G1 X144.02 Y103.032 E.05797
G1 X144.617 Y102.108 E.05553
G1 X145.225 Y101.061 E.06112
G1 X145.748 Y100.039 E.05795
G1 X146.22 Y98.992 E.05797
G1 X146.634 Y97.938 E.05716
G1 X147 Y96.85 E.05795
G1 X147.311 Y95.744 E.05799
G1 X147.567 Y94.625 E.05795
G1 X147.769 Y93.48 E.05869
G1 X147.911 Y92.341 E.05794
G1 X147.996 Y91.211 E.0572
M73 P1 R53
G1 X148.012 Y90.581 E.03181
G1 X154.462 Y90.581 E.32559
G1 X154.439 Y91.502 E.04651
G1 X154.328 Y92.99 E.07532
G1 X154.146 Y94.449 E.07422
G1 X153.89 Y95.896 E.07418
G1 X153.563 Y97.329 E.0742
G1 X153.165 Y98.743 E.07415
G1 X152.697 Y100.137 E.07423
G1 X152.16 Y101.505 E.07418
G1 X151.556 Y102.844 E.07415
G1 X150.885 Y104.152 E.07421
G1 X150.151 Y105.425 E.07418
G1 X149.353 Y106.659 E.07418
G1 X148.495 Y107.853 E.07422
G1 X147.579 Y109.002 E.07418
G1 X146.607 Y110.104 E.07417
G1 X145.58 Y111.156 E.07421
G1 X144.503 Y112.155 E.07415
G1 X143.377 Y113.1 E.0742
G1 X142.206 Y113.987 E.07415
G1 X140.991 Y114.815 E.07422
G1 X139.737 Y115.581 E.07418
G1 X138.447 Y116.284 E.07416
G1 X137.123 Y116.922 E.07419
G1 X135.768 Y117.493 E.07422
G1 X134.387 Y117.996 E.07419
G1 X132.983 Y118.429 E.07417
G1 X131.559 Y118.791 E.07417
G1 X130.118 Y119.083 E.07422
G1 X128.665 Y119.302 E.07417
G1 X127.203 Y119.448 E.07417
G1 X125.735 Y119.521 E.07419
G1 X124.265 Y119.521 E.0742
G1 X122.797 Y119.448 E.07419
G1 X121.335 Y119.302 E.07417
G1 X119.882 Y119.083 E.07417
G1 X118.441 Y118.791 E.07422
G1 X117.017 Y118.429 E.07417
G1 X115.613 Y117.996 E.07417
G1 X114.232 Y117.493 E.07419
G1 X112.877 Y116.922 E.07422
G1 X111.553 Y116.284 E.07419
G1 X110.263 Y115.581 E.07416
G1 X109.009 Y114.815 E.07418
G1 X107.739 Y113.945 E.07771
G1 X106.623 Y113.1 E.07066
G1 X105.497 Y112.155 E.0742
G1 X104.42 Y111.156 E.07415
G1 X103.393 Y110.104 E.07421
G1 X102.421 Y109.002 E.07417
G1 X101.505 Y107.853 E.07418
G1 X100.647 Y106.659 E.07422
G1 X99.849 Y105.425 E.07418
G1 X99.149 Y104.212 E.0707
G1 X98.444 Y102.844 E.07769
G1 X97.84 Y101.505 E.07415
G1 X97.303 Y100.137 E.07418
G1 X96.835 Y98.743 E.07423
G1 X96.437 Y97.329 E.07415
G1 X96.11 Y95.896 E.0742
G1 X95.854 Y94.449 E.07418
G1 X95.672 Y92.99 E.07422
G1 X95.562 Y91.525 E.07416
G1 X95.538 Y90.581 E.04767
G1 X101.898 Y90.581 E.32105
M204 S1000
;WIPE_START
G1 F8640
G1 X101.988 Y90.581 E-.02078
G1 X102.004 Y91.211 E-.14552
G1 X102.089 Y92.341 E-.26166
G1 X102.233 Y93.495 E-.26853
G1 X102.433 Y94.625 E-.26498
G1 X102.47 Y94.788 E-.03853
;WIPE_END
G1 Z.4 F720
G1 X153.506 Y92.585 F10800
G1 Z.2 F720
G1 E1 F1500
M204 S800
;TYPE:Solid infill
;WIDTH:0.657579
G1 F1200
G1 X152.625 Y91.704 E.06368
G1 X151.756 Y91.704 E.04441
G1 X153.179 Y93.127 E.10285
G1 X153.083 Y93.899 E.03976
G1 X150.887 Y91.704 E.15869
G1 X150.017 Y91.704 E.04446
G1 X152.969 Y94.655 E.21333
G1 X152.839 Y95.394 E.03835
G1 X149.148 Y91.704 E.26675
G1 X149.085 Y91.704 E.00322
G1 X149.028 Y92.452 E.03834
G1 X152.689 Y96.113 E.26461
G1 X152.527 Y96.821 E.03712
G1 X148.933 Y93.226 E.25981
G1 X148.82 Y93.983 E.03912
G1 X152.346 Y97.509 E.25486
G1 X152.155 Y98.188 E.03605
G1 X148.69 Y94.723 E.25045
G1 X148.533 Y95.435 E.03726
G1 X151.946 Y98.847 E.24665
G1 X151.727 Y99.498 E.0351
G1 X148.367 Y96.138 E.24286
G1 X148.176 Y96.816 E.036
G1 X151.492 Y100.133 E.23971
G1 X151.247 Y100.757 E.03426
G1 X147.971 Y97.481 E.23679
G1 X147.753 Y98.132 E.03509
G1 X150.99 Y101.368 E.23393
G1 X150.719 Y101.967 E.0336
G1 X147.516 Y98.764 E.23151
G1 X147.271 Y99.388 E.03426
G1 X150.441 Y102.558 E.22913
G1 X150.146 Y103.133 E.03303
G1 X147.002 Y99.989 E.22725
G1 X146.73 Y100.586 E.03353
