; generated by PrusaSlicer 2.8.1+linux-x64-GTK3 on 2024-09-22 at 16:39:55 UTC


;
;
; 

; external perimeters extrusion width = 0.68mm
; perimeters extrusion width = 0.68mm
; infill extrusion width = 0.68mm
; solid infill extrusion width = 0.68mm
; top infill extrusion width = 0.60mm
; first layer extrusion width = 0.65mm

; external perimeters extrusion width = 0.68mm
; perimeters extrusion width = 0.68mm
; infill extrusion width = 0.68mm
; solid infill extrusion width = 0.68mm
; top infill extrusion width = 0.60mm
; first layer extrusion width = 0.65mm

; external perimeters extrusion width = 0.68mm
; perimeters extrusion width = 0.68mm
; infill extrusion width = 0.68mm
; solid infill extrusion width = 0.68mm
; top infill extrusion width = 0.60mm
; first layer extrusion width = 0.65mm

; external perimeters extrusion width = 0.68mm
; perimeters extrusion width = 0.68mm
; infill extrusion width = 0.68mm
; solid infill extrusion width = 0.68mm
; top infill extrusion width = 0.60mm
; first layer extrusion width = 0.65mm

M73 P0 R147
M73 Q0 S147
M201 X1000 Y1000 Z200 E5000 ; sets maximum accelerations, mm/sec^2
M203 X200 Y200 Z12 E120 ; sets maximum feedrates, mm / sec
M204 S1250 T1250 ; sets acceleration (S) and retract acceleration (R), mm/sec^2
M205 X8.00 Y8.00 Z0.40 E4.50 ; sets the jerk limits, mm/sec
M205 S0 T0 ; sets the minimum extruding and travel feed rate, mm/sec

; printing object MonteStencil.stl id:3 copy 0
; stop printing object MonteStencil.stl id:3 copy 0
; printing object MonteStencil.stl id:2 copy 0
; stop printing object MonteStencil.stl id:2 copy 0
; printing object MonteStencil.stl id:1 copy 0
; stop printing object MonteStencil.stl id:1 copy 0
; printing object MonteStencil.stl id:0 copy 0
; stop printing object MonteStencil.stl id:0 copy 0

;TYPE:Custom
M862.3 P "MK3S" ; printer model check
M862.1 P0.6 ; nozzle diameter check
M115 U3.13.3 ; tell printer latest fw version
G90 ; use absolute coordinates
M83 ; extruder relative mode
M104 S215 ; set extruder temp
M140 S60 ; set bed temp
M190 S60 ; wait for bed temp
M109 S215 ; wait for extruder temp
G28 W ; home all without mesh bed level
G80 X17.3676 Y5.83748 W223.079 H203.878 ; mesh bed levelling

G1 Z0.2 F720
G1 Y-3 F1000 ; go outside print area
G92 E0
G1 X60 E9 F1000 ; intro line
G1 X100 E12.5 F1000 ; intro line

G92 E0
M221 S95

; Don't change E values below. Excessive value can damage the printer.

G21 ; set units to millimeters
G90 ; use absolute coordinates
M83 ; use relative distances for extrusion

M900 K0.04 ; Filament gcode LA 1.5
M900 K18 ; Filament gcode LA 1.0




M107
;LAYER_CHANGE
;Z:0.2
;HEIGHT:0.2
G1 E-.8 F2100
G1 Z.6 F720
G1 X18.677 Y13.757 F10800
G1 Z.2 F720
G1 E.8 F2100
M204 S800
;TYPE:Skirt/Brim
;WIDTH:0.65
G1 F1200
G1 X19.628 Y12.495 E.07977
G1 X20.146 Y11.994 E.03638
G1 X21.44 Y11.088 E.07974
G1 X22.088 Y10.773 E.03637
G1 X23.598 Y10.311 E.07971
G1 X24.207 Y10.211 E.03115
G1 X168.965 Y6.142 E7.31011
G1 X229.804 Y6.142 E3.07108
M73 P0 R146
G1 X230.683 Y6.17 E.04439
G1 X231.36 Y6.294 E.03474
G1 X232.853 Y6.808 E.07971
G1 X233.489 Y7.147 E.03638
G1 X234.751 Y8.098 E.07977
G1 X235.252 Y8.616 E.03638
G1 X236.158 Y9.91 E.07974
G1 X236.474 Y10.558 E.03639
G1 X236.936 Y12.068 E.07971
G1 X237.036 Y12.684 E.0315
G1 X240.143 Y136.769 E6.26563
G1 X240.142 Y197.543 E3.0678
G1 X240.114 Y198.422 E.04439
G1 X239.99 Y199.099 E.03474
G1 X239.476 Y200.592 E.07971
G1 X239.137 Y201.228 E.03638
G1 X238.186 Y202.49 E.07977
G1 X237.668 Y202.991 E.03638
G1 X236.374 Y203.897 E.07974
G1 X235.727 Y204.213 E.03635
G1 X234.217 Y204.675 E.07971
G1 X233.624 Y204.774 E.03035
G1 X102.082 Y209.411 E6.64422
G1 X41.227 Y209.411 E3.07189
G1 X40.348 Y209.383 E.04439
G1 X39.671 Y209.259 E.03474
G1 X38.178 Y208.745 E.07971
G1 X37.542 Y208.406 E.03638
G1 X36.28 Y207.455 E.07977
G1 X35.779 Y206.937 E.03638
G1 X34.873 Y205.643 E.07974
G1 X34.557 Y204.996 E.03635
G1 X34.014 Y203.111 E.09902
G1 X17.691 Y78.516 E6.34316
G1 X17.672 Y17.442 E3.08295
G1 X17.7 Y16.563 E.04439
G1 X17.825 Y15.886 E.03475
G1 X18.339 Y14.393 E.07971
G1 X18.635 Y13.836 E.03184
M204 S1000
;WIPE_START
G1 F8640
G1 X18.677 Y13.757 E-.02066
G1 X19.628 Y12.495 E-.36487
G1 X20.146 Y11.994 E-.1664
G1 X21.026 Y11.378 E-.24807
;WIPE_END
G1 Z.6 F720
; printing object MonteStencil.stl id:3 copy 0
G1 X195.588 Y77.721 F10800
G1 Z.2 F720
G1 E.8 F2100
M204 S800
;TYPE:Perimeter
;WIDTH:0.649999
G1 F1200
G1 X195.386 Y77.877 E.01288
G1 X195.13 Y77.968 E.01371
G1 X194.957 Y77.985 E.00877
G1 X188.509 Y77.985 E.32549
G1 X188.281 Y77.956 E.0116
G1 X187.961 Y77.802 E.01793
G1 X187.729 Y77.545 E.01748
G1 X187.607 Y77.204 E.01828
G1 X187.598 Y77.074 E.00658
G1 X187.598 Y56.626 E1.03219
G1 X187.66 Y56.295 E.017
G1 X187.826 Y56.023 E.01609
G1 X188.089 Y55.818 E.01683
G1 X188.386 Y55.724 E.01573
G1 X194.957 Y55.715 E.3317
G1 X195.186 Y55.745 E.01166
G1 X195.521 Y55.912 E.0189
G1 X195.747 Y56.174 E.01747
G1 X195.857 Y56.488 E.01679
G1 X195.867 Y57.732 E.0628
G1 X195.867 Y77.074 E.97636
G1 X195.791 Y77.44 E.01887
G1 X195.649 Y77.656 E.01305
M204 S1000
G1 X195.649 Y77.656 F10800
G1 X195.155 Y77.287
M204 S800
;TYPE:External perimeter
G1 F1200
G1 X195.061 Y77.359 E.00598
G1 X194.957 Y77.378 E.00534
G1 X188.509 Y77.378 E.32549
G1 X188.326 Y77.317 E.00974
G1 X188.217 Y77.159 E.00969
G1 X188.205 Y77.074 E.00433
G1 X188.205 Y56.626 E1.03219
G1 X188.268 Y56.441 E.00987
G1 X188.432 Y56.332 E.00994
G1 X194.957 Y56.323 E.32937
G1 X195.145 Y56.388 E.01004
G1 X195.251 Y56.554 E.00994
G1 X195.26 Y57.732 E.05947
G1 X195.26 Y77.074 E.97636
G1 X195.213 Y77.223 E.00789
M204 S1000
;WIPE_START
G1 F8640
G1 X195.155 Y77.287 E-.01994
G1 X195.061 Y77.359 E-.02734
G1 X194.957 Y77.378 E-.02441
G1 X191.803 Y77.378 E-.72831
;WIPE_END
G1 Z.6 F720
G1 X230.685 Y65.487 F10800
G1 Z.2 F720
G1 E.8 F2100
M204 S800
;TYPE:Perimeter
G1 F1200
G1 X230.678 Y65.819 E.01676
G1 X230.521 Y66.191 E.02038
G1 X230.349 Y66.373 E.01264
G1 X229.978 Y66.55 E.02075
G1 X211.707 Y70.612 E.94482
G1 X211.388 Y70.625 E.01612
G1 X211.06 Y70.515 E.01746
G1 X210.811 Y70.306 E.01641
G1 X210.644 Y70.006 E.01733
G1 X210.599 Y69.723 E.01446
G1 X210.599 Y61.165 E.432
G1 X210.642 Y60.889 E.0141
G1 X210.82 Y60.571 E.0184
G1 X211.089 Y60.358 E.01732
G1 X211.456 Y60.256 E.01923
G1 X211.707 Y60.277 E.01271
G1 X229.978 Y64.339 E.94482
G1 X230.349 Y64.516 E.02075
M73 Q0 S146
G1 X230.521 Y64.698 E.01264
G1 X230.646 Y64.943 E.01388
G1 X230.691 Y65.228 E.01456
G1 X230.687 Y65.397 E.00853
M204 S1000
G1 X230.687 Y65.397 F10800
G1 X230.077 Y65.485
M204 S800
;TYPE:External perimeter
G1 F1200
G1 X230.069 Y65.756 E.01369
G1 X229.97 Y65.899 E.00878
G1 X229.847 Y65.958 E.00689
G1 X211.575 Y70.019 E.94485
G1 X211.377 Y69.996 E.01006
G1 X211.232 Y69.846 E.01053
G1 X211.206 Y69.723 E.00635
G1 X211.206 Y61.165 E.432
G1 X211.22 Y61.073 E.0047
G1 X211.339 Y60.914 E.01003
G1 X211.545 Y60.864 E.0107
G1 X229.847 Y64.931 E.9464
G1 X230.028 Y65.051 E.01096
G1 X230.084 Y65.228 E.00937
G1 X230.079 Y65.395 E.00843
M204 S1000
;WIPE_START
G1 F8640
G1 X230.077 Y65.485 E-.02079
G1 X230.069 Y65.756 E-.0626
G1 X229.97 Y65.899 E-.04016
G1 X229.847 Y65.958 E-.0315
G1 X227.12 Y66.564 E-.64495
;WIPE_END
G1 Z.6 F720
G1 X223.017 Y45.435 F10800
G1 Z.2 F720
G1 E.8 F2100
M204 S800
;TYPE:Perimeter
G1 F1200
G1 X223.025 Y45.563 E.00647
G1 X222.917 Y45.889 E.01734
G1 X222.72 Y46.132 E.01579
G1 X222.644 Y46.191 E.00486
G1 X212.27 Y53.451 E.63917
G1 X212.033 Y53.57 E.01339
G1 X211.744 Y53.616 E.01477
G1 X211.449 Y53.565 E.01511
G1 X210.997 Y53.334 E.02562
G1 X210.755 Y53.091 E.01731
G1 X210.625 Y52.797 E.01623
G1 X210.599 Y52.228 E.02875
G1 X210.599 Y38.307 E.70272
G1 X210.652 Y38.001 E.01568
G1 X210.837 Y37.693 E.01814
G1 X211.089 Y37.499 E.01605
G1 X211.468 Y37.317 E.02122
G1 X211.827 Y37.276 E.01824
G1 X212.133 Y37.358 E.01599
G1 X212.27 Y37.437 E.00798
G1 X222.644 Y44.699 E.63922
G1 X222.859 Y44.909 E.01517
G1 X223.003 Y45.211 E.01689
G1 X223.011 Y45.345 E.00678
M204 S1000
G1 X223.011 Y45.345 F10800
G1 X222.41 Y45.454
M204 S800
;TYPE:External perimeter
G1 F1200
G1 X222.404 Y45.559 E.00531
G1 X222.296 Y45.693 E.00869
G1 X211.922 Y52.954 E.63919
G1 X211.843 Y52.993 E.00445
G1 X211.648 Y52.992 E.00984
G1 X211.28 Y52.779 E.02146
G1 X211.207 Y52.605 E.00952
G1 X211.206 Y38.307 E.72175
G1 X211.27 Y38.12 E.00998
G1 X211.608 Y37.914 E.01998
G1 X211.774 Y37.881 E.00854
G1 X211.922 Y37.934 E.00794
G1 X222.296 Y45.196 E.63922
G1 X222.414 Y45.365 E.0104
M204 S1000
;WIPE_START
G1 F8640
G1 X222.41 Y45.454 E-.02057
G1 X222.404 Y45.559 E-.02428
G1 X222.296 Y45.693 E-.03974
G1 X219.758 Y47.47 E-.71541
;WIPE_END
G1 Z.6 F720
G1 X231.068 Y87.827 F10800
G1 Z.2 F720
G1 E.8 F2100
M204 S800
;TYPE:Perimeter
G1 F1200
G1 X231.075 Y87.866 E.002
G1 X231.01 Y88.197 E.01703
G1 X230.845 Y88.465 E.01589
G1 X230.63 Y88.642 E.01406
G1 X212.372 Y99.485 E1.07192
G1 X212.027 Y99.605 E.01844
G1 X211.747 Y99.599 E.01414
G1 X211.46 Y99.496 E.01539
G1 X211.046 Y99.226 E.02495
G1 X210.861 Y98.967 E.01607
G1 X210.775 Y98.635 E.01731
G1 X210.598 Y76.755 E1.10451
G1 X210.643 Y76.474 E.01437
G1 X210.734 Y76.276 E.011
G1 X210.95 Y76.036 E.0163
G1 X211.409 Y75.776 E.02663
G1 X211.785 Y75.717 E.01921
G1 X212.053 Y75.773 E.01382
G1 X212.209 Y75.849 E.00876
G1 X230.639 Y87.081 E1.08948
G1 X230.853 Y87.262 E.01415
M73 P0 R145
G1 X231.015 Y87.534 E.01598
G1 X231.052 Y87.738 E.01047
M204 S1000
G1 X231.052 Y87.738 F10800
G1 X230.457 Y87.841
M204 S800
;TYPE:External perimeter
G1 F1200
G1 X230.464 Y87.911 E.00355
G1 X230.391 Y88.061 E.00842
G1 X230.32 Y88.12 E.00466
G1 X212.062 Y98.963 E1.07192
G1 X211.854 Y99.001 E.01067
G1 X211.471 Y98.793 E.022
G1 X211.382 Y98.613 E.01014
G1 X211.205 Y76.755 E1.1034
G1 X211.25 Y76.595 E.00839
G1 X211.359 Y76.491 E.0076
G1 X211.699 Y76.325 E.0191
G1 X211.893 Y76.367 E.01002
G1 X230.323 Y87.6 E1.08951
G1 X230.448 Y87.751 E.0099
M204 S1000
;WIPE_START
G1 F8640
G1 X230.457 Y87.841 E-.02088
G1 X230.464 Y87.911 E-.01624
G1 X230.391 Y88.061 E-.03852
G1 X230.32 Y88.12 E-.02132
G1 X227.702 Y89.675 E-.70304
;WIPE_END
G1 Z.6 F720
G1 X231.017 Y118.704 F10800
G1 Z.2 F720
G1 E.8 F2100
M204 S800
;TYPE:Perimeter
G1 F1200
G1 X230.983 Y118.787 E.00453
G1 X230.038 Y120.554 E.10115
G1 X229.939 Y120.703 E.00903
G1 X228.665 Y122.256 E.1014
G1 X226.991 Y123.651 E.11
G1 X226.843 Y123.75 E.00899
G1 X225.075 Y124.694 E.10117
G1 X224.91 Y124.763 E.00903
G1 X222.992 Y125.344 E.10116
G1 X222.817 Y125.379 E.00901
G1 X220.823 Y125.576 E.10114
G1 X220.643 Y125.576 E.00909
G1 X218.649 Y125.379 E.10114
G1 X218.474 Y125.344 E.00901
G1 X216.556 Y124.763 E.10116
G1 X216.391 Y124.694 E.00903
G1 X214.623 Y123.75 E.10117
G1 X214.475 Y123.651 E.00899
G1 X212.925 Y122.379 E.10122
G1 X212.799 Y122.253 E.00899
G1 X211.527 Y120.703 E.10122
G1 X211.428 Y120.554 E.00903
G1 X210.483 Y118.787 E.10115
G1 X210.415 Y118.622 E.00901
G1 X209.833 Y116.703 E.10123
G1 X209.799 Y116.528 E.009
G1 X209.602 Y114.534 E.10114
G1 X209.633 Y114.046 E.02468
G1 X209.799 Y112.361 E.08547
G1 X210.117 Y111.25 E.05833
G1 X210.471 Y110.126 E.05949
G1 X211.428 Y108.335 E.1025
G1 X212.799 Y106.637 E.11016
G1 X214.475 Y105.239 E.11017
G1 X216.391 Y104.195 E.11014
G1 X216.556 Y104.127 E.00901
G1 X218.475 Y103.545 E.10123
G1 X218.649 Y103.51 E.00896
G1 X220.644 Y103.314 E.10119
G1 X220.822 Y103.314 E.00899
G1 X222.817 Y103.51 E.10119
G1 X222.992 Y103.545 E.00901
G1 X224.91 Y104.127 E.10118
G1 X225.075 Y104.195 E.00901
G1 X226.843 Y105.139 E.10117
G1 X226.991 Y105.239 E.00902
G1 X228.541 Y106.51 E.10118
G1 X228.667 Y106.637 E.00903
G1 X229.939 Y108.186 E.10118
G1 X230.038 Y108.335 E.00903
G1 X230.983 Y110.102 E.10115
G1 X231.051 Y110.267 E.00901
G1 X231.633 Y112.186 E.10123
G1 X231.668 Y112.36 E.00896
G1 X231.865 Y114.355 E.1012
G1 X231.865 Y114.534 E.00904
G1 X231.668 Y116.529 E.1012
G1 X231.633 Y116.703 E.00896
G1 X231.051 Y118.621 E.10118
M204 S1000
G1 X231.051 Y118.621 F10800
G1 X230.456 Y118.472
M204 S800
;TYPE:External perimeter
G1 F1200
G1 X230.447 Y118.501 E.00153
G1 X229.47 Y120.318 E.10414
G1 X228.197 Y121.869 E.10129
G1 X226.557 Y123.214 E.10707
G1 X224.734 Y124.182 E.10419
G1 X222.757 Y124.775 E.10419
G1 X220.703 Y124.972 E.10416
G1 X218.651 Y124.763 E.10412
G1 X216.677 Y124.159 E.10421
G1 X214.86 Y123.181 E.10416
G1 X213.268 Y121.867 E.1042
G1 X211.963 Y120.268 E.10418
G1 X210.996 Y118.446 E.10412
G1 X210.403 Y116.469 E.10419
G1 X210.206 Y114.471 E.10135
G1 X210.403 Y112.42 E.10401
G1 X211.015 Y110.396 E.10674
G1 X211.963 Y108.621 E.10158
G1 X213.268 Y107.022 E.10418
G1 X214.86 Y105.708 E.1042
G1 X216.732 Y104.707 E.10716
G1 X218.709 Y104.114 E.10419
G1 X220.763 Y103.918 E.10415
G1 X222.816 Y104.126 E.10416
G1 X224.789 Y104.73 E.10416
G1 X226.606 Y105.708 E.10416
G1 X228.198 Y107.022 E.1042
G1 X229.503 Y108.621 E.10418
G1 X230.47 Y110.443 E.10412
G1 X231.063 Y112.42 E.10419
G1 X231.261 Y114.474 E.10416
G1 X231.052 Y116.527 E.10417
G1 X230.482 Y118.386 E.09815
M204 S1000
;WIPE_START
G1 F8640
G1 X230.456 Y118.472 E-.02075
G1 X230.447 Y118.501 E-.00701
G1 X229.47 Y120.318 E-.47636
G1 X228.657 Y121.308 E-.29588
;WIPE_END
G1 Z.6 F720
G1 X187.929 Y102.763 F10800
G1 Z.2 F720
G1 E.8 F2100
M204 S800
;TYPE:Perimeter
G1 F1200
G1 X187.833 Y102.48 E.01509
G1 X187.794 Y102.172 E.01567
G1 X187.885 Y101.816 E.01855
G1 X187.976 Y101.668 E.00877
G1 X188.221 Y101.443 E.01679
G1 X189.912 Y100.611 E.09513
G1 X192.191 Y98.424 E.15944
G1 X193.648 Y95.68 E.15683
G1 X194.15 Y92.648 E.15514
G1 X193.648 Y89.614 E.15523
G1 X192.191 Y86.87 E.15683
G1 X189.912 Y84.683 E.15944
G1 X188.305 Y83.898 E.09028
G1 X188.049 Y83.711 E.016
G1 X187.863 Y83.426 E.01718
G1 X187.795 Y83.066 E.01849
G1 X187.834 Y82.814 E.01287
G1 X187.992 Y82.307 E.02681
G1 X188.127 Y82.072 E.01368
G1 X188.333 Y81.882 E.01415
G1 X188.707 Y81.738 E.02023
G1 X188.965 Y81.737 E.01302
G1 X190.996 Y82.017 E.10349
G1 X191.241 Y82.087 E.01286
G1 X194.497 Y83.533 E.17984
G1 X194.726 Y83.679 E.01371
G1 X197.316 Y85.938 E.17348
G1 X197.504 Y86.165 E.01488
G1 X199.171 Y89.019 E.16684
G1 X199.281 Y89.316 E.01599
G1 X199.856 Y92.485 E.16258
G1 X199.856 Y92.81 E.01641
G1 X199.281 Y95.979 E.16258
G1 X199.171 Y96.276 E.01599
G1 X197.504 Y99.129 E.1668
G1 X197.316 Y99.356 E.01488
G1 X194.726 Y101.615 E.17348
G1 X194.497 Y101.761 E.01371
G1 X191.241 Y103.208 E.17986
G1 X190.548 Y103.34 E.03561
G1 X188.963 Y103.558 E.08076
G1 X188.588 Y103.532 E.01898
G1 X188.295 Y103.387 E.0165
G1 X188.044 Y103.102 E.01917
G1 X187.958 Y102.848 E.01354
M204 S1000
G1 X187.958 Y102.848 F10800
G1 X188.498 Y102.575
M204 S800
;TYPE:External perimeter
G1 F1200
G1 X188.414 Y102.303 E.01437
G1 X188.423 Y102.1 E.01026
G1 X188.461 Y102.033 E.00389
G1 X188.572 Y101.941 E.00728
G1 X190.264 Y101.115 E.09504
G1 X192.682 Y98.795 E.16915
G1 X194.231 Y95.877 E.16676
G1 X194.765 Y92.648 E.16521
G1 X194.231 Y89.417 E.16531
G1 X192.682 Y86.499 E.16676
G1 X190.264 Y84.179 E.16915
G1 X188.572 Y83.353 E.09504
G1 X188.433 Y83.213 E.00996
G1 X188.41 Y83.009 E.01036
G1 X188.557 Y82.528 E.02539
G1 X188.671 Y82.386 E.00919
G1 X188.881 Y82.338 E.01087
G1 X190.995 Y82.642 E.10781
G1 X194.251 Y84.088 E.17984
G1 X196.917 Y86.396 E.178
G1 X196.98 Y86.471 E.00494
G1 X198.647 Y89.325 E.16684
G1 X198.684 Y89.424 E.00534
G1 X199.259 Y92.593 E.16258
G1 X199.259 Y92.702 E.0055
G1 X198.684 Y95.871 E.16258
G1 X198.23 Y96.683 E.04696
G1 X196.98 Y98.823 E.1251
G1 X194.327 Y101.157 E.17837
G1 X194.251 Y101.206 E.00456
G1 X190.995 Y102.653 E.17986
G1 X190.465 Y102.738 E.0271
M73 Q1 S146
G1 X188.88 Y102.957 E.08077
G1 X188.714 Y102.933 E.00847
G1 X188.563 Y102.784 E.01071
G1 X188.525 Y102.661 E.0065
M204 S1000
;WIPE_START
G1 F8640
G1 X188.498 Y102.575 E-.02081
G1 X188.414 Y102.303 E-.06573
G1 X188.423 Y102.1 E-.04692
G1 X188.461 Y102.033 E-.01779
G1 X188.572 Y101.941 E-.03329
G1 X190.264 Y101.115 E-.43476
G1 X190.829 Y100.573 E-.1807
;WIPE_END
G1 Z.6 F720
G1 X189.544 Y108.68 F10800
G1 Z.2 F720
G1 E.8 F2100
M204 S800
;TYPE:Perimeter
G1 F1200
G1 X189.66 Y108.596 E.00723
G1 X191.395 Y107.711 E.09832
G1 X191.699 Y107.618 E.01605
M73 P1 R145
G1 X193.591 Y107.319 E.09669
G1 X193.875 Y107.319 E.01434
G1 X195.799 Y107.623 E.09833
