; generated by PrusaSlicer 2.6.0+linux-x64-GTK3 on 2023-08-18 at 20:44:11 UTC


;
;
; 

; external perimeters extrusion width = 0.45mm
; perimeters extrusion width = 0.45mm
; infill extrusion width = 0.45mm
; solid infill extrusion width = 0.45mm
; top infill extrusion width = 0.40mm
; first layer extrusion width = 0.42mm

M73 P0 R73
M73 C64
M73 Q0 S73
M73 D65
M201 X1000 Y1000 Z200 E5000 ; sets maximum accelerations, mm/sec^2
M203 X200 Y200 Z12 E120 ; sets maximum feedrates, mm / sec
M204 S1250 T1250 ; sets acceleration (S) and retract acceleration (R), mm/sec^2
M205 X8.00 Y8.00 Z0.40 E4.50 ; sets the jerk limits, mm/sec
M205 S0 T0 ; sets the minimum extruding and travel feed rate, mm/sec
;TYPE:Custom
M862.3 P "MK3S" ; printer model check
M862.1 P0.4 ; nozzle diameter check
M115 U3.12.2 ; tell printer latest fw version
G90 ; use absolute coordinates
M83 ; extruder relative mode
M104 S215 ; set extruder temp
M140 S60 ; set bed temp
M190 S60 ; wait for bed temp
M109 S215 ; wait for extruder temp
G28 W ; home all without mesh bed level
G80 ; mesh bed leveling

G1 Z0.2 F720
G1 Y-3 F1000 ; go outside print area
G92 E0
G1 X60 E9 F1000 ; intro line
G1 X100 E12.5 F1000 ; intro line

G92 E0
M221 S95

; Don't change E values below. Excessive value can damage the printer.
M907 E430 ; set extruder motor current
G21 ; set units to millimeters
G90 ; use absolute coordinates
M83 ; use relative distances for extrusion
M900 K0.05 ; Filament gcode LA 1.5
M900 K30 ; Filament gcode LA 1.0
M107
;LAYER_CHANGE
;Z:0.2
;HEIGHT:0.2
;BEFORE_LAYER_CHANGE
G92 E0.0
;0.2


M73 P0 R72
G1 E-.8 F2100
G1 Z.4 F720
;AFTER_LAYER_CHANGE
;0.2
G1 X43.06 Y87.067 F10800
G1 Z.2 F720
G1 E.8 F2100
M204 S800
;TYPE:Skirt/Brim
;WIDTH:0.42
G1 F1200
G1 X44 Y86.873 E.03009
G1 X206 Y86.873 E5.0794
G1 X207.307 Y87.265 E.04278
G1 X208.183 Y88.31 E.04275
G1 X208.377 Y89.25 E.03009
G1 X208.377 Y120.75 E.98766
G1 X207.985 Y122.057 E.04278
G1 X206.94 Y122.933 E.04275
G1 X206 Y123.127 E.03009
G1 X44 Y123.127 E5.0794
G1 X42.693 Y122.735 E.04278
M73 D64
G1 X41.817 Y121.69 E.04275
G1 X41.623 Y120.75 E.03009
G1 X41.623 Y89.25 E.98766
G1 X42.015 Y87.943 E.04278
G1 X43.014 Y87.105 E.04088
M204 S1000
; printing object LS_Strip.stl id:0 copy 0
;WIPE_START
G1 F8640
G1 X44 Y86.873 E-.23389
G1 X46.452 Y86.873 E-.56611
;WIPE_END
G1 Z.6 F720
G1 X204.836 Y119.586 F10800
G1 Z.2 F720
G1 E.8 F2100
M204 S800
;TYPE:Perimeter
;WIDTH:0.419999
G1 F1200
G1 X45.164 Y119.586 E5.0064
G1 X45.164 Y90.414 E.91467
M73 Q0 S72
G1 X204.836 Y90.414 E5.0064
G1 X204.836 Y119.526 E.91278
M204 S1000
M73 P1 R72
M73 Q1 S72
G1 X205.213 Y119.963 F10800
M204 S800
G1 F1200
G1 X44.787 Y119.963 E5.03004
G1 X44.787 Y90.037 E.93831
G1 X205.213 Y90.037 E5.03004
G1 X205.213 Y119.903 E.93643
M204 S1000
M73 P1 R71
M73 C63
G1 X205.59 Y120.34 F10800
M204 S800
;TYPE:External perimeter
G1 F1200
G1 X44.41 Y120.34 E5.05368
G1 X44.41 Y89.66 E.96195
G1 X205.59 Y89.66 E5.05368
G1 X205.59 Y120.28 E.96007
M204 S1000
M73 D63
G1 X205.191 Y120.315 F10800
;WIPE_START
G1 F8640
G1 X202.125 Y120.281 E-.8
;WIPE_END
G1 Z.6 F720
G1 X204.666 Y91.348 F10800
G1 Z.2 F720
G1 E.8 F2100
M204 S800
;TYPE:Solid infill
;WIDTH:0.421061
G1 F1200
G1 X204.071 Y90.754 E.02644
G1 X203.537 Y90.754 E.01679
G1 X204.496 Y91.713 E.04264
G1 X204.496 Y92.248 E.01682
G1 X203.002 Y90.754 E.06643
G1 X202.467 Y90.754 E.01682
G1 X204.496 Y92.783 E.09022
G1 X204.496 Y93.318 E.01682
G1 X201.932 Y90.754 E.11401
G1 X201.397 Y90.754 E.01682
M73 Q2 S72
G1 X204.496 Y93.853 E.1378
G1 X204.496 Y94.387 E.01679
G1 X200.863 Y90.754 E.16155
G1 X200.328 Y90.754 E.01682
M73 P2 R71
G1 X204.496 Y94.922 E.18534
G1 X204.496 Y95.457 E.01682
G1 X199.793 Y90.754 E.20913
G1 X199.258 Y90.754 E.01682
G1 X204.496 Y95.992 E.23292
G1 X204.496 Y96.526 E.01679
G1 X198.724 Y90.754 E.25666
M73 Q2 S71
G1 X198.189 Y90.754 E.01682
G1 X204.496 Y97.061 E.28045
G1 X204.496 Y97.596 E.01682
G1 X197.654 Y90.754 E.30424
G1 X197.119 Y90.754 E.01682
G1 X204.496 Y98.131 E.32803
G1 X204.496 Y98.665 E.01679
G1 X196.585 Y90.754 E.35177
G1 X196.05 Y90.754 E.01682
G1 X204.496 Y99.2 E.37556
G1 X204.496 Y99.735 E.01682
G1 X195.515 Y90.754 E.39935
G1 X194.98 Y90.754 E.01682
G1 X204.496 Y100.27 E.42314
G1 X204.496 Y100.805 E.01682
G1 X194.445 Y90.754 E.44693
G1 X193.911 Y90.754 E.01679
G1 X204.496 Y101.339 E.47068
G1 X204.496 Y101.874 E.01682
G1 X193.376 Y90.754 E.49447
G1 X192.841 Y90.754 E.01682
G1 X204.496 Y102.409 E.51826
G1 X204.496 Y102.944 E.01682
G1 X192.306 Y90.754 E.54205
G1 X191.772 Y90.754 E.01679
G1 X204.496 Y103.478 E.56579
G1 X204.496 Y104.013 E.01682
G1 X191.237 Y90.754 E.58958
G1 X190.702 Y90.754 E.01682
G1 X204.496 Y104.548 E.61337
G1 X204.496 Y105.083 E.01682
G1 X190.167 Y90.754 E.63716
G1 X189.632 Y90.754 E.01682
G1 X204.496 Y105.618 E.66095
G1 X204.496 Y106.152 E.01679
G1 X189.098 Y90.754 E.68469
G1 X188.563 Y90.754 E.01682
G1 X204.496 Y106.687 E.70848
G1 X204.496 Y107.222 E.01682
G1 X188.028 Y90.754 E.73227
G1 X187.493 Y90.754 E.01682
G1 X204.496 Y107.757 E.75606
G1 X204.496 Y108.291 E.01679
G1 X186.959 Y90.754 E.77981
G1 X186.424 Y90.754 E.01682
G1 X204.496 Y108.826 E.8036
G1 X204.496 Y109.361 E.01682
G1 X185.889 Y90.754 E.82739
G1 X185.354 Y90.754 E.01682
G1 X204.496 Y109.896 E.85118
G1 X204.496 Y110.43 E.01679
G1 X184.82 Y90.754 E.87492
G1 X184.285 Y90.754 E.01682
G1 X204.496 Y110.965 E.89871
G1 X204.496 Y111.5 E.01682
G1 X183.75 Y90.754 E.9225
G1 X183.215 Y90.754 E.01682
G1 X204.496 Y112.035 E.94629
G1 X204.496 Y112.57 E.01682
G1 X182.68 Y90.754 E.97008
G1 X182.146 Y90.754 E.01679
M73 C62
G1 X204.496 Y113.104 E.99383
G1 X204.496 Y113.639 E.01682
M73 P2 R70
G1 X181.611 Y90.754 E1.01762
G1 X181.076 Y90.754 E.01682
G1 X204.496 Y114.174 E1.04141
G1 X204.496 Y114.709 E.01682
G1 X180.541 Y90.754 E1.06519
G1 X180.007 Y90.754 E.01679
G1 X204.496 Y115.243 E1.08894
G1 X204.496 Y115.778 E.01682
G1 X179.472 Y90.754 E1.11273
G1 X178.937 Y90.754 E.01682
G1 X204.496 Y116.313 E1.13652
G1 X204.496 Y116.848 E.01682
M73 P3 R70
M73 Q3 S71
G1 X178.402 Y90.754 E1.16031
G1 X177.867 Y90.754 E.01682
G1 X204.496 Y117.383 E1.1841
G1 X204.496 Y117.917 E.01679
G1 X177.333 Y90.754 E1.20784
G1 X176.798 Y90.754 E.01682
M73 D62
G1 X204.496 Y118.452 E1.23163
G1 X204.496 Y118.987 E.01682
G1 X176.263 Y90.754 E1.25542
G1 X175.728 Y90.754 E.01682
G1 X204.221 Y119.246 E1.26696
G1 X203.687 Y119.246 E.01679
G1 X175.194 Y90.754 E1.26696
G1 X174.659 Y90.754 E.01682
G1 X203.152 Y119.246 E1.26696
G1 X202.617 Y119.246 E.01682
G1 X174.124 Y90.754 E1.26696
G1 X173.589 Y90.754 E.01682
M73 Q3 S70
G1 X202.082 Y119.246 E1.26696
G1 X201.547 Y119.246 E.01682
G1 X173.055 Y90.754 E1.26694
G1 X172.52 Y90.754 E.01682
G1 X201.013 Y119.246 E1.26696
G1 X200.478 Y119.246 E.01682
G1 X171.985 Y90.754 E1.26696
G1 X171.45 Y90.754 E.01682
G1 X199.943 Y119.246 E1.26696
G1 X199.408 Y119.246 E.01682
G1 X170.915 Y90.754 E1.26696
G1 X170.381 Y90.754 E.01679
G1 X198.874 Y119.246 E1.26696
G1 X198.339 Y119.246 E.01682
G1 X169.846 Y90.754 E1.26696
G1 X169.311 Y90.754 E.01682
G1 X197.804 Y119.246 E1.26696
G1 X197.269 Y119.246 E.01682
G1 X168.776 Y90.754 E1.26696
G1 X168.242 Y90.754 E.01679
G1 X196.735 Y119.246 E1.26696
G1 X196.2 Y119.246 E.01682
G1 X167.707 Y90.754 E1.26696
G1 X167.172 Y90.754 E.01682
M73 P4 R70
G1 X195.665 Y119.246 E1.26696
G1 X195.13 Y119.246 E.01682
M73 Q4 S70
G1 X166.637 Y90.754 E1.26696
G1 X166.103 Y90.754 E.01679
G1 X194.595 Y119.246 E1.26694
G1 X194.061 Y119.246 E.01679
M73 C61
G1 X165.568 Y90.754 E1.26696
G1 X165.033 Y90.754 E.01682
M73 P4 R69
G1 X193.526 Y119.246 E1.26696
G1 X192.991 Y119.246 E.01682
G1 X164.498 Y90.754 E1.26696
G1 X163.963 Y90.754 E.01682
G1 X192.456 Y119.246 E1.26696
G1 X191.922 Y119.246 E.01679
G1 X163.429 Y90.754 E1.26696
G1 X162.894 Y90.754 E.01682
G1 X191.387 Y119.246 E1.26696
G1 X190.852 Y119.246 E.01682
G1 X162.359 Y90.754 E1.26696
G1 X161.824 Y90.754 E.01682
G1 X190.317 Y119.246 E1.26696
G1 X189.782 Y119.246 E.01682
M73 D61
G1 X161.29 Y90.754 E1.26694
G1 X160.755 Y90.754 E.01682
G1 X189.248 Y119.246 E1.26696
G1 X188.713 Y119.246 E.01682
G1 X160.22 Y90.754 E1.26696
G1 X159.685 Y90.754 E.01682
G1 X188.178 Y119.246 E1.26696
G1 X187.643 Y119.246 E.01682
G1 X159.15 Y90.754 E1.26696
G1 X158.616 Y90.754 E.01679
G1 X187.109 Y119.246 E1.26696
G1 X186.574 Y119.246 E.01682
M73 Q4 S69
G1 X158.081 Y90.754 E1.26696
G1 X157.546 Y90.754 E.01682
G1 X186.039 Y119.246 E1.26696
G1 X185.504 Y119.246 E.01682
G1 X157.011 Y90.754 E1.26696
G1 X156.477 Y90.754 E.01679
G1 X184.97 Y119.246 E1.26696
G1 X184.435 Y119.246 E.01682
G1 X155.942 Y90.754 E1.26696
G1 X155.407 Y90.754 E.01682
M73 P5 R69
M73 Q5 S69
G1 X183.9 Y119.246 E1.26696
G1 X183.365 Y119.246 E.01682
G1 X154.872 Y90.754 E1.26696
G1 X154.338 Y90.754 E.01679
G1 X182.83 Y119.246 E1.26694
G1 X182.296 Y119.246 E.01679
G1 X153.803 Y90.754 E1.26696
G1 X153.268 Y90.754 E.01682
G1 X181.761 Y119.246 E1.26696
G1 X181.226 Y119.246 E.01682
G1 X152.733 Y90.754 E1.26696
G1 X152.198 Y90.754 E.01682
G1 X180.691 Y119.246 E1.26696
G1 X180.157 Y119.246 E.01679
G1 X151.664 Y90.754 E1.26696
G1 X151.129 Y90.754 E.01682
G1 X179.622 Y119.246 E1.26696
G1 X179.087 Y119.246 E.01682
G1 X150.594 Y90.754 E1.26696
G1 X150.059 Y90.754 E.01682
M73 C60
G1 X178.552 Y119.246 E1.26696
G1 X178.018 Y119.246 E.01679
M73 P5 R68
G1 X149.525 Y90.754 E1.26696
G1 X148.99 Y90.754 E.01682
G1 X177.483 Y119.246 E1.26696
G1 X176.948 Y119.246 E.01682
G1 X148.455 Y90.754 E1.26696
G1 X147.92 Y90.754 E.01682
G1 X176.413 Y119.246 E1.26696
G1 X175.878 Y119.246 E.01682
G1 X147.385 Y90.754 E1.26696
G1 X146.851 Y90.754 E.01679
G1 X175.344 Y119.246 E1.26696
G1 X174.809 Y119.246 E.01682
G1 X146.316 Y90.754 E1.26696
G1 X145.781 Y90.754 E.01682
M73 D60
G1 X174.274 Y119.246 E1.26696
G1 X173.739 Y119.246 E.01682
G1 X145.246 Y90.754 E1.26696
G1 X144.712 Y90.754 E.01679
G1 X173.205 Y119.246 E1.26696
G1 X172.67 Y119.246 E.01682
M73 P6 R68
G1 X144.177 Y90.754 E1.26696
M73 Q6 S69
G1 X143.642 Y90.754 E.01682
G1 X172.135 Y119.246 E1.26696
G1 X171.6 Y119.246 E.01682
G1 X143.107 Y90.754 E1.26696
G1 X142.573 Y90.754 E.01679
M73 Q6 S68
G1 X171.065 Y119.246 E1.26694
G1 X170.531 Y119.246 E.01679
G1 X142.038 Y90.754 E1.26696
G1 X141.503 Y90.754 E.01682
G1 X169.996 Y119.246 E1.26696
G1 X169.461 Y119.246 E.01682
G1 X140.968 Y90.754 E1.26696
G1 X140.433 Y90.754 E.01682
G1 X168.926 Y119.246 E1.26696
G1 X168.392 Y119.246 E.01679
G1 X139.899 Y90.754 E1.26696
G1 X139.364 Y90.754 E.01682
G1 X167.857 Y119.246 E1.26696
G1 X167.322 Y119.246 E.01682
G1 X138.829 Y90.754 E1.26696
G1 X138.294 Y90.754 E.01682
G1 X166.787 Y119.246 E1.26696
G1 X166.253 Y119.246 E.01679
G1 X137.76 Y90.754 E1.26696
G1 X137.225 Y90.754 E.01682
G1 X165.718 Y119.246 E1.26696
G1 X165.183 Y119.246 E.01682
G1 X136.69 Y90.754 E1.26696
G1 X136.155 Y90.754 E.01682
G1 X164.648 Y119.246 E1.26696
G1 X164.113 Y119.246 E.01682
G1 X135.62 Y90.754 E1.26696
G1 X135.086 Y90.754 E.01679
G1 X163.579 Y119.246 E1.26696
G1 X163.044 Y119.246 E.01682
M73 C59
G1 X134.551 Y90.754 E1.26696
G1 X134.016 Y90.754 E.01682
M73 P6 R67
G1 X162.509 Y119.246 E1.26696
G1 X161.974 Y119.246 E.01682
G1 X133.481 Y90.754 E1.26696
G1 X132.947 Y90.754 E.01679
M73 P7 R67
G1 X161.44 Y119.246 E1.26696
G1 X160.905 Y119.246 E.01682
M73 Q7 S68
G1 X132.412 Y90.754 E1.26696
G1 X131.877 Y90.754 E.01682
G1 X160.37 Y119.246 E1.26696
G1 X159.835 Y119.246 E.01682
G1 X131.342 Y90.754 E1.26696
G1 X130.808 Y90.754 E.01679
G1 X159.3 Y119.246 E1.26694
G1 X158.766 Y119.246 E.01679
M73 D59
G1 X130.273 Y90.754 E1.26696
G1 X129.738 Y90.754 E.01682
G1 X158.231 Y119.246 E1.26696
G1 X157.696 Y119.246 E.01682
G1 X129.203 Y90.754 E1.26696
G1 X128.668 Y90.754 E.01682
G1 X157.161 Y119.246 E1.26696
G1 X156.627 Y119.246 E.01679
G1 X128.134 Y90.754 E1.26696
G1 X127.599 Y90.754 E.01682
G1 X156.092 Y119.246 E1.26696
G1 X155.557 Y119.246 E.01682
M73 Q7 S67
G1 X127.064 Y90.754 E1.26696
G1 X126.529 Y90.754 E.01682
G1 X155.022 Y119.246 E1.26696
G1 X154.488 Y119.246 E.01679
G1 X125.995 Y90.754 E1.26696
G1 X125.46 Y90.754 E.01682
G1 X153.953 Y119.246 E1.26696
G1 X153.418 Y119.246 E.01682
G1 X124.925 Y90.754 E1.26696
G1 X124.39 Y90.754 E.01682
G1 X152.883 Y119.246 E1.26696
G1 X152.348 Y119.246 E.01682
G1 X123.856 Y90.754 E1.26694
G1 X123.321 Y90.754 E.01682
G1 X151.814 Y119.246 E1.26696
G1 X151.279 Y119.246 E.01682
G1 X122.786 Y90.754 E1.26696
G1 X122.251 Y90.754 E.01682
G1 X150.744 Y119.246 E1.26696
G1 X150.209 Y119.246 E.01682
G1 X121.716 Y90.754 E1.26696
G1 X121.182 Y90.754 E.01679
M73 P8 R67
M73 Q8 S67
G1 X149.675 Y119.246 E1.26696
G1 X149.14 Y119.246 E.01682
G1 X120.647 Y90.754 E1.26696
G1 X120.112 Y90.754 E.01682
G1 X148.605 Y119.246 E1.26696
G1 X148.07 Y119.246 E.01682
G1 X119.577 Y90.754 E1.26696
G1 X119.043 Y90.754 E.01679
M73 C58
G1 X147.536 Y119.246 E1.26696
G1 X147.001 Y119.246 E.01682
M73 P8 R66
G1 X118.508 Y90.754 E1.26696
G1 X117.973 Y90.754 E.01682
G1 X146.466 Y119.246 E1.26696
G1 X145.931 Y119.246 E.01682
G1 X117.438 Y90.754 E1.26696
G1 X116.903 Y90.754 E.01682
G1 X145.396 Y119.246 E1.26696
G1 X144.862 Y119.246 E.01679
G1 X116.369 Y90.754 E1.26696
G1 X115.834 Y90.754 E.01682
G1 X144.327 Y119.246 E1.26696
G1 X143.792 Y119.246 E.01682
G1 X115.299 Y90.754 E1.26696
G1 X114.764 Y90.754 E.01682
G1 X143.257 Y119.246 E1.26696
G1 X142.723 Y119.246 E.01679
M73 D58
G1 X114.23 Y90.754 E1.26696
G1 X113.695 Y90.754 E.01682
G1 X142.188 Y119.246 E1.26696
G1 X141.653 Y119.246 E.01682
G1 X113.16 Y90.754 E1.26696
G1 X112.625 Y90.754 E.01682
G1 X141.118 Y119.246 E1.26696
G1 X140.583 Y119.246 E.01682
G1 X112.091 Y90.754 E1.26694
G1 X111.556 Y90.754 E.01682
M73 Q8 S66
G1 X140.049 Y119.246 E1.26696
G1 X139.514 Y119.246 E.01682
G1 X111.021 Y90.754 E1.26696
G1 X110.486 Y90.754 E.01682
G1 X138.979 Y119.246 E1.26696
G1 X138.444 Y119.246 E.01682
M73 P9 R66
G1 X109.951 Y90.754 E1.26696
G1 X109.417 Y90.754 E.01679
M73 Q9 S66
G1 X137.91 Y119.246 E1.26696
G1 X137.375 Y119.246 E.01682
G1 X108.882 Y90.754 E1.26696
G1 X108.347 Y90.754 E.01682
G1 X136.84 Y119.246 E1.26696
G1 X136.305 Y119.246 E.01682
G1 X107.812 Y90.754 E1.26696
G1 X107.278 Y90.754 E.01679
G1 X135.771 Y119.246 E1.26696
G1 X135.236 Y119.246 E.01682
G1 X106.743 Y90.754 E1.26696
G1 X106.208 Y90.754 E.01682
G1 X134.701 Y119.246 E1.26696
G1 X134.166 Y119.246 E.01682
G1 X105.673 Y90.754 E1.26696
G1 X105.138 Y90.754 E.01682
G1 X133.631 Y119.246 E1.26696
G1 X133.097 Y119.246 E.01679
G1 X104.604 Y90.754 E1.26696
G1 X104.069 Y90.754 E.01682
G1 X132.562 Y119.246 E1.26696
G1 X132.027 Y119.246 E.01682
M73 C57
G1 X103.534 Y90.754 E1.26696
G1 X102.999 Y90.754 E.01682
M73 P9 R65
G1 X131.492 Y119.246 E1.26696
G1 X130.958 Y119.246 E.01679
G1 X102.465 Y90.754 E1.26696
G1 X101.93 Y90.754 E.01682
G1 X130.423 Y119.246 E1.26696
G1 X129.888 Y119.246 E.01682
G1 X101.395 Y90.754 E1.26696
G1 X100.86 Y90.754 E.01682
G1 X129.353 Y119.246 E1.26696
G1 X128.818 Y119.246 E.01682
G1 X100.326 Y90.754 E1.26694
G1 X99.791 Y90.754 E.01682
G1 X128.284 Y119.246 E1.26696
G1 X127.749 Y119.246 E.01682
G1 X99.256 Y90.754 E1.26696
G1 X98.721 Y90.754 E.01682
M73 P10 R65
M73 D57
G1 X127.214 Y119.246 E1.26696
G1 X126.679 Y119.246 E.01682
M73 Q10 S66
G1 X98.186 Y90.754 E1.26696
G1 X97.652 Y90.754 E.01679
G1 X126.145 Y119.246 E1.26696
G1 X125.61 Y119.246 E.01682
G1 X97.117 Y90.754 E1.26696
G1 X96.582 Y90.754 E.01682
G1 X125.075 Y119.246 E1.26696
G1 X124.54 Y119.246 E.01682
G1 X96.047 Y90.754 E1.26696
G1 X95.513 Y90.754 E.01679
M73 Q10 S65
G1 X124.006 Y119.246 E1.26696
G1 X123.471 Y119.246 E.01682
G1 X94.978 Y90.754 E1.26696
G1 X94.443 Y90.754 E.01682
G1 X122.936 Y119.246 E1.26696
G1 X122.401 Y119.246 E.01682
G1 X93.908 Y90.754 E1.26696
G1 X93.373 Y90.754 E.01682
G1 X121.866 Y119.246 E1.26696
G1 X121.332 Y119.246 E.01679
G1 X92.839 Y90.754 E1.26696
G1 X92.304 Y90.754 E.01682
G1 X120.797 Y119.246 E1.26696
G1 X120.262 Y119.246 E.01682
G1 X91.769 Y90.754 E1.26696
G1 X91.234 Y90.754 E.01682
G1 X119.727 Y119.246 E1.26696
G1 X119.193 Y119.246 E.01679
G1 X90.7 Y90.754 E1.26696
G1 X90.165 Y90.754 E.01682
G1 X118.658 Y119.246 E1.26696
G1 X118.123 Y119.246 E.01682
G1 X89.63 Y90.754 E1.26696
G1 X89.095 Y90.754 E.01682
G1 X117.588 Y119.246 E1.26696
G1 X117.053 Y119.246 E.01682
