; generated by PrusaSlicer 2.6.1+linux-x64-GTK3 on 2023-09-15 at 12:05:58 UTC


;
;
; 

; external perimeters extrusion width = 0.45mm
; perimeters extrusion width = 0.45mm
; infill extrusion width = 0.45mm
; solid infill extrusion width = 0.45mm
; top infill extrusion width = 0.40mm
; first layer extrusion width = 0.42mm

M73 P0 R53
M73 Q0 S54
M201 X1000 Y1000 Z200 E5000 ; sets maximum accelerations, mm/sec^2
M203 X200 Y200 Z12 E120 ; sets maximum feedrates, mm / sec
M204 S1250 T1250 ; sets acceleration (S) and retract acceleration (R), mm/sec^2
M205 X8.00 Y8.00 Z0.40 E4.50 ; sets the jerk limits, mm/sec
M205 S0 T0 ; sets the minimum extruding and travel feed rate, mm/sec
;TYPE:Custom
M862.3 P "MK3S" ; printer model check
M862.1 P0.4 ; nozzle diameter check
M115 U3.13.0 ; tell printer latest fw version
G90 ; use absolute coordinates
M83 ; extruder relative mode
M104 S215 ; set extruder temp
M140 S60 ; set bed temp
M190 S60 ; wait for bed temp
M109 S215 ; wait for extruder temp
G28 W ; home all without mesh bed level
G80 ; mesh bed leveling

G1 Z0.2 F720
G1 Y-3 F1000 ; go outside print area
G92 E0
G1 X60 E9 F1000 ; intro line
G1 X100 E12.5 F1000 ; intro line

G92 E0
M221 S95

; Don't change E values below. Excessive value can damage the printer.

G21 ; set units to millimeters
G90 ; use absolute coordinates
M83 ; use relative distances for extrusion
M900 K0.05 ; Filament gcode LA 1.5
M900 K30 ; Filament gcode LA 1.0
M107
;LAYER_CHANGE
;Z:0.2
;HEIGHT:0.2
;BEFORE_LAYER_CHANGE
G92 E0.0
;0.2


G1 E-.8 F2100
G1 Z.4 F720
;AFTER_LAYER_CHANGE
;0.2
G1 X92.618 Y87.224 F10800
G1 Z.2 F720
G1 E.8 F2100
M204 S800
;TYPE:Skirt/Brim
;WIDTH:0.42
G1 F1200
G1 X94.006 Y86.151 E.05501
G1 X94.942 Y85.669 E.03301
G1 X95.935 Y85.318 E.03302
G1 X96.878 Y85.12 E.03021
G1 X97.903 Y85.037 E.03224
G1 X152.128 Y85.038 E1.70019
G1 X153.574 Y85.199 E.04562
G1 X154.939 Y85.618 E.04477
G1 X156.315 Y86.356 E.04896
G1 X157.265 Y87.113 E.03809
G1 X158.217 Y88.184 E.04493
G1 X159.009 Y89.529 E.04894
G1 X159.428 Y90.67 E.03811
G1 X159.684 Y92.092 E.0453
G1 X159.671 Y118.049 E.81386
G1 X159.315 Y119.695 E.0528
G1 X158.59 Y121.258 E.05402
G1 X158.084 Y121.991 E.02793
G1 X157.382 Y122.776 E.03302
G1 X155.994 Y123.849 E.05501
G1 X155.058 Y124.331 E.03301
G1 X154.065 Y124.682 E.03302
G1 X153.122 Y124.88 E.03021
G1 X152.097 Y124.963 E.03224
G1 X97.624 Y124.954 E1.70796
G1 X95.919 Y124.677 E.05416
G1 X94.927 Y124.325 E.033
G1 X93.992 Y123.84 E.03303
G1 X93.259 Y123.334 E.02793
G1 X92.474 Y122.632 E.03302
G1 X91.401 Y121.243 E.05503
G1 X90.918 Y120.307 E.03302
G1 X90.613 Y119.471 E.0279
G1 X90.388 Y118.49 E.03156
G1 X90.289 Y117.441 E.03304
G1 X90.302 Y92.283 E.78881
G1 X90.42 Y91.324 E.0303
G1 X90.685 Y90.305 E.03301
G1 X91.41 Y88.742 E.05402
G1 X91.916 Y88.009 E.02793
G1 X92.578 Y87.269 E.03113
M204 S1000
;WIPE_START
G1 F8640
G1 X94.006 Y86.151 E-.41876
G1 X94.942 Y85.669 E-.2431
G1 X95.506 Y85.47 E-.13814
;WIPE_END
G1 Z.6 F720
G1 X94.478 Y89.133 F10800
G1 Z.2 F720
G1 E.8 F2100
M204 S800
G1 F1200
G1 X95.472 Y88.369 E.03931
G1 X97.699 Y87.701 E.0729
G1 X152.245 Y87.701 E1.71025
G1 X153.601 Y87.975 E.04338
M73 Q0 S53
G1 X154.159 Y88.181 E.01865
G1 X155.727 Y89.336 E.06106
G1 X156.24 Y90.016 E.02671
G1 X156.623 Y90.704 E.02469
G1 X157.049 Y92.502 E.05794
G1 X157.044 Y117.489 E.78345
G1 X156.833 Y118.706 E.03873
G1 X156.313 Y119.874 E.04009
G1 X155.522 Y120.867 E.03981
G1 X154.528 Y121.631 E.03931
G1 X152.301 Y122.299 E.0729
G1 X97.823 Y122.299 E1.70812
G1 X96.587 Y122.096 E.03927
G1 X95.416 Y121.587 E.04003
G1 X94.415 Y120.804 E.03985
G1 X93.619 Y119.778 E.04072
G1 X92.951 Y117.551 E.0729
G1 X92.951 Y92.573 E.78317
G1 X93.167 Y91.293 E.0407
G1 X93.687 Y90.126 E.04006
G1 X94.441 Y89.18 E.03793
M204 S1000
G1 X94.727 Y89.418 F10800
M204 S800
G1 F1200
G1 X95.674 Y88.69 E.03745
G1 X97.726 Y88.078 E.06714
G1 X152.226 Y88.078 E1.70881
G1 X153.51 Y88.341 E.04109
G1 X154.003 Y88.525 E.0165
G1 X155.443 Y89.584 E.05605
G1 X155.931 Y90.232 E.02543
G1 X156.281 Y90.864 E.02265
G1 X156.672 Y92.523 E.05344
G1 X156.669 Y117.443 E.78135
G1 X156.478 Y118.577 E.03606
M73 P0 R52
G1 X156.002 Y119.66 E.03709
G1 X155.273 Y120.582 E.03685
G1 X154.326 Y121.31 E.03745
G1 X152.274 Y121.922 E.06714
G1 X97.839 Y121.922 E1.70677
G1 X96.673 Y121.728 E.03706
M73 P1 R52
M73 Q1 S53
G1 X95.59 Y121.252 E.03709
G1 X94.668 Y120.523 E.03685
G1 X93.939 Y119.576 E.03747
G1 X93.328 Y117.524 E.06713
G1 X93.328 Y92.589 E.78182
G1 X93.522 Y91.423 E.03706
G1 X93.998 Y90.34 E.03709
G1 X94.69 Y89.465 E.03498
M204 S1000
G1 X94.984 Y89.7 F10800
M204 S800
G1 F1200
G1 X95.875 Y89.011 E.03532
G1 X97.753 Y88.455 E.06141
G1 X152.206 Y88.455 E1.70734
G1 X153.419 Y88.707 E.03884
G1 X153.845 Y88.868 E.01428
G1 X155.158 Y89.833 E.05109
G1 X155.622 Y90.448 E.02416
G1 X155.938 Y91.023 E.02057
G1 X156.295 Y92.545 E.04902
G1 X156.295 Y117.395 E.77915
G1 X156.11 Y118.49 E.03482
G1 X155.668 Y119.483 E.03408
G1 X154.994 Y120.328 E.03389
G1 X154.125 Y120.989 E.03423
G1 X152.247 Y121.545 E.06141
G1 X97.855 Y121.545 E1.70542
G1 X96.76 Y121.361 E.03481
G1 X95.767 Y120.918 E.03409
G1 X94.922 Y120.244 E.03389
G1 X94.261 Y119.375 E.03423
G1 X93.705 Y117.497 E.06141
G1 X93.705 Y92.605 E.78047
G1 X93.89 Y91.51 E.03482
G1 X94.332 Y90.517 E.03408
G1 X94.947 Y89.747 E.0309
M204 S1000
G1 X95.24 Y89.983 F10800
M204 S800
G1 F1200
G1 X95.285 Y89.927 E.00225
G1 X96.074 Y89.332 E.03098
G1 X97.78 Y88.832 E.05574
G1 X152.186 Y88.832 E1.70586
G1 X153.325 Y89.073 E.0365
G1 X153.687 Y89.211 E.01215
G1 X154.874 Y90.082 E.04616
G1 X155.312 Y90.664 E.02284
G1 X155.595 Y91.181 E.01848
G1 X155.918 Y92.566 E.04459
G1 X155.918 Y117.379 E.77799
G1 X155.743 Y118.402 E.03254
G1 X155.334 Y119.305 E.03108
G1 X154.715 Y120.073 E.03093
G1 X153.926 Y120.668 E.03098
G1 X152.22 Y121.168 E.05574
G1 X97.871 Y121.168 E1.70407
G1 X96.848 Y120.993 E.03254
G1 X95.945 Y120.584 E.03108
G1 X95.177 Y119.965 E.03093
G1 X94.582 Y119.176 E.03098
G1 X94.082 Y117.47 E.05574
G1 X94.082 Y92.621 E.77912
G1 X94.257 Y91.598 E.03254
G1 X94.666 Y90.695 E.03108
G1 X95.202 Y90.03 E.02678
M204 S1000
G1 X95.493 Y90.262 F10800
M204 S800
G1 F1200
G1 X95.531 Y90.214 E.00192
G1 X96.273 Y89.654 E.02915
G1 X97.807 Y89.209 E.05008
G1 X152.166 Y89.209 E1.70439
G1 X153.231 Y89.438 E.03416
G1 X153.527 Y89.553 E.00996
G1 X154.589 Y90.331 E.04128
G1 X155.002 Y90.88 E.02154
G1 X155.251 Y91.338 E.01635
G1 X155.541 Y92.588 E.04023
G1 X155.541 Y117.364 E.77683
G1 X155.389 Y118.271 E.02883
G1 X155.024 Y119.09 E.02811
G1 X154.469 Y119.786 E.02791
G1 X153.727 Y120.346 E.02915
G1 X152.193 Y120.791 E.05008
G1 X97.886 Y120.791 E1.70276
G1 X96.979 Y120.639 E.02883
G1 X96.16 Y120.274 E.02811
G1 X95.464 Y119.719 E.02791
G1 X94.904 Y118.977 E.02915
G1 X94.459 Y117.443 E.05008
G1 X94.459 Y92.636 E.77781
G1 X94.611 Y91.729 E.02883
G1 X94.976 Y90.91 E.02811
G1 X95.455 Y90.309 E.0241
M204 S1000
G1 X95.748 Y90.545 F10800
M204 S800
G1 F1200
G1 X95.808 Y90.47 E.00301
G1 X96.47 Y89.978 E.02586
G1 X97.833 Y89.586 E.04447
G1 X152.145 Y89.587 E1.70291
G1 X153.134 Y89.803 E.03174
M73 P2 R52
M73 Q2 S53
G1 X153.364 Y89.894 E.00776
G1 X154.341 Y90.617 E.03811
G1 X154.69 Y91.091 E.01846
G1 X154.907 Y91.494 E.01435
G1 X155.164 Y92.609 E.03588
G1 X155.164 Y117.349 E.77571
G1 X155.034 Y118.14 E.02513
G1 X154.69 Y118.913 E.02653
G1 X154.192 Y119.53 E.02486
G1 X153.53 Y120.022 E.02586
G1 X152.167 Y120.414 E.04447
G1 X97.901 Y120.414 E1.70147
G1 X97.11 Y120.284 E.02513
G1 X96.337 Y119.94 E.02653
G1 X95.72 Y119.441 E.02488
G1 X95.228 Y118.78 E.02584
G1 X94.836 Y117.417 E.04447
G1 X94.836 Y92.651 E.77652
G1 X94.966 Y91.86 E.02513
G1 X95.31 Y91.087 E.02653
G1 X95.71 Y90.592 E.01995
M204 S1000
G1 X96.001 Y90.83 F10800
M204 S800
G1 F1200
G1 X96.084 Y90.729 E.0041
G1 X96.665 Y90.302 E.02261
G1 X97.858 Y89.963 E.03889
G1 X152.124 Y89.964 E1.70147
G1 X153.035 Y90.167 E.02926
G1 X153.199 Y90.234 E.00555
G1 X154.054 Y90.863 E.03328
G1 X154.378 Y91.303 E.01713
G1 X154.562 Y91.649 E.01229
G1 X154.787 Y92.63 E.03156
G1 X154.787 Y117.333 E.77455
G1 X154.667 Y118.053 E.02289
G1 X154.358 Y118.734 E.02345
G1 X153.916 Y119.271 E.02181
G1 X153.335 Y119.698 E.02261
G1 X152.142 Y120.037 E.03889
G1 X97.917 Y120.037 E1.70019
G1 X97.197 Y119.917 E.02289
M73 Q2 S52
G1 X96.516 Y119.608 E.02345
G1 X95.979 Y119.166 E.02181
G1 X95.552 Y118.585 E.02261
G1 X95.213 Y117.392 E.03889
G1 X95.213 Y92.667 E.77524
G1 X95.333 Y91.947 E.02289
G1 X95.642 Y91.266 E.02345
G1 X95.962 Y90.877 E.01579
M204 S1000
G1 X96.252 Y91.111 F10800
M204 S800
G1 F1200
G1 X96.327 Y91.018 E.00375
G1 X96.861 Y90.626 E.02077
G1 X97.884 Y90.341 E.0333
G1 X152.102 Y90.341 E1.69997
G1 X152.933 Y90.531 E.02673
G1 X153.032 Y90.572 E.00336
G1 X153.768 Y91.11 E.02858
G1 X154.066 Y91.515 E.01577
G1 X154.217 Y91.803 E.0102
G1 X154.409 Y92.651 E.02726
G1 X154.409 Y117.318 E.77342
G1 X154.312 Y117.924 E.01924
G1 X154.048 Y118.517 E.02035
G1 X153.673 Y118.982 E.01873
G1 X153.139 Y119.374 E.02077
G1 X152.116 Y119.659 E.0333
G1 X97.932 Y119.659 E1.6989
G1 X97.326 Y119.562 E.01924
G1 X96.733 Y119.298 E.02035
G1 X96.268 Y118.923 E.01873
G1 X95.876 Y118.389 E.02077
G1 X95.591 Y117.366 E.0333
G1 X95.591 Y92.682 E.77395
G1 X95.688 Y92.076 E.01924
G1 X95.952 Y91.483 E.02035
G1 X96.215 Y91.157 E.01313
M204 S1000
G1 X96.504 Y91.396 F10800
M204 S800
G1 F1200
G1 X96.602 Y91.277 E.00483
G1 X97.053 Y90.952 E.01743
G1 X97.909 Y90.718 E.02782
G1 X152.08 Y90.718 E1.69849
G1 X152.858 Y90.907 E.0251
M73 P2 R51
G1 X153.482 Y91.358 E.02414
G1 X153.753 Y91.726 E.01433
G1 X153.871 Y91.954 E.00805
G1 X154.032 Y92.672 E.02307
G1 X154.032 Y117.303 E.77229
G1 X153.944 Y117.836 E.01694
G1 X153.716 Y118.337 E.01726
G1 X153.398 Y118.723 E.01568
G1 X152.947 Y119.048 E.01743
G1 X152.091 Y119.282 E.02782
G1 X97.947 Y119.282 E1.69765
G1 X97.414 Y119.194 E.01694
M73 P3 R51
G1 X96.913 Y118.966 E.01726
G1 X96.527 Y118.648 E.01568
G1 X96.202 Y118.197 E.01743
G1 X95.968 Y117.341 E.02782
G1 X95.968 Y92.697 E.7727
G1 X96.056 Y92.164 E.01694
M73 Q3 S52
G1 X96.284 Y91.663 E.01726
G1 X96.466 Y91.442 E.00898
M204 S1000
G1 X96.757 Y91.677 F10800
M204 S800
G1 F1200
G1 X96.849 Y91.562 E.00462
G1 X97.191 Y91.305 E.01341
G1 X97.935 Y91.095 E.02424
G1 X152.057 Y91.095 E1.69696
G1 X152.685 Y91.247 E.02026
G1 X153.197 Y91.607 E.01962
G1 X153.439 Y91.937 E.01283
G1 X153.524 Y92.103 E.00585
G1 X153.655 Y92.692 E.01892
G1 X153.655 Y117.288 E.77119
G1 X153.589 Y117.708 E.01333
G1 X153.406 Y118.121 E.01416
G1 X153.151 Y118.438 E.01276
G1 X152.809 Y118.695 E.01341
G1 X152.065 Y118.905 E.02424
G1 X97.962 Y118.905 E1.69636
G1 X97.542 Y118.839 E.01333
G1 X97.129 Y118.656 E.01416
G1 X96.812 Y118.401 E.01276
G1 X96.555 Y118.059 E.01341
G1 X96.345 Y117.315 E.02424
G1 X96.345 Y92.712 E.77141
G1 X96.411 Y92.292 E.01333
G1 X96.594 Y91.879 E.01416
G1 X96.72 Y91.723 E.00629
M204 S1000
G1 X97.013 Y91.96 F10800
M204 S800
G1 F1200
G1 X97.127 Y91.819 E.00569
G1 X97.385 Y91.63 E.01003
G1 X97.96 Y91.472 E.0187
G1 X152.037 Y91.472 E1.69555
G1 X152.505 Y91.579 E.01505
G1 X152.913 Y91.857 E.01548
G1 X153.125 Y92.146 E.01124
G1 X153.175 Y92.248 E.00356
G1 X153.278 Y92.713 E.01493
G1 X153.278 Y117.275 E.77012
G1 X153.232 Y117.584 E.0098
G1 X153.095 Y117.906 E.01097
G1 X152.873 Y118.181 E.01108
G1 X152.615 Y118.37 E.01003
G1 X152.04 Y118.528 E.0187
G1 X97.975 Y118.528 E1.69517
G1 X97.666 Y118.482 E.0098
G1 X97.344 Y118.345 E.01097
G1 X97.069 Y118.123 E.01108
G1 X96.88 Y117.865 E.01003
G1 X96.722 Y117.29 E.0187
G1 X96.722 Y92.725 E.77022
G1 X96.768 Y92.416 E.0098
G1 X96.905 Y92.094 E.01097
G1 X96.975 Y92.007 E.0035
M204 S1000
G1 X97.261 Y92.246 F10800
M204 S800
G1 F1200
G1 X97.398 Y92.082 E.0067
G1 X97.573 Y91.958 E.00672
G1 X97.984 Y91.849 E.01333
G1 X152.019 Y91.849 E1.69423
G1 X152.332 Y91.916 E.01004
G1 X152.63 Y92.11 E.01115
G1 X152.808 Y92.352 E.00942
G1 X152.901 Y92.733 E.0123
G1 X152.901 Y117.26 E.76903
G1 X152.864 Y117.499 E.00758
G1 X152.763 Y117.726 E.00779
G1 X152.602 Y117.918 E.00786
G1 X152.427 Y118.042 E.00672
G1 X152.016 Y118.151 E.01333
G1 X97.99 Y118.151 E1.69395
G1 X97.751 Y118.114 E.00758
G1 X97.524 Y118.013 E.00779
G1 X97.332 Y117.852 E.00786
G1 X97.208 Y117.677 E.00672
G1 X97.099 Y117.266 E.01333
G1 X97.099 Y92.74 E.769
G1 X97.136 Y92.501 E.00758
G1 X97.228 Y92.295 E.00707
M204 S1000
G1 X97.551 Y92.484 F10800
M204 S800
G1 F1200
G1 X97.64 Y92.373 E.00446
G1 X97.761 Y92.287 E.00465
G1 X98.005 Y92.226 E.00789
G1 X152.003 Y92.226 E1.69307
G1 X152.171 Y92.258 E.00536
G1 X152.351 Y92.366 E.00658
G1 X152.471 Y92.529 E.00635
G1 X152.524 Y92.756 E.00731
G1 X152.524 Y117.248 E.76793
G1 X152.506 Y117.38 E.00418
G1 X152.449 Y117.516 E.00462
G1 X152.36 Y117.627 E.00446
G1 X152.239 Y117.713 E.00465
G1 X151.995 Y117.774 E.00789
G1 X98.002 Y117.774 E1.69291
G1 X97.87 Y117.756 E.00418
M73 P4 R51
M73 Q4 S52
G1 X97.734 Y117.699 E.00462
G1 X97.623 Y117.61 E.00446
G1 X97.537 Y117.489 E.00465
G1 X97.476 Y117.245 E.00789
G1 X97.476 Y92.752 E.76796
G1 X97.494 Y92.62 E.00418
G1 X97.528 Y92.54 E.00273
M204 S1000
; printing object BlueHandledDykesToolHolder-Part.stl id:0 copy 0
;WIPE_START
G1 F8640
G1 X97.64 Y92.373 E-.04643
G1 X97.761 Y92.287 E-.03428
G1 X98.005 Y92.226 E-.05807
G1 X100.869 Y92.226 E-.66122
;WIPE_END
G1 Z.6 F720
G1 X151.941 Y92.81 F10800
G1 Z.2 F720
G1 E.8 F2100
M204 S800
;TYPE:External perimeter
;WIDTH:0.58655
G1 F1200
G1 X151.962 Y93.137 E.01481
;WIDTH:0.546853
G1 X151.982 Y93.464 E.01373
;WIDTH:0.507155
G1 X151.982 Y116.536 E.89061
;WIDTH:0.510672
G1 X151.98 Y116.616 E.00311
;WIDTH:0.548739
G1 X151.961 Y116.904 E.01214
;WIDTH:0.586805
G1 X151.942 Y117.192 E.01305
G1 X151.614 Y117.212 E.01486
;WIDTH:0.546981
G1 X151.286 Y117.232 E.01377
;WIDTH:0.507156
G1 X98.714 Y117.232 E2.02935
;WIDTH:0.546981
G1 X98.386 Y117.212 E.01377
;WIDTH:0.586806
G1 X98.058 Y117.192 E.01486
G1 X98.038 Y116.864 E.01486
;WIDTH:0.546981
G1 X98.018 Y116.536 E.01377
;WIDTH:0.507155
G1 X98.018 Y93.464 E.89061
;WIDTH:0.546979
G1 X98.038 Y93.136 E.01377
;WIDTH:0.586803
G1 X98.058 Y92.808 E.01486
G1 X98.386 Y92.788 E.01486
;WIDTH:0.546977
G1 X98.714 Y92.768 E.01377
;WIDTH:0.50715
G1 X151.286 Y92.769 E2.02933
;WIDTH:0.546637
G1 X151.613 Y92.789 E.01372
;WIDTH:0.58655
M73 Q4 S51
G1 X151.881 Y92.806 E.01214
M204 S1000
G1 X151.518 Y93.464 F10800
M204 S800
;WIDTH:0.507155
G1 F1200
G1 X151.518 Y116.536 E.89061
;WIDTH:0.54698
G1 X151.498 Y116.632 E.00411
;WIDTH:0.586805
G1 X151.478 Y116.728 E.00443
G1 X151.382 Y116.748 E.00443
;WIDTH:0.546981
G1 X151.286 Y116.768 E.00411
;WIDTH:0.507156
G1 X98.714 Y116.768 E2.02935
;WIDTH:0.546981
G1 X98.618 Y116.748 E.00411
;WIDTH:0.586806
G1 X98.522 Y116.728 E.00443
G1 X98.502 Y116.632 E.00443
;WIDTH:0.546981
G1 X98.482 Y116.536 E.00411
;WIDTH:0.507155
G1 X98.482 Y93.464 E.89061
;WIDTH:0.546979
G1 X98.502 Y93.368 E.00411
;WIDTH:0.586803
G1 X98.522 Y93.272 E.00443
G1 X98.618 Y93.252 E.00443
;WIDTH:0.546977
G1 X98.714 Y93.232 E.00411
;WIDTH:0.50715
G1 X151.286 Y93.232 E2.02933
;WIDTH:0.546637
G1 X151.382 Y93.252 E.00411
;WIDTH:0.58655
G1 X151.478 Y93.272 E.00443
G1 X151.498 Y93.368 E.00443
;WIDTH:0.546853
G1 X151.506 Y93.406 E.00163
M204 S1000
; stop printing object BlueHandledDykesToolHolder-Part.stl id:0 copy 0
M106 S84.15
;LAYER_CHANGE
;Z:0.4
;HEIGHT:0.2
;BEFORE_LAYER_CHANGE
G92 E0.0
;0.4


;WIPE_START
G1 F8640
G1 X151.508 Y96.871 E-.8
;WIPE_END
G1 Z.6 F720
;AFTER_LAYER_CHANGE
;0.4
M104 S210 ; set temperature
G1 X159.682 Y96.875 F10800
G1 Z.4 F720
G1 E.8 F2100
;TYPE:Skirt/Brim
;WIDTH:0.42
G1 F3000
G1 X159.671 Y118.049 E.6639
G1 X159.315 Y119.695 E.0528
G1 X158.59 Y121.258 E.05402
G1 X158.084 Y121.991 E.02793
G1 X157.382 Y122.776 E.03302
G1 X155.994 Y123.849 E.05501
G1 X155.058 Y124.331 E.03301
G1 X154.065 Y124.682 E.03302
G1 X153.122 Y124.88 E.03021
G1 X152.097 Y124.963 E.03224
G1 X97.624 Y124.954 E1.70796
G1 X95.919 Y124.677 E.05416
G1 X94.927 Y124.325 E.033
G1 X93.992 Y123.84 E.03303
G1 X93.259 Y123.334 E.02793
G1 X92.474 Y122.632 E.03302
G1 X91.401 Y121.243 E.05503
G1 X90.918 Y120.307 E.03302
G1 X90.613 Y119.471 E.0279
G1 X90.388 Y118.49 E.03156
G1 X90.289 Y117.441 E.03304
G1 X90.302 Y92.283 E.78881
G1 X90.42 Y91.324 E.0303
G1 X90.685 Y90.305 E.03301
