; generated by PrusaSlicer 2.6.1+linux-x64-GTK3 on 2023-09-14 at 21:43:49 UTC


;
;
; 

; external perimeters extrusion width = 0.45mm
; perimeters extrusion width = 0.45mm
; infill extrusion width = 0.45mm
; solid infill extrusion width = 0.45mm
; top infill extrusion width = 0.40mm
; first layer extrusion width = 0.42mm

M73 P0 R52
M73 Q0 S53
M201 X1000 Y1000 Z200 E5000 ; sets maximum accelerations, mm/sec^2
M203 X200 Y200 Z12 E120 ; sets maximum feedrates, mm / sec
M204 S1250 T1250 ; sets acceleration (S) and retract acceleration (R), mm/sec^2
M205 X8.00 Y8.00 Z0.40 E4.50 ; sets the jerk limits, mm/sec
M205 S0 T0 ; sets the minimum extruding and travel feed rate, mm/sec
;TYPE:Custom
M862.3 P "MK3S" ; printer model check
M862.1 P0.4 ; nozzle diameter check
M115 U3.13.0 ; tell printer latest fw version
G90 ; use absolute coordinates
M83 ; extruder relative mode
M104 S215 ; set extruder temp
M140 S60 ; set bed temp
M190 S60 ; wait for bed temp
M109 S215 ; wait for extruder temp
G28 W ; home all without mesh bed level
G80 ; mesh bed leveling

G1 Z0.2 F720
G1 Y-3 F1000 ; go outside print area
G92 E0
G1 X60 E9 F1000 ; intro line
G1 X100 E12.5 F1000 ; intro line

G92 E0
M221 S95

; Don't change E values below. Excessive value can damage the printer.

G21 ; set units to millimeters
G90 ; use absolute coordinates
M83 ; use relative distances for extrusion
M900 K0.05 ; Filament gcode LA 1.5
M900 K30 ; Filament gcode LA 1.0
M107
;LAYER_CHANGE
;Z:0.2
;HEIGHT:0.2
;BEFORE_LAYER_CHANGE
G92 E0.0
;0.2


G1 E-.8 F2100
G1 Z.4 F720
;AFTER_LAYER_CHANGE
;0.2
G1 X93.419 Y88.907 F10800
G1 Z.2 F720
G1 E.8 F2100
M204 S800
;TYPE:Skirt/Brim
;WIDTH:0.42
G1 F1200
G1 X96.407 Y85.919 E.13249
G1 X98.088 Y85.223 E.05705
G1 X151.912 Y85.223 E1.68761
G1 X153.593 Y85.919 E.05705
G1 X156.581 Y88.907 E.13249
G1 X157.277 Y90.588 E.05705
G1 X157.277 Y119.412 E.90376
G1 X156.581 Y121.093 E.05705
G1 X153.593 Y124.081 E.13249
G1 X151.912 Y124.777 E.05705
G1 X98.088 Y124.777 E1.68761
G1 X96.407 Y124.081 E.05705
G1 X93.419 Y121.093 E.13249
G1 X92.723 Y119.412 E.05705
G1 X92.723 Y90.588 E.90376
G1 X93.396 Y88.962 E.05518
M204 S1000
;WIPE_START
G1 F8640
G1 X95.833 Y86.499 E-.8
;WIPE_END
G1 Z.6 F720
G1 X96.045 Y90.281 F10800
G1 Z.2 F720
G1 E.8 F2100
M204 S800
G1 F1200
G1 X96.159 Y90.05 E.00808
G1 X97.096 Y89.019 E.04368
G1 X97.781 Y88.511 E.02674
G1 X99.753 Y87.886 E.06486
G1 X150.189 Y87.89 E1.58139
G1 X151.21 Y88.084 E.03259
G1 X152.188 Y88.5 E.03332
G1 X153.312 Y89.396 E.04507
G1 X154.205 Y90.734 E.05044
G1 X154.613 Y92.279 E.0501
G1 X154.613 Y117.718 E.79762
G1 X154.299 Y119.03 E.0423
M73 Q0 S52
G1 X153.841 Y119.95 E.03222
G1 X152.904 Y120.981 E.04368
G1 X152.219 Y121.489 E.02674
G1 X150.247 Y122.113 E.06485
G1 X99.782 Y122.113 E1.58229
G1 X98.47 Y121.799 E.0423
G1 X97.55 Y121.341 E.03222
G1 X96.519 Y120.404 E.04368
G1 X96.011 Y119.719 E.02674
G1 X95.387 Y117.747 E.06485
G1 X95.387 Y92.282 E.79844
G1 X95.701 Y90.97 E.0423
M73 P0 R51
G1 X96.018 Y90.334 E.02228
M204 S1000
G1 X96.353 Y90.503 F10800
M204 S800
G1 F1200
G1 X96.484 Y90.244 E.0091
G1 X97.361 Y89.288 E.04068
G1 X97.979 Y88.834 E.02404
G1 X99.782 Y88.264 E.05929
G1 X150.171 Y88.267 E1.57991
G1 X151.117 Y88.45 E.03021
G1 X152.015 Y88.836 E.03065
G1 X153.053 Y89.671 E.04177
G1 X153.849 Y90.862 E.04492
G1 X154.236 Y92.304 E.04681
G1 X154.236 Y117.695 E.79612
G1 X153.938 Y118.919 E.0395
G1 X153.516 Y119.757 E.02942
G1 X152.639 Y120.712 E.04065
G1 X152.021 Y121.166 E.02404
G1 X150.218 Y121.736 E.05929
G1 X99.805 Y121.736 E1.58066
G1 X98.581 Y121.438 E.0395
M73 P1 R51
M73 Q1 S52
G1 X97.744 Y121.016 E.02939
G1 X96.788 Y120.139 E.04068
G1 X96.334 Y119.521 E.02404
G1 X95.764 Y117.718 E.05929
G1 X95.764 Y92.305 E.79681
G1 X96.062 Y91.081 E.0395
G1 X96.326 Y90.557 E.0184
M204 S1000
G1 X96.66 Y90.727 F10800
M204 S800
G1 F1200
G1 X96.807 Y90.439 E.01014
G1 X97.624 Y89.559 E.03765
G1 X98.176 Y89.156 E.02143
G1 X99.811 Y88.641 E.05375
G1 X150.152 Y88.644 E1.57841
G1 X151.024 Y88.816 E.02787
G1 X151.84 Y89.171 E.0279
G1 X152.793 Y89.945 E.03849
G1 X153.517 Y91.043 E.04124
G1 X153.859 Y92.328 E.04169
G1 X153.859 Y117.671 E.79461
G1 X153.577 Y118.806 E.03667
G1 X153.193 Y119.561 E.02656
G1 X152.376 Y120.441 E.03765
G1 X151.824 Y120.844 E.02143
G1 X150.189 Y121.359 E.05375
G1 X99.829 Y121.359 E1.579
G1 X98.694 Y121.077 E.03667
G1 X97.939 Y120.693 E.02656
G1 X97.059 Y119.876 E.03765
G1 X96.656 Y119.324 E.02143
G1 X96.141 Y117.689 E.05375
G1 X96.141 Y92.329 E.79514
G1 X96.423 Y91.194 E.03667
G1 X96.633 Y90.781 E.01453
M204 S1000
G1 X96.966 Y90.953 F10800
M204 S800
G1 F1200
G1 X97.13 Y90.636 E.01119
G1 X97.886 Y89.831 E.03463
G1 X98.372 Y89.48 E.0188
G1 X99.84 Y89.018 E.04825
G1 X150.133 Y89.021 E1.5769
G1 X150.929 Y89.181 E.02546
G1 X151.664 Y89.505 E.02519
G1 X152.53 Y90.217 E.03515
G1 X153.185 Y91.223 E.03764
G1 X153.482 Y92.352 E.0366
G1 X153.482 Y117.648 E.79314
G1 X153.217 Y118.692 E.03377
G1 X152.87 Y119.364 E.02371
G1 X152.114 Y120.169 E.03463
G1 X151.628 Y120.52 E.0188
G1 X150.161 Y120.982 E.04822
G1 X99.852 Y120.982 E1.5774
G1 X98.808 Y120.717 E.03377
G1 X98.136 Y120.37 E.02371
G1 X97.331 Y119.614 E.03463
G1 X96.98 Y119.128 E.0188
G1 X96.518 Y117.661 E.04822
G1 X96.518 Y92.352 E.79355
G1 X96.783 Y91.308 E.03377
G1 X96.939 Y91.006 E.01066
M204 S1000
G1 X97.27 Y91.18 F10800
M204 S800
G1 F1200
G1 X97.451 Y90.835 E.01222
G1 X98.146 Y90.104 E.03163
G1 X98.566 Y89.804 E.01618
G1 X99.868 Y89.395 E.04279
G1 X150.115 Y89.398 E1.57546
G1 X150.796 Y89.535 E.02178
G1 X151.487 Y89.839 E.02367
G1 X152.267 Y90.488 E.03181
G1 X152.829 Y91.35 E.03226
G1 X153.105 Y92.378 E.03337
G1 X153.105 Y117.623 E.79154
G1 X152.858 Y118.575 E.03084
G1 X152.549 Y119.165 E.02088
G1 X151.854 Y119.896 E.03163
G1 X151.434 Y120.196 E.01618
G1 X150.132 Y120.605 E.04279
G1 X99.877 Y120.605 E1.57571
G1 X98.925 Y120.358 E.03084
G1 X98.335 Y120.049 E.02088
G1 X97.604 Y119.354 E.03163
G1 X97.304 Y118.934 E.01618
G1 X96.895 Y117.632 E.04279
G1 X96.895 Y92.377 E.79185
G1 X97.142 Y91.425 E.03084
G1 X97.242 Y91.233 E.00679
M204 S1000
G1 X97.572 Y91.409 F10800
M204 S800
G1 F1200
G1 X97.771 Y91.037 E.01323
G1 X98.404 Y90.38 E.02861
G1 X98.759 Y90.13 E.01361
G1 X99.897 Y89.772 E.03741
G1 X150.095 Y89.776 E1.57392
G1 X150.699 Y89.9 E.01933
M73 P2 R51
G1 X151.308 Y90.172 E.02091
G1 X152.001 Y90.757 E.02844
M73 Q2 S52
G1 X152.495 Y91.528 E.02871
G1 X152.728 Y92.402 E.02836
G1 X152.728 Y117.598 E.79
G1 X152.5 Y118.456 E.02784
G1 X152.229 Y118.963 E.01803
G1 X151.596 Y119.62 E.02861
G1 X151.241 Y119.87 E.01361
G1 X150.103 Y120.228 E.03741
G1 X99.902 Y120.228 E1.57402
G1 X99.044 Y120 E.02784
G1 X98.537 Y119.729 E.01803
G1 X97.88 Y119.096 E.02861
G1 X97.63 Y118.741 E.01361
G1 X97.272 Y117.603 E.03741
G1 X97.272 Y92.402 E.79016
G1 X97.5 Y91.544 E.02784
G1 X97.544 Y91.462 E.00292
M204 S1000
G1 X97.872 Y91.64 F10800
M204 S800
G1 F1200
G1 X98.088 Y91.241 E.01423
G1 X98.66 Y90.657 E.02563
G1 X98.95 Y90.456 E.01106
G1 X99.926 Y90.149 E.03208
G1 X150.074 Y90.153 E1.57236
G1 X150.599 Y90.264 E.01682
G1 X151.127 Y90.504 E.01819
G1 X151.734 Y91.025 E.02508
G1 X152.139 Y91.656 E.02351
G1 X152.351 Y92.428 E.0251
G1 X152.351 Y117.572 E.78837
G1 X152.142 Y118.334 E.02477
G1 X151.912 Y118.759 E.01515
G1 X151.34 Y119.343 E.02563
G1 X151.05 Y119.544 E.01106
G1 X150.074 Y119.851 E.03208
G1 X99.928 Y119.851 E1.57229
G1 X99.166 Y119.642 E.02477
G1 X98.741 Y119.412 E.01515
G1 X98.157 Y118.84 E.02563
G1 X97.956 Y118.55 E.01106
G1 X97.649 Y117.574 E.03208
G1 X97.649 Y92.428 E.78844
G1 X97.849 Y91.695 E.02382
M204 S1000
G1 X98.212 Y91.798 F10800
M204 S800
G1 F1200
G1 X98.404 Y91.449 E.01249
G1 X98.914 Y90.937 E.02266
G1 X99.139 Y90.783 E.00855
G1 X99.955 Y90.526 E.02682
G1 X150.053 Y90.53 E1.57079
G1 X150.497 Y90.627 E.01425
G1 X150.943 Y90.834 E.01542
G1 X151.466 Y91.291 E.02178
G1 X151.785 Y91.786 E.01846
G1 X151.974 Y92.455 E.0218
G1 X151.974 Y117.545 E.78668
G1 X151.786 Y118.209 E.02164
M73 Q2 S51
G1 X151.596 Y118.551 E.01227
G1 X151.086 Y119.063 E.02266
G1 X150.861 Y119.217 E.00855
G1 X150.045 Y119.474 E.02682
G1 X99.955 Y119.474 E1.57054
G1 X99.291 Y119.286 E.02164
G1 X98.949 Y119.096 E.01227
G1 X98.437 Y118.586 E.02266
G1 X98.283 Y118.361 E.00855
G1 X98.026 Y117.545 E.02682
G1 X98.026 Y92.455 E.78668
G1 X98.196 Y91.856 E.01952
M204 S1000
M73 P2 R50
G1 X98.556 Y91.962 F10800
M204 S800
G1 F1200
G1 X98.718 Y91.66 E.01075
G1 X99.164 Y91.219 E.01967
G1 X99.325 Y91.112 E.00606
G1 X99.984 Y90.903 E.02168
G1 X150.031 Y90.907 E1.56919
G1 X150.391 Y90.99 E.01158
G1 X150.756 Y91.162 E.01265
G1 X151.196 Y91.554 E.01848
G1 X151.431 Y91.92 E.01364
G1 X151.597 Y92.483 E.0184
G1 X151.597 Y117.517 E.78492
G1 X151.431 Y118.08 E.0184
G1 X151.282 Y118.34 E.0094
G1 X150.836 Y118.781 E.01967
G1 X150.675 Y118.888 E.00606
G1 X150.016 Y119.097 E.02168
G1 X99.983 Y119.097 E1.56875
G1 X99.42 Y118.931 E.0184
G1 X99.16 Y118.782 E.0094
G1 X98.719 Y118.336 E.01967
G1 X98.612 Y118.175 E.00606
G1 X98.403 Y117.516 E.02168
G1 X98.403 Y92.483 E.78489
G1 X98.539 Y92.019 E.01516
M204 S1000
G1 X98.898 Y92.13 F10800
M204 S800
G1 F1200
G1 X98.921 Y92.055 E.00246
G1 X99.028 Y91.875 E.00657
G1 X99.411 Y91.504 E.01672
G1 X99.507 Y91.443 E.00357
G1 X100.013 Y91.28 E.01667
G1 X150.009 Y91.284 E1.56759
G1 X150.247 Y91.339 E.00766
M73 P3 R50
M73 Q3 S51
G1 X150.568 Y91.491 E.01114
G1 X150.923 Y91.815 E.01507
G1 X151.079 Y92.057 E.00903
G1 X151.22 Y92.512 E.01494
G1 X151.22 Y117.488 E.7831
G1 X151.079 Y117.945 E.015
G1 X150.972 Y118.125 E.00657
G1 X150.589 Y118.496 E.01672
G1 X150.493 Y118.557 E.00357
G1 X149.987 Y118.72 E.01667
G1 X100.012 Y118.72 E1.56693
G1 X99.555 Y118.579 E.015
G1 X99.375 Y118.472 E.00657
G1 X99.004 Y118.089 E.01672
G1 X98.943 Y117.993 E.00357
G1 X98.78 Y117.487 E.01667
G1 X98.78 Y92.512 E.78307
G1 X98.881 Y92.187 E.01067
M204 S1000
G1 X99.236 Y92.304 F10800
M204 S800
G1 F1200
G1 X99.271 Y92.198 E.0035
G1 X99.334 Y92.097 E.00373
G1 X99.653 Y91.794 E.01379
G1 X100.044 Y91.657 E.01299
G1 X149.987 Y91.661 E1.56593
G1 X150.104 Y91.688 E.00376
G1 X150.378 Y91.818 E.00951
G1 X150.647 Y92.073 E.01162
G1 X150.73 Y92.2 E.00476
G1 X150.843 Y92.544 E.01135
G1 X150.843 Y117.456 E.7811
G1 X150.729 Y117.802 E.01142
G1 X150.666 Y117.903 E.00373
G1 X150.347 Y118.206 E.01379
G1 X149.956 Y118.343 E.01299
G1 X100.044 Y118.343 E1.56496
G1 X99.698 Y118.229 E.01142
G1 X99.597 Y118.166 E.00373
G1 X99.294 Y117.847 E.01379
G1 X99.157 Y117.456 E.01299
G1 X99.157 Y92.544 E.7811
G1 X99.217 Y92.361 E.00604
M204 S1000
G1 X99.568 Y92.487 F10800
M204 S800
G1 F1200
G1 X99.632 Y92.328 E.00537
G1 X99.866 Y92.111 E.01001
G1 X100.079 Y92.034 E.0071
G1 X149.935 Y92.034 E1.5632
G1 X150.185 Y92.144 E.00856
G1 X150.384 Y92.352 E.00903
G1 X150.466 Y92.579 E.00757
G1 X150.466 Y117.421 E.7789
G1 X150.384 Y117.648 E.00757
G1 X150.134 Y117.889 E.01089
G1 X149.921 Y117.966 E.0071
G1 X100.079 Y117.966 E1.56276
G1 X99.852 Y117.884 E.00757
G1 X99.611 Y117.634 E.01089
G1 X99.534 Y117.421 E.0071
G1 X99.534 Y92.579 E.7789
G1 X99.547 Y92.543 E.0012
M204 S1000
G1 X99.911 Y92.621 F10800
M204 S800
G1 F1200
G1 X99.94 Y92.552 E.00235
G1 X100.052 Y92.44 E.00497
G1 X100.121 Y92.411 E.00235
G1 X149.879 Y92.411 E1.56013
G1 X149.948 Y92.44 E.00235
G1 X150.06 Y92.552 E.00497
G1 X150.089 Y92.621 E.00235
G1 X150.089 Y117.379 E.77627
G1 X150.06 Y117.448 E.00235
G1 X149.948 Y117.56 E.00497
G1 X149.879 Y117.589 E.00235
G1 X100.121 Y117.589 E1.56013
G1 X100.052 Y117.56 E.00235
G1 X99.94 Y117.448 E.00497
G1 X99.911 Y117.379 E.00235
G1 X99.911 Y92.681 E.77439
M204 S1000
; printing object BlueGrayNeedleNose.stl id:0 copy 0
;WIPE_START
G1 F8640
G1 X99.94 Y92.552 E-.03053
G1 X100.052 Y92.44 E-.03657
G1 X100.121 Y92.411 E-.01728
G1 X103.22 Y92.411 E-.71562
;WIPE_END
G1 Z.6 F720
G1 X101.25 Y94.779 F10800
G1 Z.2 F720
G1 E.8 F2100
M204 S800
;TYPE:Perimeter
;WIDTH:0.591684
G1 F1200
G1 X101.226 Y94.24 E.02462
;WIDTH:0.542727
G1 X101.201 Y93.701 E.02242
;WIDTH:0.49377
G1 X101.426 Y93.701 E.00843
;WIDTH:0.531604
G1 X101.651 Y93.72 E.00918
;WIDTH:0.569437
G1 X101.875 Y93.739 E.00984
;WIDTH:0.60727
G1 X102.099 Y93.758 E.01055
G1 X101.928 Y93.867 E.00952
;WIDTH:0.569437
G1 X101.757 Y93.977 E.0089
;WIDTH:0.531604
G1 X101.586 Y94.086 E.00824
;WIDTH:0.542727
G1 X101.418 Y94.432 E.01598
;WIDTH:0.591684
G1 X101.276 Y94.725 E.01486
M204 S1000
;WIPE_START
G1 F8640
G1 X101.226 Y94.24 E-.11258
G1 X101.201 Y93.701 E-.12459
G1 X101.426 Y93.701 E-.05195
G1 X101.651 Y93.72 E-.05214
G1 X101.875 Y93.739 E-.05191
G1 X102.099 Y93.758 E-.05191
G1 X101.928 Y93.867 E-.04682
G1 X101.757 Y93.977 E-.04695
G1 X101.586 Y94.086 E-.04682
G1 X101.418 Y94.432 E-.08881
G1 X101.276 Y94.725 E-.07518
;WIPE_END
G1 E-.05034 F2100
G1 Z.6 F720
G1 X101.258 Y115.401 F10800
G1 Z.2 F720
G1 E.8 F2100
M204 S800
;WIDTH:0.60727
G1 F1200
M73 P4 R50
G1 X101.367 Y115.572 E.00952
;WIDTH:0.569437
G1 X101.477 Y115.743 E.0089
;WIDTH:0.531604
G1 X101.586 Y115.914 E.00824
;WIDTH:0.542727
G1 X101.932 Y116.082 E.01598
;WIDTH:0.591684
G1 X102.279 Y116.25 E.01759
G1 X101.74 Y116.274 E.02462
;WIDTH:0.542727
G1 X101.201 Y116.299 E.02242
;WIDTH:0.49377
G1 X101.201 Y116.074 E.00843
;WIDTH:0.531604
G1 X101.22 Y115.849 E.00918
;WIDTH:0.569437
G1 X101.239 Y115.625 E.00984
;WIDTH:0.60727
G1 X101.253 Y115.46 E.00777
M204 S1000
;WIPE_START
G1 F8640
G1 X101.367 Y115.572 E-.0369
G1 X101.477 Y115.743 E-.04695
G1 X101.586 Y115.914 E-.04682
G1 X101.932 Y116.082 E-.08881
G1 X102.279 Y116.25 E-.08902
G1 X101.74 Y116.274 E-.12458
G1 X101.201 Y116.299 E-.12459
G1 X101.201 Y116.074 E-.05195
G1 X101.22 Y115.849 E-.05214
G1 X101.239 Y115.625 E-.05191
G1 X101.253 Y115.46 E-.03824
;WIPE_END
G1 E-.04809 F2100
G1 Z.6 F720
G1 X147.901 Y116.242 F10800
G1 Z.2 F720
G1 E.8 F2100
M204 S800
G1 F1200
G1 X148.072 Y116.133 E.00952
;WIDTH:0.569438
G1 X148.243 Y116.023 E.0089
;WIDTH:0.531605
G1 X148.414 Y115.914 E.00824
G1 X148.523 Y115.743 E.00824
;WIDTH:0.569438
G1 X148.633 Y115.572 E.0089
;WIDTH:0.60727
G1 X148.742 Y115.401 E.00952
G1 X148.761 Y115.7 E.01406
;WIDTH:0.569438
G1 X148.78 Y115.999 E.01312
;WIDTH:0.531605
G1 X148.799 Y116.299 E.01221
;WIDTH:0.493772
G1 X148.574 Y116.299 E.00843
;WIDTH:0.531605
G1 X148.349 Y116.28 E.00918
;WIDTH:0.569438
G1 X148.125 Y116.261 E.00984
;WIDTH:0.60727
G1 X147.96 Y116.247 E.00777
M204 S1000
;WIPE_START
G1 F8640
G1 X148.072 Y116.133 E-.0369
G1 X148.243 Y116.023 E-.04695
G1 X148.414 Y115.914 E-.04682
G1 X148.523 Y115.743 E-.04682
G1 X148.633 Y115.572 E-.04695
G1 X148.742 Y115.401 E-.04682
G1 X148.761 Y115.7 E-.06918
G1 X148.78 Y115.999 E-.06918
G1 X148.799 Y116.299 E-.06941
G1 X148.574 Y116.299 E-.05195
G1 X148.349 Y116.28 E-.05214
G1 X148.125 Y116.261 E-.05191
G1 X147.96 Y116.247 E-.03824
;WIPE_END
G1 E-.12673 F2100
G1 Z.6 F720
G1 X148.75 Y94.779 F10800
G1 Z.2 F720
G1 E.8 F2100
M204 S800
;WIDTH:0.591684
M73 Q4 S51
G1 F1200
G1 X148.582 Y94.432 E.01759
;WIDTH:0.542728
G1 X148.414 Y94.086 E.01598
G1 X148.068 Y93.918 E.01598
;WIDTH:0.591684
G1 X147.721 Y93.75 E.01759
G1 X148.26 Y93.726 E.02462
;WIDTH:0.542728
G1 X148.799 Y93.701 E.02242
;WIDTH:0.493772
G1 X148.799 Y93.926 E.00843
;WIDTH:0.542728
G1 X148.774 Y94.353 E.01778
;WIDTH:0.591684
G1 X148.753 Y94.719 E.01673
M204 S1000
;WIPE_START
G1 F8640
G1 X148.582 Y94.432 E-.07714
G1 X148.414 Y94.086 E-.08881
G1 X148.068 Y93.918 E-.08881
G1 X147.721 Y93.75 E-.08902
G1 X148.26 Y93.726 E-.12458
G1 X148.799 Y93.701 E-.12459
G1 X148.799 Y93.926 E-.05195
G1 X148.774 Y94.353 E-.09876
G1 X148.76 Y94.597 E-.05634
;WIPE_END
G1 Z.6 F720
G1 X149.213 Y116.713 F10800
G1 Z.2 F720
G1 E.8 F2100
M204 S800
;WIDTH:0.419999
G1 F1200
G1 X100.787 Y116.713 E1.51836
G1 X100.787 Y93.287 E.7345
G1 X149.213 Y93.287 E1.51836
G1 X149.213 Y116.653 E.73262
M204 S1000
G1 X149.59 Y117.09 F10800
M204 S800
;TYPE:External perimeter
G1 F1200
G1 X100.41 Y117.09 E1.542
G1 X100.41 Y92.91 E.75815
G1 X149.59 Y92.91 E1.542
G1 X149.59 Y117.03 E.75626
M204 S1000
M73 Q4 S50
G1 X149.195 Y117.029 F10800
;WIPE_START
G1 F8640
G1 X146.125 Y117.034 E-.8
;WIPE_END
G1 Z.6 F720
G1 X101.713 Y95.1 F10800
G1 Z.2 F720
G1 E.8 F2100
M204 S800
;TYPE:Perimeter
G1 F1200
G1 X101.713 Y94.779 E.01006
G1 X101.879 Y94.379 E.01358
