; generated by PrusaSlicer 2.6.1+linux-x64-GTK3 on 2023-09-16 at 14:36:57 UTC


;
;
; 

; external perimeters extrusion width = 0.45mm
; perimeters extrusion width = 0.45mm
; infill extrusion width = 0.45mm
; solid infill extrusion width = 0.45mm
; top infill extrusion width = 0.40mm
; support material extrusion width = 0.35mm
; first layer extrusion width = 0.42mm

M73 P0 R57
M73 Q0 S58
M201 X1000 Y1000 Z200 E5000 ; sets maximum accelerations, mm/sec^2
M203 X200 Y200 Z12 E120 ; sets maximum feedrates, mm / sec
M204 S1250 T1250 ; sets acceleration (S) and retract acceleration (R), mm/sec^2
M205 X8.00 Y8.00 Z0.40 E4.50 ; sets the jerk limits, mm/sec
M205 S0 T0 ; sets the minimum extruding and travel feed rate, mm/sec
;TYPE:Custom
M862.3 P "MK3S" ; printer model check
M862.1 P0.4 ; nozzle diameter check
M115 U3.13.0 ; tell printer latest fw version
G90 ; use absolute coordinates
M83 ; extruder relative mode
M104 S215 ; set extruder temp
M140 S60 ; set bed temp
M190 S60 ; wait for bed temp
M109 S215 ; wait for extruder temp
G28 W ; home all without mesh bed level
G80 ; mesh bed leveling

G1 Z0.2 F720
G1 Y-3 F1000 ; go outside print area
G92 E0
G1 X60 E9 F1000 ; intro line
G1 X100 E12.5 F1000 ; intro line

G92 E0
M221 S95

; Don't change E values below. Excessive value can damage the printer.

G21 ; set units to millimeters
G90 ; use absolute coordinates
M83 ; use relative distances for extrusion
M900 K0.05 ; Filament gcode LA 1.5
M900 K30 ; Filament gcode LA 1.0
M107
;LAYER_CHANGE
;Z:0.2
;HEIGHT:0.2
;BEFORE_LAYER_CHANGE
G92 E0.0
;0.2


G1 E-.8 F2100
G1 Z.4 F720
;AFTER_LAYER_CHANGE
;0.2
G1 X76.805 Y93.243 F10800
G1 Z.2 F720
G1 E.8 F2100
M204 S800
;TYPE:Skirt/Brim
;WIDTH:0.42
G1 F1200
G1 X77.679 Y92.537 E.03523
G1 X108.573 Y77.95 E1.07121
G1 X109.588 Y77.723 E.03261
G1 X155.412 Y77.723 E1.43678
G1 X157.093 Y78.419 E.05705
G1 X160.081 Y81.407 E.13249
G1 X160.505 Y81.984 E.02245
G1 X175.076 Y109.775 E.98387
G1 X175.677 Y111.629 E.06111
G1 X175.777 Y112.312 E.02164
G1 X175.777 Y117.23 E.1542
G1 X175.469 Y118.402 E.03799
G1 X174.145 Y120.74 E.08424
G1 X173.299 Y121.607 E.03798
G1 X156.697 Y131.568 E.60705
G1 X156.109 Y131.821 E.02007
G1 X154.772 Y132.191 E.0435
G1 X154.138 Y132.277 E.02006
G1 X121.212 Y132.277 E1.03237
G1 X120.301 Y132.183 E.02872
G1 X78.184 Y121.672 E1.36105
G1 X76.887 Y120.829 E.0485
G1 X74.726 Y118.062 E.11008
G1 X74.223 Y116.599 E.04851
G1 X74.223 Y97.428 E.60109
G1 X74.711 Y95.985 E.04776
G1 X76.768 Y93.291 E.10628
M204 S1000
;WIPE_START
G1 F8640
G1 X77.679 Y92.537 E-.27306
G1 X79.743 Y91.563 E-.52694
;WIPE_END
G1 Z.6 F720
G1 X78.688 Y95.415 F10800
G1 Z.2 F720
G1 E.8 F2100
M204 S800
G1 F1200
G1 X78.776 Y95.336 E.00371
G1 X79.858 Y94.694 E.03945
G1 X106.902 Y87.29 E.87915
G1 X106.947 Y84.359 E.09191
G1 X107.282 Y83.265 E.03587
G1 X107.813 Y82.337 E.03352
G1 X108.708 Y81.421 E.04015
G1 X109.579 Y80.863 E.03243
G1 X111.054 Y80.417 E.04832
G1 X153.803 Y80.402 E1.34036
G1 X154.79 Y80.609 E.03162
G1 X155.689 Y81 E.03074
G1 X156.809 Y81.893 E.04491
G1 X157.618 Y83.048 E.04421
G1 X158.067 Y84.447 E.04607
G1 X158.112 Y99.359 E.46756
G1 X159.659 Y99.896 E.05134
G1 X161.37 Y100.631 E.05839
G1 X163.078 Y101.518 E.06034
G1 X164.661 Y102.492 E.05828
G1 X166.169 Y103.577 E.05825
G1 X167.639 Y104.806 E.06008
G1 X169.035 Y106.162 E.06102
G1 X170.279 Y107.562 E.05872
G1 X171.43 Y109.065 E.05936
G1 X172.565 Y110.817 E.06545
G1 X173.115 Y112.71 E.06181
G1 X173.041 Y116.741 E.12641
G1 X172.617 Y118.039 E.04281
G1 X172.189 Y118.733 E.02557
G1 X171.651 Y119.364 E.026
G1 X155.571 Y129.13 E.58988
G1 X153.798 Y129.606 E.05756
G1 X120.631 Y129.538 E1.03993
G1 X80.121 Y119.411 E1.30925
G1 X78.371 Y118.343 E.06428
G1 X77.914 Y117.818 E.02182
G1 X77.363 Y116.964 E.03187
G1 X76.887 Y115.218 E.05674
G1 X76.887 Y98.78 E.5154
G1 X77.247 Y97.299 E.04779
G1 X78.093 Y95.953 E.04985
G1 X78.644 Y95.455 E.02329
M204 S1000
G1 X78.893 Y95.732 F10800
M204 S800
G1 F1200
G1 X78.984 Y95.651 E.00382
G1 X80.028 Y95.031 E.03807
G1 X107.276 Y87.579 E.88572
G1 X107.315 Y84.443 E.09833
M73 P1 R57
G1 X107.636 Y83.396 E.03434
M73 Q1 S58
G1 X108.127 Y82.547 E.03075
G1 X108.96 Y81.701 E.03723
G1 X109.758 Y81.196 E.02961
G1 X111.135 Y80.786 E.04505
G1 X153.746 Y80.775 E1.33604
G1 X154.658 Y80.963 E.0292
G1 X155.516 Y81.336 E.02933
G1 X156.551 Y82.169 E.04166
G1 X157.292 Y83.238 E.04078
G1 X157.698 Y84.532 E.04252
G1 X157.735 Y99.627 E.47329
G1 X159.516 Y100.245 E.05911
G1 X161.215 Y100.975 E.05798
G1 X162.886 Y101.843 E.05904
G1 X164.446 Y102.802 E.05742
G1 X165.944 Y103.88 E.05787
G1 X167.391 Y105.09 E.05914
G1 X168.758 Y106.418 E.05976
G1 X169.984 Y107.797 E.05785
G1 X171.119 Y109.278 E.0585
M73 P1 R56
G1 X172.211 Y110.951 E.06264
G1 X172.737 Y112.733 E.05826
G1 X172.673 Y116.653 E.12293
G1 X172.284 Y117.86 E.03976
G1 X171.876 Y118.522 E.02438
G1 X171.384 Y119.096 E.0237
G1 X155.399 Y128.794 E.58623
G1 X153.774 Y129.229 E.05274
G1 X120.701 Y129.167 E1.03698
G1 X80.24 Y119.052 E1.30767
M73 Q1 S57
G1 X78.636 Y118.073 E.05892
G1 X78.223 Y117.602 E.01964
G1 X77.696 Y116.785 E.03048
G1 X77.264 Y115.193 E.05172
G1 X77.264 Y98.803 E.5139
G1 X77.605 Y97.421 E.04463
G1 X78.397 Y96.178 E.04621
G1 X78.848 Y95.772 E.01903
M204 S1000
G1 X79.096 Y96.051 F10800
M204 S800
G1 F1200
G1 X79.191 Y95.966 E.004
G1 X80.199 Y95.369 E.03673
G1 X107.65 Y87.868 E.89226
G1 X107.684 Y84.528 E.10473
G1 X107.99 Y83.528 E.03279
G1 X108.439 Y82.759 E.02792
G1 X109.212 Y81.983 E.03434
G1 X109.935 Y81.53 E.02675
G1 X111.215 Y81.156 E.04181
G1 X153.689 Y81.148 E1.33174
G1 X154.562 Y81.328 E.02795
G1 X155.34 Y81.67 E.02665
G1 X156.291 Y82.444 E.03845
G1 X156.964 Y83.427 E.03735
G1 X157.33 Y84.615 E.03898
G1 X157.359 Y99.922 E.47994
G1 X157.679 Y100.007 E.01038
G1 X159.373 Y100.594 E.05621
G1 X161.06 Y101.319 E.05757
G1 X162.694 Y102.168 E.05774
G1 X164.243 Y103.12 E.05701
G1 X165.718 Y104.182 E.05699
G1 X167.144 Y105.375 E.05829
G1 X168.481 Y106.674 E.05845
G1 X169.689 Y108.032 E.05699
G1 X170.807 Y109.49 E.05761
G1 X171.88 Y111.134 E.06155
G1 X172.36 Y112.756 E.05304
G1 X172.306 Y116.566 E.11947
G1 X171.951 Y117.683 E.03675
G1 X171.579 Y118.289 E.0223
G1 X171.117 Y118.827 E.02223
G1 X155.226 Y128.457 E.5826
G1 X153.75 Y128.852 E.04791
G1 X120.77 Y128.796 E1.03407
G1 X80.36 Y118.693 E1.30603
G1 X78.9 Y117.802 E.05363
G1 X78.532 Y117.385 E.01744
G1 X78.029 Y116.605 E.0291
G1 X77.641 Y115.169 E.04664
G1 X77.641 Y98.826 E.51242
G1 X77.963 Y97.543 E.04148
G1 X78.699 Y96.404 E.04252
G1 X79.051 Y96.091 E.01477
M204 S1000
G1 X79.298 Y96.37 F10800
M204 S800
G1 F1200
G1 X79.398 Y96.282 E.00418
G1 X80.369 Y95.706 E.0354
G1 X108.025 Y88.157 E.89886
G1 X108.06 Y84.559 E.11282
G1 X108.327 Y83.697 E.02829
G1 X108.725 Y83.006 E.025
G1 X109.433 Y82.289 E.03159
G1 X110.067 Y81.884 E.02359
G1 X111.295 Y81.525 E.04011
G1 X153.633 Y81.521 E1.32748
G1 X154.429 Y81.681 E.02546
G1 X155.164 Y82.005 E.02519
G1 X156.03 Y82.717 E.03515
G1 X156.635 Y83.613 E.0339
G1 X156.961 Y84.697 E.03549
G1 X156.982 Y100.213 E.48649
G1 X157.563 Y100.366 E.01884
G1 X159.231 Y100.944 E.05535
G1 X160.904 Y101.663 E.05709
G1 X162.514 Y102.499 E.05688
G1 X164.039 Y103.438 E.05615
G1 X165.492 Y104.483 E.05612
G1 X166.897 Y105.66 E.05747
G1 X168.204 Y106.929 E.05712
G1 X169.394 Y108.267 E.05614
G1 X170.495 Y109.702 E.05671
G1 X171.55 Y111.317 E.06048
G1 X171.983 Y112.78 E.04784
G1 X171.937 Y116.48 E.11602
G1 X171.617 Y117.506 E.0337
G1 X171.266 Y118.078 E.02104
G1 X170.852 Y118.558 E.01987
G1 X155.054 Y128.121 E.57902
G1 X153.726 Y128.475 E.04309
G1 X120.839 Y128.424 E1.03115
G1 X80.479 Y118.334 E1.30441
G1 X79.162 Y117.53 E.04838
M73 P2 R56
G1 X78.841 Y117.168 E.01517
G1 X78.361 Y116.425 E.02773
G1 X78.018 Y115.144 E.04158
G1 X78.018 Y98.851 E.51086
G1 X78.32 Y97.668 E.03828
M73 Q2 S57
G1 X79 Y96.633 E.03883
G1 X79.253 Y96.41 E.01057
M204 S1000
G1 X79.498 Y96.691 F10800
M204 S800
G1 F1200
G1 X79.605 Y96.598 E.00445
G1 X80.54 Y96.043 E.03409
G1 X108.399 Y88.445 E.9054
G1 X108.437 Y84.591 E.12085
G1 X108.665 Y83.865 E.02386
G1 X109.013 Y83.251 E.02213
G1 X109.658 Y82.592 E.02891
G1 X110.201 Y82.238 E.02032
G1 X111.375 Y81.895 E.03835
G1 X153.615 Y81.898 E1.32441
G1 X154.296 Y82.035 E.02178
G1 X154.987 Y82.339 E.02367
G1 X155.767 Y82.988 E.03181
G1 X156.305 Y83.797 E.03046
G1 X156.591 Y84.776 E.03198
G1 X156.605 Y100.504 E.49314
G1 X157.447 Y100.725 E.02729
G1 X159.088 Y101.293 E.05445
G1 X160.749 Y102.006 E.05667
G1 X162.334 Y102.83 E.05601
G1 X163.836 Y103.755 E.05531
G1 X165.266 Y104.785 E.05526
G1 X166.649 Y105.944 E.05658
G1 X167.927 Y107.185 E.05585
G1 X169.108 Y108.512 E.0557
G1 X170.191 Y109.926 E.05584
G1 X171.219 Y111.5 E.05894
G1 X171.605 Y112.805 E.04267
G1 X171.569 Y116.396 E.1126
G1 X171.282 Y117.331 E.03067
G1 X170.97 Y117.844 E.01883
G1 X170.586 Y118.289 E.01843
G1 X154.882 Y127.784 E.57539
G1 X153.702 Y128.098 E.03829
G1 X120.908 Y128.053 E1.02823
G1 X80.598 Y117.975 E1.30279
G1 X79.424 Y117.257 E.04315
G1 X79.149 Y116.951 E.0129
G1 X78.694 Y116.246 E.02631
G1 X78.395 Y115.12 E.03653
G1 X78.395 Y98.875 E.50935
G1 X78.677 Y97.795 E.035
G1 X79.298 Y96.865 E.03506
G1 X79.452 Y96.73 E.00642
M204 S1000
G1 X79.701 Y97.012 F10800
M204 S800
G1 F1200
G1 X79.815 Y96.911 E.00478
G1 X80.664 Y96.4 E.03107
G1 X108.774 Y88.734 E.91356
G1 X108.806 Y84.675 E.12727
G1 X109.005 Y84.03 E.02116
G1 X109.301 Y83.496 E.01914
G1 X109.912 Y82.872 E.02738
G1 X110.381 Y82.57 E.01749
G1 X111.402 Y82.272 E.03335
G1 X153.595 Y82.276 E1.32293
G1 X154.199 Y82.4 E.01933
G1 X154.808 Y82.672 E.02091
G1 X155.502 Y83.258 E.02848
G1 X155.973 Y83.978 E.02698
G1 X156.221 Y84.853 E.02852
G1 X156.228 Y100.795 E.49985
G1 X157.33 Y101.083 E.03571
G1 X158.959 Y101.647 E.05405
G1 X160.581 Y102.344 E.05535
G1 X162.143 Y103.155 E.05518
G1 X163.621 Y104.065 E.05442
G1 X165.029 Y105.079 E.0544
G1 X166.391 Y106.22 E.05571
G1 X167.65 Y107.441 E.05499
G1 X168.813 Y108.747 E.05483
G1 X169.88 Y110.138 E.05497
G1 X170.888 Y111.684 E.05787
G1 X171.228 Y112.83 E.03748
G1 X171.2 Y116.314 E.10924
G1 X170.947 Y117.158 E.02763
G1 X170.674 Y117.61 E.01656
G1 X170.32 Y118.021 E.01701
G1 X154.71 Y127.447 E.57175
G1 X153.677 Y127.721 E.03351
G1 X120.977 Y127.681 E1.02529
G1 X80.718 Y117.616 E1.30114
G1 X79.685 Y116.984 E.03797
G1 X79.457 Y116.733 E.01063
G1 X79.028 Y116.067 E.02484
G1 X78.772 Y115.096 E.03149
G1 X78.772 Y98.898 E.50788
G1 X79.009 Y97.976 E.02985
G1 X79.568 Y97.13 E.03179
G1 X79.656 Y97.052 E.00369
M204 S1000
G1 X79.907 Y97.331 F10800
M204 S800
G1 F1200
G1 X80.028 Y97.223 E.00509
G1 X80.79 Y96.757 E.02801
G1 X109.15 Y89.022 E.92169
G1 X109.174 Y84.76 E.13363
G1 X109.36 Y84.159 E.01973
G1 X109.588 Y83.741 E.01493
G1 X110.165 Y83.152 E.02585
G1 X110.56 Y82.903 E.01464
G1 X111.428 Y82.649 E.02836
G1 X153.574 Y82.653 E1.32146
G1 X154.099 Y82.764 E.01682
G1 X154.627 Y83.004 E.01819
G1 X155.234 Y83.525 E.02508
G1 X155.639 Y84.156 E.02351
G1 X155.851 Y84.928 E.0251
G1 X155.851 Y101.086 E.50662
G1 X157.214 Y101.442 E.04417
M73 P2 R55
G1 X158.829 Y102.001 E.05358
G1 X160.414 Y102.682 E.05409
G1 X161.951 Y103.48 E.0543
G1 X163.406 Y104.375 E.05356
G1 X164.792 Y105.373 E.05355
G1 X166.134 Y106.495 E.05485
G1 X167.373 Y107.697 E.05413
G1 X168.518 Y108.983 E.05399
G1 X169.568 Y110.35 E.05405
G1 X170.558 Y111.867 E.0568
G1 X170.851 Y112.855 E.03231
G1 X170.831 Y116.234 E.10595
G1 X170.611 Y116.984 E.02451
G1 X170.36 Y117.401 E.01526
G1 X170.055 Y117.75 E.01453
G1 X154.539 Y127.111 E.56817
G1 X153.654 Y127.344 E.02869
M73 Q2 S56
G1 X121.046 Y127.31 E1.0224
G1 X80.837 Y117.258 E1.29952
G1 X79.944 Y116.709 E.03287
M73 P3 R55
M73 Q3 S56
G1 X79.765 Y116.515 E.00828
G1 X79.361 Y115.888 E.02339
G1 X79.149 Y115.072 E.02643
G1 X79.149 Y98.923 E.50634
G1 X79.365 Y98.103 E.02659
G1 X79.863 Y97.371 E.02776
M204 S1000
G1 X80.117 Y97.648 F10800
M204 S800
G1 F1200
G1 X80.243 Y97.533 E.00535
G1 X80.917 Y97.113 E.0249
G1 X109.526 Y89.311 E.92977
G1 X109.543 Y84.844 E.14006
G1 X109.714 Y84.29 E.01818
G1 X109.904 Y83.949 E.01224
G1 X110.416 Y83.435 E.02275
G1 X110.735 Y83.237 E.01177
G1 X111.455 Y83.026 E.02352
G1 X153.553 Y83.03 E1.31995
G1 X153.997 Y83.127 E.01425
G1 X154.443 Y83.334 E.01542
G1 X154.966 Y83.791 E.02178
G1 X155.285 Y84.286 E.01846
G1 X155.474 Y84.955 E.0218
G1 X155.474 Y101.378 E.51493
G1 X157.098 Y101.801 E.05262
G1 X158.699 Y102.355 E.05312
G1 X160.246 Y103.02 E.0528
G1 X161.759 Y103.805 E.05344
G1 X163.203 Y104.693 E.05315
G1 X164.556 Y105.666 E.05225
G1 X165.876 Y106.771 E.05398
G1 X167.096 Y107.953 E.05326
G1 X168.223 Y109.218 E.05312
G1 X169.256 Y110.562 E.05315
G1 X170.227 Y112.05 E.05571
G1 X170.474 Y112.882 E.02721
G1 X170.461 Y116.156 E.10265
G1 X170.274 Y116.814 E.02145
G1 X170.064 Y117.166 E.01285
G1 X169.79 Y117.48 E.01307
G1 X154.367 Y126.774 E.56459
G1 X153.63 Y126.967 E.02389
G1 X121.115 Y126.939 E1.01949
G1 X80.957 Y116.899 E1.29788
G1 X80.201 Y116.432 E.02786
G1 X80.072 Y116.295 E.0059
G1 X79.695 Y115.71 E.02182
G1 X79.526 Y115.049 E.02139
G1 X79.526 Y98.949 E.5048
G1 X79.721 Y98.233 E.02327
G1 X80.082 Y97.697 E.02026
M204 S1000
G1 X80.385 Y97.914 F10800
M204 S800
G1 F1200
G1 X80.463 Y97.839 E.00339
G1 X81.044 Y97.469 E.0216
G1 X109.903 Y89.599 E.9379
G1 X109.912 Y84.928 E.14646
G1 X110.068 Y84.422 E.0166
G1 X110.218 Y84.16 E.00947
G1 X110.663 Y83.72 E.01962
G1 X110.908 Y83.573 E.00896
G1 X111.483 Y83.403 E.0188
G1 X153.531 Y83.407 E1.31839
G1 X153.891 Y83.49 E.01158
G1 X154.256 Y83.662 E.01265
G1 X154.696 Y84.054 E.01848
G1 X154.931 Y84.42 E.01364
G1 X155.097 Y84.983 E.0184
G1 X155.097 Y101.669 E.52318
G1 X156.981 Y102.16 E.06104
G1 X158.569 Y102.709 E.05268
G1 X160.079 Y103.358 E.05153
G1 X161.567 Y104.129 E.05255
G1 X162.999 Y105.01 E.05272
G1 X164.33 Y105.968 E.05142
G1 X165.619 Y107.046 E.05269
G1 X166.828 Y108.219 E.05282
G1 X167.928 Y109.453 E.05183
G1 X168.944 Y110.774 E.05225
G1 X169.896 Y112.233 E.05462
G1 X170.097 Y112.909 E.02211
G1 X170.091 Y116.082 E.09949
G1 X169.936 Y116.644 E.01828
G1 X169.749 Y116.958 E.01146
G1 X169.527 Y117.209 E.01051
G1 X154.196 Y126.436 E.56104
G1 X153.606 Y126.59 E.01912
G1 X121.184 Y126.567 E1.01657
G1 X81.078 Y116.54 E1.2962
G1 X80.455 Y116.152 E.02301
G1 X80.378 Y116.074 E.00344
G1 X80.029 Y115.532 E.02021
G1 X79.903 Y115.026 E.01635
G1 X79.903 Y98.973 E.50333
G1 X80.052 Y98.415 E.01811
G1 X80.352 Y97.964 E.01698
M204 S1000
G1 X80.66 Y98.173 F10800
M204 S800
G1 F1200
G1 X81.173 Y97.825 E.01944
G1 X110.28 Y89.887 E.94596
G1 X110.28 Y85.012 E.15285
G1 X110.421 Y84.555 E.015
G1 X110.528 Y84.375 E.00657
G1 X110.909 Y84.006 E.01663
G1 X111.043 Y83.926 E.00489
G1 X111.512 Y83.78 E.0154
G1 X153.509 Y83.784 E1.31679
G1 X153.747 Y83.839 E.00766
G1 X154.068 Y83.991 E.01114
G1 X154.423 Y84.315 E.01507
G1 X154.579 Y84.557 E.00903
G1 X154.72 Y85.012 E.01494
G1 X154.72 Y101.991 E.53236
G1 X155.323 Y102.107 E.01925
G1 X156.864 Y102.518 E.05001
G1 X158.439 Y103.063 E.05226
G1 X159.924 Y103.701 E.05068
G1 X161.376 Y104.454 E.05128
G1 X162.796 Y105.328 E.05228
G1 X164.104 Y106.27 E.05054
G1 X165.361 Y107.322 E.05139
G1 X166.561 Y108.485 E.0524
G1 X167.634 Y109.688 E.05054
G1 X168.632 Y110.986 E.05134
G1 X169.565 Y112.416 E.05354
G1 X169.72 Y112.936 E.01701
G1 X169.72 Y116.01 E.09638
G1 X169.597 Y116.477 E.01514
G1 X169.454 Y116.723 E.00892
G1 X169.264 Y116.937 E.00897
G1 X154.026 Y126.099 E.55749
G1 X153.583 Y126.213 E.01434
G1 X121.253 Y126.196 E1.01368
G1 X81.199 Y116.182 E1.29452
M73 P4 R55
G1 X80.702 Y115.868 E.01843
M73 Q4 S56
G1 X80.385 Y115.404 E.01762
G1 X80.28 Y115.001 E.01306
G1 X80.28 Y99 E.5017
G1 X80.406 Y98.547 E.01474
G1 X80.627 Y98.223 E.0123
M204 S1000
G1 X80.939 Y98.435 F10800
M204 S800
G1 F1200
G1 X81.304 Y98.18 E.01396
G1 X110.657 Y90.175 E.95395
G1 X110.657 Y85.044 E.16088
G1 X110.771 Y84.698 E.01142
G1 X110.834 Y84.597 E.00373
G1 X111.153 Y84.294 E.01379
G1 X111.544 Y84.157 E.01299
G1 X153.487 Y84.161 E1.31509
G1 X153.604 Y84.188 E.00376
G1 X153.878 Y84.318 E.00951
G1 X154.147 Y84.573 E.01162
G1 X154.23 Y84.7 E.00476
G1 X154.343 Y85.044 E.01135
G1 X154.343 Y102.303 E.54114
G1 X155.233 Y102.473 E.02841
G1 X156.747 Y102.877 E.04913
G1 X158.309 Y103.417 E.05182
G1 X159.768 Y104.045 E.0498
