; generated by PrusaSlicer 2.6.1+linux-x64-GTK3 on 2023-09-18 at 14:28:04 UTC


;
;
; 

; external perimeters extrusion width = 0.45mm
; perimeters extrusion width = 0.45mm
; infill extrusion width = 0.45mm
; solid infill extrusion width = 0.45mm
; top infill extrusion width = 0.40mm
; support material extrusion width = 0.35mm
; first layer extrusion width = 0.42mm

M73 P0 R99
M73 Q0 S100
M201 X1000 Y1000 Z200 E5000 ; sets maximum accelerations, mm/sec^2
M203 X200 Y200 Z12 E120 ; sets maximum feedrates, mm / sec
M204 S1250 T1250 ; sets acceleration (S) and retract acceleration (R), mm/sec^2
M205 X8.00 Y8.00 Z0.40 E4.50 ; sets the jerk limits, mm/sec
M205 S0 T0 ; sets the minimum extruding and travel feed rate, mm/sec
;TYPE:Custom
M862.3 P "MK3S" ; printer model check
M862.1 P0.4 ; nozzle diameter check
M115 U3.13.0 ; tell printer latest fw version
G90 ; use absolute coordinates
M83 ; extruder relative mode
M104 S215 ; set extruder temp
M140 S60 ; set bed temp
M190 S60 ; wait for bed temp
M109 S215 ; wait for extruder temp
G28 W ; home all without mesh bed level
G80 ; mesh bed leveling

G1 Z0.2 F720
G1 Y-3 F1000 ; go outside print area
G92 E0
G1 X60 E9 F1000 ; intro line
G1 X100 E12.5 F1000 ; intro line

G92 E0
M221 S95

; Don't change E values below. Excessive value can damage the printer.

G21 ; set units to millimeters
G90 ; use absolute coordinates
M83 ; use relative distances for extrusion
M900 K0.05 ; Filament gcode LA 1.5
M900 K30 ; Filament gcode LA 1.0
M107
;LAYER_CHANGE
;Z:0.2
;HEIGHT:0.2
;BEFORE_LAYER_CHANGE
G92 E0.0
;0.2


G1 E-.8 F2100
G1 Z.4 F720
;AFTER_LAYER_CHANGE
;0.2
G1 X78.77 Y88.652 F10800
G1 Z.2 F720
G1 E.8 F2100
M204 S800
;TYPE:Skirt/Brim
;WIDTH:0.42
G1 F1200
G1 X80.332 Y87.958 E.05359
G1 X126.593 Y85.648 E1.45229
G1 X169.549 Y85.648 E1.34686
G1 X171.23 Y86.345 E.05706
M73 Q0 S99
G1 X171.34 Y86.455 E.00488
G1 X172.037 Y88.136 E.05706
G1 X172.037 Y112.501 E.76395
G1 X171.544 Y113.95 E.04799
M73 P0 R98
G1 X171.355 Y114.196 E.00973
G1 X170.293 Y114.977 E.04133
G1 X142.715 Y125.114 E.92125
G1 X141.108 Y125.467 E.05159
G1 X139.53 Y125.585 E.04962
G1 X99.442 Y125.585 E1.25693
G1 X97.844 Y125.429 E.05034
G1 X96.495 Y125.049 E.04394
G1 X95.286 Y124.487 E.0418
G1 X79.221 Y114.781 E.5885
G1 X78.66 Y114.317 E.02283
G1 X77.963 Y112.636 E.05706
G1 X77.963 Y90.443 E.69585
G1 X78.66 Y88.762 E.05706
G1 X78.728 Y88.694 E.00302
M204 S1000
;WIPE_START
G1 F8640
G1 X80.332 Y87.958 E-.4075
G1 X82.03 Y87.873 E-.3925
;WIPE_END
G1 Z.6 F720
G1 X99.969 Y107.553 F10800
G1 Z.2 F720
G1 E.8 F2100
M204 S800
G1 F1200
G1 X100.702 Y106.817 E.03257
G1 X101.575 Y106.21 E.03334
G1 X102.403 Y105.822 E.02867
G1 X103.249 Y105.573 E.02765
G1 X104.361 Y105.445 E.0351
G1 X139.58 Y105.445 E1.10427
G1 X140.965 Y105.573 E.04361
G1 X141.878 Y105.783 E.02937
G1 X142.777 Y106.095 E.02984
G1 X143.565 Y106.463 E.02727
G1 X144.315 Y106.91 E.02738
G1 X145.162 Y107.551 E.0333
G1 X145.755 Y108.11 E.02555
G1 X146.284 Y108.711 E.0251
G1 X146.901 Y109.583 E.03349
G1 X147.315 Y110.331 E.02681
G1 X147.656 Y111.123 E.02704
G1 X147.918 Y111.946 E.02708
G1 X148.098 Y112.791 E.02709
G1 X148.192 Y113.629 E.02644
G1 X148.205 Y114.476 E.02656
G1 X148.125 Y115.388 E.0287
G1 X147.912 Y116.442 E.03372
G1 X147.561 Y117.487 E.03456
G1 X147.222 Y118.219 E.02529
G1 X146.816 Y118.918 E.02535
G1 X146.23 Y119.721 E.03117
G1 X145.494 Y120.514 E.03392
G1 X144.61 Y121.251 E.03609
G1 X143.831 Y121.755 E.02909
G1 X142.908 Y122.217 E.03236
G1 X141.71 Y122.629 E.03972
G1 X140.765 Y122.825 E.03026
G1 X139.783 Y122.916 E.03092
G1 X99.157 Y122.91 E1.2738
G1 X98.203 Y122.782 E.03018
G1 X97.291 Y122.506 E.02988
G1 X95.59 Y121.458 E.06264
G1 X94.888 Y120.715 E.03205
G1 X94.308 Y119.845 E.03278
G1 X93.776 Y118.429 E.04743
G1 X93.617 Y117.374 E.03345
G1 X93.661 Y116.277 E.03442
G1 X93.942 Y115.108 E.0377
G1 X94.287 Y114.319 E.027
G1 X94.753 Y113.573 E.02758
G1 X95.648 Y112.615 E.04111
G1 X96.698 Y111.893 E.03995
G1 X97.8 Y111.44 E.03736
G1 X98.627 Y111.276 E.02643
G1 X98.627 Y110.851 E.01333
G1 X98.897 Y109.488 E.04357
G1 X99.372 Y108.414 E.03682
G1 X99.934 Y107.602 E.03096
M204 S1000
G1 X100.244 Y107.817 F10800
M204 S800
G1 F1200
G1 X100.956 Y107.097 E.03175
G1 X101.776 Y106.529 E.03128
G1 X102.549 Y106.171 E.02671
G1 X103.339 Y105.94 E.02581
G1 X104.372 Y105.822 E.0326
G1 X139.572 Y105.822 E1.10367
G1 X140.893 Y105.943 E.04159
G1 X141.784 Y106.148 E.02867
G1 X142.644 Y106.447 E.02855
G1 X143.396 Y106.8 E.02605
G1 X144.113 Y107.229 E.0262
G1 X144.911 Y107.833 E.03138
G1 X145.478 Y108.367 E.02442
G1 X145.995 Y108.953 E.0245
G1 X146.576 Y109.775 E.03156
G1 X146.972 Y110.489 E.0256
G1 X147.3 Y111.247 E.0259
G1 X147.552 Y112.034 E.02591
G1 X147.724 Y112.843 E.02593
G1 X147.815 Y113.645 E.02531
G1 X147.828 Y114.454 E.02537
G1 X147.754 Y115.324 E.02738
G1 X147.545 Y116.356 E.03301
G1 X147.215 Y117.338 E.03248
G1 X146.891 Y118.038 E.02419
G1 X146.495 Y118.72 E.02473
G1 X145.946 Y119.472 E.02919
G1 X145.226 Y120.249 E.03321
G1 X144.396 Y120.94 E.03386
G1 X143.653 Y121.422 E.02777
G1 X142.751 Y121.874 E.03163
G1 X141.599 Y122.269 E.03818
G1 X140.7 Y122.453 E.02877
G1 X139.775 Y122.539 E.02913
G1 X99.194 Y122.535 E1.27239
G1 X98.298 Y122.417 E.02834
G1 X97.423 Y122.152 E.02867
G1 X95.847 Y121.181 E.05804
G1 X95.174 Y120.468 E.03074
G1 X94.635 Y119.655 E.03058
G1 X94.137 Y118.317 E.04476
G1 X93.993 Y117.337 E.03106
G1 X94.032 Y116.347 E.03106
G1 X94.294 Y115.243 E.03558
G1 X94.627 Y114.483 E.02602
G1 X95.062 Y113.789 E.02568
G1 X95.908 Y112.888 E.03875
G1 X96.894 Y112.216 E.03741
G1 X97.924 Y111.796 E.03488
G1 X99.01 Y111.587 E.03468
G1 X99.001 Y110.903 E.02145
G1 X99.251 Y109.621 E.04095
G1 X99.709 Y108.584 E.03554
G1 X100.209 Y107.867 E.02741
M204 S1000
G1 X100.518 Y108.083 F10800
M204 S800
G1 F1200
G1 X100.567 Y108.013 E.00268
G1 X101.209 Y107.377 E.02833
G1 X101.976 Y106.849 E.0292
G1 X102.693 Y106.519 E.02475
G1 X103.428 Y106.306 E.02399
G1 X104.382 Y106.199 E.0301
G1 X139.563 Y106.199 E1.10308
G1 X140.821 Y106.313 E.03961
G1 X141.67 Y106.508 E.02731
G1 X142.51 Y106.8 E.02788
G1 X143.227 Y107.137 E.02484
G1 X143.91 Y107.547 E.02498
G1 X144.659 Y108.114 E.02945
G1 X145.213 Y108.635 E.02384
G1 X145.705 Y109.194 E.02335
G1 X146.251 Y109.967 E.02967
G1 X146.638 Y110.664 E.025
G1 X146.95 Y111.388 E.02472
G1 X147.185 Y112.122 E.02416
G1 X147.351 Y112.895 E.02479
G1 X147.438 Y113.66 E.02414
G1 X147.451 Y114.432 E.02421
G1 X147.382 Y115.26 E.02605
G1 X147.178 Y116.27 E.03231
G1 X146.868 Y117.189 E.03041
G1 X146.553 Y117.871 E.02355
G1 X146.174 Y118.522 E.02362
G1 X145.662 Y119.224 E.02724
G1 X144.957 Y119.983 E.03248
G1 X144.181 Y120.631 E.0317
G1 X143.474 Y121.09 E.02643
G1 X142.593 Y121.531 E.03089
G1 X141.489 Y121.908 E.03658
G1 X140.635 Y122.082 E.02733
G1 X139.766 Y122.162 E.02736
G1 X99.23 Y122.159 E1.27098
G1 X98.362 Y122.045 E.02745
G1 X97.557 Y121.799 E.02639
G1 X96.103 Y120.904 E.05353
G1 X95.479 Y120.246 E.02843
G1 X94.961 Y119.466 E.02936
G1 X94.498 Y118.206 E.04209
G1 X94.37 Y117.333 E.02766
G1 X94.403 Y116.415 E.0288
G1 X94.647 Y115.378 E.0334
G1 X94.954 Y114.671 E.02417
G1 X95.372 Y114.006 E.02463
G1 X96.168 Y113.163 E.03635
G1 X97.088 Y112.54 E.03484
G1 X98.047 Y112.153 E.03242
G1 X99.034 Y111.967 E.03149
G1 X99.396 Y111.958 E.01135
G1 X99.376 Y110.953 E.03152
G1 X99.604 Y109.753 E.0383
G1 X100.047 Y108.754 E.03426
G1 X100.483 Y108.132 E.02382
M204 S1000
G1 X100.79 Y108.35 F10800
M204 S800
G1 F1200
G1 X100.864 Y108.245 E.00403
G1 X101.461 Y107.658 E.02625
G1 X102.175 Y107.17 E.02712
G1 X102.837 Y106.868 E.02281
G1 X103.516 Y106.673 E.02215
G1 X104.392 Y106.576 E.02763
G1 X139.555 Y106.576 E1.10251
G1 X140.75 Y106.684 E.03762
G1 X141.575 Y106.873 E.02654
G1 X142.377 Y107.153 E.02663
G1 X143.057 Y107.474 E.02358
G1 X143.708 Y107.865 E.02381
G1 X144.409 Y108.396 E.02757
G1 X144.936 Y108.891 E.02267
G1 X145.415 Y109.436 E.02275
G1 X145.927 Y110.159 E.02778
G1 X146.296 Y110.822 E.02379
G1 X146.594 Y111.512 E.02357
G1 X146.818 Y112.211 E.02301
G1 X146.977 Y112.948 E.02364
G1 X147.061 Y113.677 E.02301
G1 X147.075 Y114.411 E.02302
G1 X147.01 Y115.196 E.0247
G1 X146.81 Y116.183 E.03158
G1 X146.521 Y117.041 E.02839
G1 X146.222 Y117.689 E.02238
G1 X145.853 Y118.324 E.02303
G1 X145.378 Y118.976 E.02529
G1 X144.689 Y119.718 E.03175
G1 X143.965 Y120.321 E.02954
G1 X143.296 Y120.758 E.02505
G1 X142.436 Y121.188 E.03015
G1 X141.38 Y121.547 E.03497
G1 X140.59 Y121.707 E.02527
G1 X139.757 Y121.785 E.02623
G1 X99.266 Y121.784 E1.26957
G1 X98.457 Y121.68 E.02557
G1 X97.69 Y121.445 E.02515
G1 X96.36 Y120.627 E.04896
G1 X95.764 Y119.998 E.02717
G1 X95.289 Y119.277 E.02707
G1 X94.859 Y118.096 E.03941
G1 X94.746 Y117.297 E.0253
G1 X94.774 Y116.482 E.02557
G1 X95 Y115.512 E.03123
G1 X95.294 Y114.835 E.02314
G1 X95.68 Y114.223 E.02269
G1 X96.426 Y113.438 E.03395
G1 X97.281 Y112.864 E.03229
G1 X98.135 Y112.52 E.02887
G1 X99.086 Y112.341 E.03034
G1 X99.864 Y112.333 E.02439
G1 X99.772 Y111.862 E.01505
G1 X99.75 Y111.002 E.02697
G1 X99.958 Y109.886 E.03559
G1 X100.384 Y108.924 E.03299
G1 X100.756 Y108.399 E.02017
M204 S1000
G1 X101.062 Y108.614 F10800
M204 S800
G1 F1200
G1 X101.142 Y108.501 E.00434
G1 X101.689 Y107.959 E.02414
G1 X102.348 Y107.506 E.02507
G1 X102.955 Y107.227 E.02095
G1 X103.605 Y107.04 E.02121
G1 X104.403 Y106.953 E.02517
G1 X139.547 Y106.953 E1.10192
G1 X140.678 Y107.054 E.0356
G1 X141.48 Y107.238 E.0258
G1 X142.242 Y107.505 E.02532
G1 X142.887 Y107.811 E.02238
G1 X143.504 Y108.183 E.02259
G1 X144.158 Y108.678 E.02572
G1 X144.671 Y109.159 E.02205
G1 X145.126 Y109.677 E.02162
G1 X145.603 Y110.351 E.02589
G1 X145.953 Y110.981 E.0226
G1 X146.238 Y111.636 E.0224
G1 X146.452 Y112.301 E.0219
G1 X146.604 Y113.001 E.02246
G1 X146.685 Y113.693 E.02185
G1 X146.698 Y114.39 E.02186
G1 X146.638 Y115.132 E.02334
G1 X146.443 Y116.097 E.03087
G1 X146.175 Y116.892 E.0263
G1 X145.891 Y117.508 E.02127
G1 X145.542 Y118.11 E.02182
G1 X145.094 Y118.728 E.02393
G1 X144.421 Y119.453 E.03102
G1 X143.75 Y120.011 E.02736
G1 X143.117 Y120.425 E.02372
G1 X142.279 Y120.846 E.0294
G1 X141.292 Y121.18 E.03267
G1 X140.544 Y121.333 E.02394
G1 X139.748 Y121.408 E.02507
G1 X99.301 Y121.408 E1.26819
G1 X98.552 Y121.315 E.02366
G1 X97.824 Y121.092 E.02387
G1 X96.616 Y120.348 E.04448
G1 X96.069 Y119.776 E.02482
G1 X95.616 Y119.089 E.0258
G1 X95.221 Y117.988 E.03668
G1 X95.121 Y117.262 E.02298
G1 X95.146 Y116.548 E.0224
G1 X95.353 Y115.645 E.02905
G1 X95.621 Y115.024 E.02121
G1 X95.989 Y114.441 E.02162
G1 X96.684 Y113.714 E.03153
G1 X97.442 Y113.206 E.02861
G1 X98.224 Y112.887 E.02648
G1 X99.139 Y112.715 E.02919
G1 X100.33 Y112.71 E.03734
G1 X100.148 Y111.833 E.02808
G1 X100.124 Y111.05 E.02456
G1 X100.325 Y109.976 E.03426
G1 X100.703 Y109.125 E.0292
G1 X101.028 Y108.663 E.01771
M204 S1000
G1 X101.335 Y108.878 F10800
M204 S800
G1 F1200
G1 X101.421 Y108.755 E.00471
G1 X101.918 Y108.258 E.02204
G1 X102.52 Y107.841 E.02296
G1 X103.099 Y107.575 E.01998
G1 X103.691 Y107.407 E.01929
G1 X104.412 Y107.33 E.02274
G1 X139.538 Y107.331 E1.10135
G1 X140.607 Y107.425 E.03365
G1 X141.366 Y107.598 E.02441
G1 X142.108 Y107.858 E.02465
G1 X142.716 Y108.147 E.02111
G1 X143.301 Y108.5 E.02142
G1 X143.907 Y108.959 E.02384
G1 X144.394 Y109.415 E.02092
G1 X144.836 Y109.919 E.02102
G1 X145.278 Y110.544 E.024
G1 X145.612 Y111.14 E.02142
G1 X145.882 Y111.761 E.02123
G1 X146.086 Y112.39 E.02073
G1 X146.231 Y113.054 E.02131
G1 X146.308 Y113.71 E.02071
G1 X146.322 Y114.37 E.0207
G1 X146.266 Y115.069 E.02199
G1 X146.076 Y116.01 E.0301
G1 X145.828 Y116.744 E.02429
G1 X145.561 Y117.327 E.02011
G1 X145.23 Y117.898 E.02069
G1 X144.809 Y118.48 E.02252
G1 X144.153 Y119.187 E.03024
G1 X143.534 Y119.702 E.02525
G1 X142.938 Y120.093 E.02235
G1 X142.121 Y120.503 E.02866
G1 X141.205 Y120.813 E.03032
G1 X140.498 Y120.959 E.02264
G1 X139.739 Y121.031 E.0239
G1 X99.336 Y121.032 E1.26681
G1 X98.615 Y120.942 E.02278
G1 X97.958 Y120.739 E.02156
G1 X96.871 Y120.07 E.04002
G1 X96.354 Y119.529 E.02346
G1 X95.944 Y118.902 E.02349
G1 X95.583 Y117.881 E.03395
G1 X95.499 Y117.258 E.01971
G1 X95.518 Y116.613 E.02023
G1 X95.706 Y115.778 E.02684
G1 X95.961 Y115.187 E.02018
G1 X96.297 Y114.659 E.01962
G1 X96.942 Y113.99 E.02914
G1 X97.603 Y113.547 E.02495
G1 X98.313 Y113.254 E.02408
G1 X99.191 Y113.089 E.02801
G1 X100.915 Y113.087 E.05405
G1 X100.661 Y112.449 E.02153
G1 X100.524 Y111.802 E.02074
G1 X100.499 Y111.099 E.02206
G1 X100.691 Y110.068 E.03288
G1 X101.022 Y109.326 E.02547
G1 X101.301 Y108.927 E.01527
M204 S1000
G1 X101.609 Y109.143 F10800
M204 S800
G1 F1200
G1 X101.719 Y108.986 E.00601
G1 X102.147 Y108.558 E.01898
G1 X102.695 Y108.176 E.02094
G1 X103.216 Y107.934 E.01801
G1 X103.778 Y107.775 E.01831
G1 X104.422 Y107.707 E.0203
G1 X139.53 Y107.708 E1.10079
G1 X140.536 Y107.795 E.03166
G1 X141.271 Y107.963 E.02364
G1 X141.973 Y108.21 E.02333
G1 X142.545 Y108.483 E.01987
G1 X143.097 Y108.818 E.02025
G1 X143.657 Y109.242 E.02202
G1 X144.117 Y109.671 E.01972
G1 X144.546 Y110.16 E.0204
G1 X144.954 Y110.738 E.02218
M73 P1 R98
G1 X145.27 Y111.3 E.02022
G1 X145.526 Y111.887 E.02008
G1 X145.719 Y112.481 E.01958
G1 X145.857 Y113.108 E.02013
G1 X145.931 Y113.728 E.01958
G1 X145.945 Y114.351 E.01954
G1 X145.894 Y115.006 E.0206
G1 X145.709 Y115.924 E.02936
M73 Q1 S99
G1 X145.481 Y116.596 E.02225
G1 X145.229 Y117.146 E.01897
G1 X144.918 Y117.685 E.01951
G1 X144.525 Y118.232 E.02112
G1 X143.885 Y118.922 E.02951
G1 X143.317 Y119.393 E.02314
G1 X142.759 Y119.761 E.02096
G1 X141.964 Y120.16 E.02789
G1 X141.117 Y120.446 E.02803
G1 X140.451 Y120.584 E.02133
G1 X139.73 Y120.654 E.02271
G1 X99.37 Y120.657 E1.26546
G1 X98.71 Y120.577 E.02085
G1 X98.092 Y120.385 E.02029
G1 X97.127 Y119.792 E.03551
G1 X96.639 Y119.281 E.02215
G1 X96.273 Y118.717 E.02108
G1 X95.945 Y117.776 E.03125
G1 X95.875 Y117.225 E.01742
G1 X95.89 Y116.676 E.01722
G1 X96.06 Y115.91 E.0246
G1 X96.288 Y115.376 E.01821
G1 X96.605 Y114.878 E.01851
G1 X97.17 Y114.291 E.02555
G1 X97.765 Y113.888 E.02253
G1 X98.439 Y113.61 E.02286
G1 X99.209 Y113.466 E.02456
G1 X101.58 Y113.463 E.07434
G1 X101.276 Y112.968 E.01821
G1 X101.026 Y112.354 E.02079
G1 X100.897 Y111.741 E.01964
G1 X100.877 Y111.108 E.01986
G1 X101.057 Y110.161 E.03022
G1 X101.358 Y109.499 E.0228
G1 X101.574 Y109.192 E.01177
M204 S1000
G1 X101.882 Y109.409 F10800
M204 S800
G1 F1200
G1 X102.018 Y109.217 E.00738
G1 X102.401 Y108.838 E.01689
G1 X102.868 Y108.511 E.01788
G1 X103.361 Y108.283 E.01703
G1 X103.864 Y108.142 E.01638
G1 X104.431 Y108.084 E.01787
G1 X139.522 Y108.085 E1.10025
G1 X140.464 Y108.166 E.02964
G1 X141.176 Y108.328 E.02289
G1 X141.837 Y108.562 E.02199
G1 X142.374 Y108.819 E.01867
G1 X142.893 Y109.135 E.01905
G1 X143.407 Y109.524 E.02021
G1 X143.84 Y109.927 E.01855
G1 X144.256 Y110.401 E.01977
G1 X144.631 Y110.931 E.02036
G1 X144.928 Y111.46 E.01902
G1 X145.171 Y112.013 E.01894
G1 X145.353 Y112.571 E.0184
G1 X145.484 Y113.163 E.01901
G1 X145.554 Y113.746 E.01841
G1 X145.568 Y114.332 E.01838
G1 X145.523 Y114.943 E.01921
G1 X145.341 Y115.837 E.02861
G1 X145.134 Y116.448 E.02023
G1 X144.89 Y116.981 E.01838
G1 X144.597 Y117.488 E.01836
G1 X144.24 Y117.984 E.01916
G1 X143.617 Y118.656 E.02873
G1 X143.101 Y119.084 E.02102
G1 X142.58 Y119.429 E.01959
G1 X141.807 Y119.817 E.02712
G1 X141.028 Y120.079 E.02577
G1 X140.404 Y120.21 E.01999
G1 X139.721 Y120.277 E.02152
G1 X99.402 Y120.281 E1.26417
G1 X98.805 Y120.212 E.01884
G1 X98.227 Y120.032 E.01898
G1 X97.382 Y119.513 E.03109
G1 X96.946 Y119.061 E.01969
G1 X96.603 Y118.531 E.01979
G1 X96.309 Y117.674 E.02841
G1 X96.251 Y117.195 E.01513
G1 X96.266 Y116.706 E.01534
G1 X96.414 Y116.042 E.02133
G1 X96.628 Y115.539 E.01714
G1 X96.912 Y115.097 E.01647
G1 X97.399 Y114.591 E.02202
G1 X97.929 Y114.228 E.02014
G1 X98.53 Y113.977 E.02042
G1 X99.227 Y113.843 E.02225
G1 X102.402 Y113.839 E.09955
G1 X101.883 Y113.229 E.02511
G1 X101.619 Y112.809 E.01555
G1 X101.382 Y112.228 E.01967
G1 X101.273 Y111.709 E.01663
G1 X101.251 Y111.155 E.01738
G1 X101.411 Y110.294 E.02746
G1 X101.677 Y109.701 E.02038
G1 X101.848 Y109.459 E.00929
M204 S1000
G1 X102.156 Y109.676 F10800
M204 S800
G1 F1200
G1 X102.316 Y109.448 E.00873
