; generated by PrusaSlicer 2.6.1+linux-x64-GTK3 on 2023-09-18 at 13:14:55 UTC


;
;
; 

; external perimeters extrusion width = 0.45mm
; perimeters extrusion width = 0.45mm
; infill extrusion width = 0.45mm
; solid infill extrusion width = 0.45mm
; top infill extrusion width = 0.40mm
; first layer extrusion width = 0.42mm

M73 P0 R15
M73 Q0 S15
M201 X1000 Y1000 Z200 E5000 ; sets maximum accelerations, mm/sec^2
M203 X200 Y200 Z12 E120 ; sets maximum feedrates, mm / sec
M204 S1250 T1250 ; sets acceleration (S) and retract acceleration (R), mm/sec^2
M205 X8.00 Y8.00 Z0.40 E4.50 ; sets the jerk limits, mm/sec
M205 S0 T0 ; sets the minimum extruding and travel feed rate, mm/sec
;TYPE:Custom
M862.3 P "MK3S" ; printer model check
M862.1 P0.4 ; nozzle diameter check
M115 U3.13.0 ; tell printer latest fw version
G90 ; use absolute coordinates
M83 ; extruder relative mode
M104 S215 ; set extruder temp
M140 S60 ; set bed temp
M190 S60 ; wait for bed temp
M109 S215 ; wait for extruder temp
G28 W ; home all without mesh bed level
G80 ; mesh bed leveling

G1 Z0.2 F720
G1 Y-3 F1000 ; go outside print area
G92 E0
G1 X60 E9 F1000 ; intro line
G1 X100 E12.5 F1000 ; intro line

G92 E0
M221 S95

; Don't change E values below. Excessive value can damage the printer.

G21 ; set units to millimeters
G90 ; use absolute coordinates
M83 ; use relative distances for extrusion
M900 K0.05 ; Filament gcode LA 1.5
M900 K30 ; Filament gcode LA 1.0
M107
;LAYER_CHANGE
;Z:0.2
;HEIGHT:0.2
;BEFORE_LAYER_CHANGE
G92 E0.0
;0.2


G1 E-.8 F2100
G1 Z.4 F720
;AFTER_LAYER_CHANGE
;0.2
G1 X103.926 Y96.776 F10800
G1 Z.2 F720
G1 E.8 F2100
M204 S800
;TYPE:Skirt/Brim
;WIDTH:0.42
G1 F1200
G1 X104.623 Y96.132 E.02975
G1 X105.6 Y95.432 E.03768
G1 X106.735 Y94.837 E.04018
G1 X108.464 Y94.282 E.05694
G1 X110.153 Y94.096 E.05328
G1 X139.826 Y94.101 E.93038
G1 X141.501 Y94.28 E.05282
M73 Q1 S15
G1 X142.744 Y94.587 E.04014
G1 X144.008 Y95.066 E.04238
M73 P1 R15
G1 X144.858 Y95.49 E.02978
G1 X146.517 Y96.635 E.0632
G1 X147.214 Y97.279 E.02975
G1 X148.11 Y98.291 E.04238
G1 X148.838 Y99.345 E.04016
G1 X149.603 Y100.845 E.05279
G1 X149.921 Y101.74 E.02978
G1 X150.244 Y103.052 E.04237
G1 X150.399 Y104.324 E.04018
G1 X150.399 Y105.676 E.04239
G1 X150.304 Y106.62 E.02975
G1 X149.921 Y108.26 E.0528
G1 X149.466 Y109.458 E.04018
G1 X148.666 Y110.94 E.0528
G1 X148.11 Y111.709 E.02975
G1 X147.214 Y112.721 E.04238
G1 X146.255 Y113.57 E.04016
G1 X145.143 Y114.338 E.04237
G1 X144.008 Y114.934 E.0402
G1 X142.744 Y115.413 E.04238
G1 X141.828 Y115.66 E.02975
G1 X139.66 Y115.904 E.06841
G1 X107.715 Y115.865 E1.00161
G1 X106.066 Y115.57 E.05252
G1 X104.936 Y115.163 E.03766
G1 X104.086 Y114.74 E.02977
G1 X103.086 Y114.073 E.03769
G1 X102.127 Y113.224 E.04016
G1 X101.345 Y112.311 E.03769
G1 X100.822 Y111.519 E.02976
G1 X100.282 Y110.445 E.03769
G1 X99.964 Y109.551 E.02975
M73 Q1 S14
G1 X99.696 Y108.379 E.0377
G1 X99.601 Y106.565 E.05695
G1 X99.756 Y105.294 E.04015
G1 X100.282 Y103.555 E.05696
G1 X102.217 Y99.251 E.14796
M73 P1 R14
G1 X103.144 Y97.689 E.05695
G1 X103.887 Y96.822 E.0358
M204 S1000
G1 X104.173 Y97.067 F10800
M204 S800
G1 F1200
G1 X104.873 Y96.414 E.03002
G1 X105.815 Y95.743 E.03626
G1 X106.868 Y95.19 E.03729
G1 X108.555 Y94.648 E.05556
G1 X110.153 Y94.473 E.0504
G1 X139.804 Y94.477 E.92969
G1 X141.455 Y94.655 E.05207
G1 X142.611 Y94.939 E.03732
G1 X143.875 Y95.419 E.04239
G1 X144.683 Y95.823 E.02832
G1 X146.267 Y96.917 E.06036
G1 X146.932 Y97.529 E.02834
G1 X147.828 Y98.541 E.04238
G1 X148.504 Y99.52 E.0373
G1 X149.25 Y100.979 E.05138
G1 X149.554 Y101.83 E.02833
G1 X149.878 Y103.143 E.0424
G1 X150.021 Y104.324 E.0373
G1 X150.004 Y105.962 E.05136
G1 X149.878 Y106.857 E.02834
G1 X149.554 Y108.17 E.0424
G1 X149.132 Y109.283 E.03732
G1 X148.356 Y110.725 E.05134
G1 X147.828 Y111.459 E.02835
G1 X146.932 Y112.471 E.04238
G1 X146.041 Y113.26 E.03732
G1 X144.928 Y114.028 E.0424
G1 X143.875 Y114.581 E.03729
G1 X142.611 Y115.061 E.04239
G1 X141.737 Y115.294 E.02836
G1 X139.66 Y115.527 E.06553
G1 X107.76 Y115.491 E1.0002
G1 X106.157 Y115.204 E.05106
M73 P2 R14
M73 Q2 S14
G1 X105.069 Y114.81 E.03628
G1 X104.261 Y114.406 E.02832
G1 X103.3 Y113.763 E.03625
G1 X102.409 Y112.974 E.03732
G1 X101.655 Y112.097 E.03626
G1 X101.156 Y111.344 E.02832
G1 X100.634 Y110.312 E.03626
G1 X100.33 Y109.461 E.02833
G1 X100.07 Y108.334 E.03626
G1 X99.979 Y106.565 E.05554
G1 X100.122 Y105.384 E.0373
G1 X100.634 Y103.688 E.05555
G1 X102.551 Y99.427 E.1465
G1 X103.454 Y97.903 E.05554
G1 X104.133 Y97.113 E.03266
M204 S1000
;WIPE_START
G1 F8640
G1 X104.873 Y96.414 E-.23505
G1 X105.815 Y95.743 E-.26705
G1 X106.868 Y95.19 E-.27463
G1 X106.964 Y95.159 E-.02327
;WIPE_END
G1 Z.6 F720
G1 X106.155 Y98.85 F10800
G1 Z.2 F720
G1 E.8 F2100
M204 S800
G1 F1200
G1 X107.25 Y97.988 E.04369
G1 X108.878 Y97.316 E.05522
G1 X110.175 Y97.137 E.04105
G1 X139.654 Y97.137 E.92429
G1 X141.292 Y97.341 E.05176
G1 X142.839 Y97.87 E.05126
G1 X144.995 Y99.354 E.08207
G1 X145.998 Y100.548 E.04889
G1 X146.741 Y101.885 E.04796
G1 X147.35 Y104.305 E.07824
G1 X147.329 Y105.889 E.04967
G1 X146.99 Y107.457 E.0503
G1 X145.782 Y109.757 E.08146
G1 X144.745 Y110.872 E.04774
G1 X143.485 Y111.792 E.04892
G1 X141.426 Y112.624 E.06963
G1 X139.643 Y112.864 E.05641
G1 X108.136 Y112.847 E.98788
G1 X106.665 Y112.572 E.04692
G1 X105.713 Y112.159 E.03254
G1 X104.852 Y111.598 E.03222
G1 X103.54 Y110.132 E.06169
G1 X103.001 Y109.039 E.03821
G1 X102.725 Y108.031 E.03277
G1 X102.641 Y106.726 E.041
G1 X102.89 Y105.282 E.04594
G1 X103.681 Y103.66 E.05658
G1 X104.467 Y102.757 E.03754
G1 X104.492 Y102.174 E.0183
G1 X104.755 Y101.084 E.03516
G1 X105.324 Y99.897 E.04127
G1 X106.118 Y98.897 E.04004
M204 S1000
G1 X106.412 Y99.133 F10800
M204 S800
G1 F1200
G1 X107.461 Y98.301 E.04198
G1 X108.997 Y97.674 E.05202
G1 X110.187 Y97.514 E.03765
G1 X139.642 Y97.514 E.92354
G1 X141.188 Y97.705 E.04884
M73 Q3 S14
G1 X142.693 Y98.219 E.04986
G1 X144.723 Y99.616 E.07726
M73 P3 R14
G1 X145.677 Y100.748 E.04642
G1 X146.399 Y102.046 E.04657
G1 X146.978 Y104.372 E.07516
G1 X146.952 Y105.863 E.04676
G1 X146.627 Y107.352 E.04779
G1 X145.489 Y109.518 E.07672
G1 X144.482 Y110.602 E.04639
G1 X143.283 Y111.473 E.04647
G1 X141.308 Y112.265 E.06672
G1 X139.631 Y112.486 E.05304
G1 X108.187 Y112.473 E.9859
G1 X106.794 Y112.217 E.04441
G1 X105.905 Y111.834 E.03035
G1 X105.08 Y111.296 E.03088
G1 X103.839 Y109.901 E.05854
G1 X103.36 Y108.922 E.03417
G1 X103.1 Y107.987 E.03043
G1 X103.019 Y106.725 E.03965
G1 X103.257 Y105.374 E.04301
G1 X104.008 Y103.85 E.05327
G1 X104.839 Y102.905 E.03946
G1 X104.863 Y102.244 E.02074
G1 X105.117 Y101.192 E.03393
G1 X105.654 Y100.081 E.03869
G1 X106.375 Y99.18 E.03618
M204 S1000
G1 X106.668 Y99.416 F10800
M204 S800
G1 F1200
G1 X106.715 Y99.358 E.00234
G1 X107.671 Y98.616 E.03794
G1 X109.115 Y98.033 E.04883
G1 X110.199 Y97.891 E.03428
G1 X139.63 Y97.891 E.92279
G1 X141.122 Y98.076 E.04714
G1 X142.546 Y98.567 E.04723
G1 X144.451 Y99.879 E.07253
G1 X145.377 Y100.977 E.04504
G1 X146.057 Y102.207 E.04407
G1 X146.601 Y104.39 E.07054
G1 X146.576 Y105.837 E.04538
G1 X146.265 Y107.245 E.04521
G1 X145.196 Y109.28 E.07207
G1 X144.218 Y110.331 E.04501
G1 X143.081 Y111.153 E.04399
G1 X141.191 Y111.906 E.06379
G1 X139.619 Y112.109 E.0497
G1 X108.237 Y112.099 E.98396
G1 X106.923 Y111.862 E.04186
G1 X106.069 Y111.494 E.02916
G1 X105.308 Y110.995 E.02853
G1 X104.139 Y109.671 E.05538
G1 X103.718 Y108.803 E.03025
G1 X103.475 Y107.943 E.02802
G1 X103.397 Y106.724 E.0383
G1 X103.623 Y105.468 E.04001
G1 X104.334 Y104.041 E.04999
G1 X105.069 Y103.214 E.03469
G1 X105.211 Y103.099 E.00573
G1 X105.235 Y102.313 E.02466
G1 X105.479 Y101.301 E.03264
G1 X105.983 Y100.265 E.03612
G1 X106.63 Y99.463 E.03231
M204 S1000
G1 X106.922 Y99.7 F10800
M204 S800
G1 F1200
G1 X106.993 Y99.613 E.00352
G1 X107.879 Y98.931 E.03506
G1 X109.232 Y98.392 E.04566
G1 X110.211 Y98.268 E.03094
M73 Q4 S14
G1 X139.619 Y98.268 E.92207
G1 X141.055 Y98.448 E.04538
M73 P4 R14
G1 X142.398 Y98.914 E.04457
G1 X144.18 Y100.142 E.06786
G1 X145.056 Y101.176 E.04249
G1 X145.715 Y102.367 E.04268
G1 X146.229 Y104.455 E.06742
G1 X146.199 Y105.81 E.0425
G1 X145.902 Y107.139 E.0427
G1 X144.902 Y109.042 E.0674
G1 X143.982 Y110.037 E.04249
G1 X142.879 Y110.834 E.04267
G1 X141.075 Y111.547 E.06082
G1 X139.607 Y111.732 E.04639
G1 X108.254 Y111.722 E.98305
G1 X107.051 Y111.507 E.03832
G1 X106.262 Y111.169 E.02691
G1 X105.537 Y110.693 E.02719
G1 X104.44 Y109.442 E.05217
G1 X104.076 Y108.684 E.02636
G1 X103.85 Y107.898 E.02564
G1 X103.774 Y106.723 E.03692
G1 X103.988 Y105.564 E.03695
G1 X104.659 Y104.234 E.04671
G1 X105.336 Y103.481 E.03175
G1 X105.584 Y103.292 E.00978
G1 X105.606 Y102.381 E.02857
G1 X105.84 Y101.41 E.03132
G1 X106.311 Y100.452 E.03347
G1 X106.884 Y99.747 E.02849
M204 S1000
G1 X107.175 Y99.985 F10800
M204 S800
G1 F1200
G1 X107.27 Y99.87 E.00468
G1 X108.086 Y99.247 E.03219
G1 X109.347 Y98.752 E.04247
G1 X110.222 Y98.645 E.02764
G1 X139.607 Y98.645 E.92135
G1 X140.951 Y98.811 E.04246
G1 X142.25 Y99.262 E.04311
G1 X143.908 Y100.405 E.06314
G1 X144.756 Y101.405 E.04111
G1 X145.372 Y102.527 E.04013
G1 X145.851 Y104.472 E.06281
G1 X145.823 Y105.782 E.04108
G1 X145.54 Y107.031 E.04015
G1 X144.609 Y108.804 E.06279
G1 X143.718 Y109.766 E.04111
G1 X142.679 Y110.513 E.04012
G1 X140.96 Y111.187 E.05789
G1 X139.596 Y111.355 E.04309
G1 X108.302 Y111.348 E.9812
G1 X107.179 Y111.151 E.03575
M73 Q5 S14
G1 X106.426 Y110.83 E.02567
G1 X105.766 Y110.393 E.02482
G1 X104.768 Y109.255 E.04746
G1 X104.434 Y108.564 E.02406
G1 X104.219 Y107.814 E.02446
G1 X104.152 Y106.724 E.03424
G1 X104.354 Y105.661 E.03393
M73 P5 R14
G1 X104.956 Y104.467 E.04193
G1 X105.603 Y103.749 E.0303
G1 X105.957 Y103.486 E.01383
G1 X105.978 Y102.449 E.03252
G1 X106.202 Y101.519 E.02999
G1 X106.639 Y100.639 E.03081
G1 X107.137 Y100.032 E.02462
M204 S1000
G1 X107.427 Y100.272 F10800
M204 S800
G1 F1200
G1 X107.546 Y100.128 E.00586
G1 X108.292 Y99.564 E.02932
G1 X109.46 Y99.113 E.03926
G1 X110.232 Y99.022 E.02437
G1 X139.595 Y99.022 E.92066
G1 X140.884 Y99.182 E.04073
G1 X142.101 Y99.61 E.04045
G1 X143.637 Y100.668 E.05848
G1 X144.435 Y101.603 E.03854
G1 X145.03 Y102.687 E.03877
G1 X145.474 Y104.489 E.05819
G1 X145.451 Y105.718 E.03854
G1 X145.178 Y106.924 E.03877
G1 X144.315 Y108.567 E.05819
G1 X143.482 Y109.471 E.03854
G1 X142.478 Y110.193 E.03877
G1 X140.846 Y110.826 E.05488
G1 X139.585 Y110.978 E.03982
G1 X108.35 Y110.973 E.97935
G1 X107.305 Y110.795 E.03324
G1 X106.619 Y110.505 E.02335
G1 X105.995 Y110.092 E.02346
G1 X105.097 Y109.068 E.0427
G1 X104.781 Y108.415 E.02275
G1 X104.587 Y107.732 E.02226
G1 X104.53 Y106.727 E.03156
G1 X104.719 Y105.759 E.03092
G1 X105.253 Y104.701 E.03716
G1 X105.869 Y104.016 E.02888
G1 X106.392 Y103.638 E.02023
G1 X106.329 Y103.298 E.01084
G1 X106.354 Y102.482 E.0256
G1 X106.563 Y101.63 E.02751
G1 X106.966 Y100.829 E.02811
G1 X107.389 Y100.318 E.0208
M204 S1000
G1 X107.677 Y100.559 F10800
M204 S800
G1 F1200
G1 X107.82 Y100.387 E.00701
G1 X108.496 Y99.882 E.02646
G1 X109.57 Y99.474 E.03602
G1 X110.242 Y99.399 E.0212
G1 X139.584 Y99.399 E.92
G1 X140.816 Y99.554 E.03893
G1 X141.952 Y99.956 E.03778
G1 X143.366 Y100.932 E.05387
G1 X144.135 Y101.833 E.03714
G1 X144.687 Y102.846 E.03617
G1 X145.096 Y104.507 E.05364
G1 X145.074 Y105.691 E.03713
G1 X144.816 Y106.816 E.03619
G1 X144.02 Y108.33 E.05363
G1 X143.218 Y109.202 E.03715
G1 X142.279 Y109.872 E.03617
G1 X140.734 Y110.466 E.0519
G1 X139.575 Y110.601 E.03659
G1 X108.395 Y110.599 E.97763
G1 X107.43 Y110.439 E.03067
M73 P6 R14
M73 Q6 S14
G1 X106.809 Y110.179 E.02111
G1 X106.259 Y109.822 E.02056
G1 X105.424 Y108.879 E.03949
G1 X105.139 Y108.296 E.02035
G1 X104.955 Y107.649 E.02109
G1 X104.905 Y106.773 E.02751
G1 X105.068 Y105.902 E.02778
G1 X105.551 Y104.934 E.03392
G1 X106.135 Y104.285 E.02737
G1 X106.814 Y103.802 E.02613
G1 X106.707 Y103.284 E.01658
G1 X106.725 Y102.549 E.02305
G1 X106.909 Y101.78 E.02479
G1 X107.293 Y101.018 E.02675
G1 X107.638 Y100.605 E.01687
M204 S1000
G1 X107.925 Y100.847 F10800
M204 S800
G1 F1200
G1 X108.093 Y100.648 E.00817
G1 X108.698 Y100.202 E.02357
G1 X109.679 Y99.836 E.03283
G1 X110.251 Y99.776 E.01803
G1 X139.572 Y99.776 E.91934
G1 X140.71 Y99.916 E.03595
G1 X141.802 Y100.304 E.03634
G1 X143.096 Y101.196 E.04928
G1 X143.814 Y102.031 E.03453
G1 X144.345 Y103.005 E.03478
G1 X144.719 Y104.526 E.04911
G1 X144.702 Y105.626 E.03449
G1 X144.454 Y106.707 E.03477
G1 X143.726 Y108.094 E.04911
G1 X142.983 Y108.906 E.03451
G1 X142.08 Y109.551 E.03479
G1 X140.623 Y110.105 E.04887
G1 X139.564 Y110.224 E.03341
G1 X108.44 Y110.224 E.97587
G1 X107.553 Y110.082 E.02817
G1 X107 Y109.853 E.01877
G1 X106.486 Y109.52 E.0192
G1 X105.751 Y108.69 E.03476
G1 X105.485 Y108.146 E.01899
G1 X105.324 Y107.567 E.01884
G1 X105.28 Y106.817 E.02356
G1 X105.419 Y106.044 E.02463
G1 X105.849 Y105.166 E.03065
G1 X106.4 Y104.553 E.02584
G1 X106.916 Y104.192 E.01975
G1 X107.254 Y104.042 E.01159
G1 X107.084 Y103.267 E.02488
G1 X107.097 Y102.614 E.02048
G1 X107.257 Y101.929 E.02206
G1 X107.619 Y101.208 E.0253
G1 X107.886 Y100.893 E.01295
M204 S1000
G1 X108.17 Y101.137 F10800
M204 S800
G1 F1200
G1 X108.364 Y100.912 E.00931
G1 X108.898 Y100.522 E.02073
G1 X109.742 Y100.208 E.02824
G1 X110.261 Y100.153 E.01636
G1 X139.56 Y100.154 E.91865
G1 X140.642 Y100.288 E.03418
G1 X141.651 Y100.65 E.03361
G1 X142.826 Y101.46 E.04475
G1 X143.514 Y102.261 E.03311
G1 X144.001 Y103.163 E.03214
G1 X144.342 Y104.544 E.0446
G1 X144.325 Y105.6 E.03311
G1 X144.092 Y106.598 E.03213
G1 X143.431 Y107.857 E.04458
G1 X142.718 Y108.637 E.03313
G1 X141.882 Y109.229 E.03212
G1 X140.556 Y109.733 E.04448
G1 X139.554 Y109.847 E.03162
G1 X108.454 Y109.847 E.97512
G1 X107.676 Y109.725 E.02469
M73 P7 R14
M73 Q7 S14
G1 X107.161 Y109.512 E.01747
G1 X106.714 Y109.219 E.01676
G1 X106.078 Y108.5 E.0301
G1 X105.844 Y108.027 E.01655
G1 X105.693 Y107.486 E.01761
G1 X105.657 Y106.821 E.02088
G1 X105.784 Y106.14 E.02172
G1 X106.174 Y105.358 E.0274
G1 X106.634 Y104.85 E.02149
G1 X107.114 Y104.514 E.01837
G1 X107.743 Y104.248 E.02141
G1 X107.632 Y103.999 E.00855
G1 X107.461 Y103.249 E.02412
G1 X107.469 Y102.677 E.01794
G1 X107.604 Y102.077 E.01928
G1 X107.946 Y101.399 E.02381
G1 X108.131 Y101.183 E.00892
M204 S1000
G1 X108.412 Y101.429 F10800
M204 S800
G1 F1200
G1 X108.632 Y101.177 E.01049
G1 X109.097 Y100.843 E.01795
G1 X109.806 Y100.58 E.02371
G1 X110.272 Y100.53 E.01469
G1 X139.549 Y100.531 E.91796
G1 X140.535 Y100.65 E.03114
G1 X141.501 Y100.997 E.03218
G1 X142.557 Y101.725 E.04022
G1 X143.192 Y102.459 E.03043
G1 X143.658 Y103.321 E.03072
G1 X143.964 Y104.564 E.04014
G1 X143.953 Y105.535 E.03045
G1 X143.73 Y106.489 E.03072
G1 X143.135 Y107.622 E.04013
G1 X142.483 Y108.341 E.03043
G1 X141.684 Y108.908 E.03072
G1 X140.49 Y109.361 E.04004
G1 X139.543 Y109.47 E.02989
G1 X108.468 Y109.47 E.97433
G1 X107.797 Y109.367 E.02129
G1 X107.352 Y109.186 E.01506
G1 X106.942 Y108.917 E.01538
G1 X106.405 Y108.31 E.02541
G1 X106.19 Y107.877 E.01516
G1 X106.062 Y107.408 E.01524
G1 X106.035 Y106.827 E.01824
G1 X106.149 Y106.239 E.01878
G1 X106.498 Y105.553 E.02413
G1 X106.867 Y105.147 E.0172
G1 X107.313 Y104.835 E.01707
G1 X107.815 Y104.628 E.01703
G1 X108.334 Y104.537 E.01652
G1 X107.993 Y103.886 E.02304
G1 X107.834 Y103.189 E.02242
G1 X107.846 Y102.705 E.01518
G1 X107.952 Y102.225 E.01541
G1 X108.271 Y101.59 E.02228
G1 X108.373 Y101.474 E.00484
M204 S1000
G1 X108.651 Y101.723 F10800
M204 S800
G1 F1200
G1 X108.898 Y101.445 E.01166
G1 X109.294 Y101.166 E.01519
G1 X109.87 Y100.953 E.01926
G1 X110.282 Y100.907 E.013
G1 X139.538 Y100.908 E.9173
G1 X140.467 Y101.022 E.02935
G1 X141.349 Y101.343 E.02943
G1 X142.288 Y101.99 E.03575
G1 X142.893 Y102.69 E.02901
G1 X143.315 Y103.478 E.02803
G1 X143.587 Y104.584 E.03571
G1 X143.576 Y105.509 E.029
G1 X143.369 Y106.378 E.02801
G1 X142.84 Y107.387 E.03572
G1 X142.218 Y108.072 E.02901
G1 X141.487 Y108.585 E.028
G1 X140.423 Y108.989 E.03568
G1 X139.532 Y109.093 E.02813
G1 X108.482 Y109.093 E.97355
G1 X107.917 Y109.009 E.01791
M73 Q8 S13
G1 X107.512 Y108.844 E.01371
G1 X107.171 Y108.617 E.01284
G1 X106.731 Y108.12 E.02081
