; generated by PrusaSlicer 2.6.1+linux-x64-GTK3 on 2023-09-15 at 17:10:50 UTC


;
;
; 

; external perimeters extrusion width = 0.45mm
; perimeters extrusion width = 0.45mm
; infill extrusion width = 0.45mm
; solid infill extrusion width = 0.45mm
; top infill extrusion width = 0.40mm
; first layer extrusion width = 0.42mm

M73 P0 R93
M73 Q0 S94
M201 X1000 Y1000 Z200 E5000 ; sets maximum accelerations, mm/sec^2
M203 X200 Y200 Z12 E120 ; sets maximum feedrates, mm / sec
M204 S1250 T1250 ; sets acceleration (S) and retract acceleration (R), mm/sec^2
M205 X8.00 Y8.00 Z0.40 E4.50 ; sets the jerk limits, mm/sec
M205 S0 T0 ; sets the minimum extruding and travel feed rate, mm/sec
;TYPE:Custom
M862.3 P "MK3S" ; printer model check
M862.1 P0.4 ; nozzle diameter check
M115 U3.13.0 ; tell printer latest fw version
G90 ; use absolute coordinates
M83 ; extruder relative mode
M104 S215 ; set extruder temp
M140 S60 ; set bed temp
M190 S60 ; wait for bed temp
M109 S215 ; wait for extruder temp
G28 W ; home all without mesh bed level
G80 ; mesh bed leveling

G1 Z0.2 F720
G1 Y-3 F1000 ; go outside print area
G92 E0
G1 X60 E9 F1000 ; intro line
G1 X100 E12.5 F1000 ; intro line

G92 E0
M221 S95

; Don't change E values below. Excessive value can damage the printer.

G21 ; set units to millimeters
G90 ; use absolute coordinates
M83 ; use relative distances for extrusion
M900 K0.05 ; Filament gcode LA 1.5
M900 K30 ; Filament gcode LA 1.0
M107
;LAYER_CHANGE
;Z:0.2
;HEIGHT:0.2
;BEFORE_LAYER_CHANGE
G92 E0.0
;0.2


G1 E-.8 F2100
G1 Z.4 F720
;AFTER_LAYER_CHANGE
;0.2
G1 X97.517 Y86.632 F10800
G1 Z.2 F720
G1 E.8 F2100
M204 S800
;TYPE:Skirt/Brim
;WIDTH:0.42
G1 F1200
G1 X98.645 Y85.506 E.04997
G1 X99.808 Y84.727 E.04389
G1 X100.765 Y84.288 E.03301
G1 X101.931 Y83.948 E.03808
G1 X103.309 Y83.789 E.04349
G1 X146.628 Y83.788 E1.35824
G1 X148.074 Y83.949 E.04562
G1 X149.439 Y84.368 E.04477
G1 X150.521 Y84.918 E.03806
G1 X151.645 Y85.753 E.0439
G1 X152.484 Y86.633 E.03812
G1 X153.356 Y87.966 E.04994
G1 X153.882 Y89.264 E.04391
G1 X154.147 Y90.49 E.03933
G1 X154.212 Y91.361 E.02739
G1 X154.181 Y119.199 E.87284
G1 X153.927 Y120.582 E.04409
G1 X153.341 Y122.064 E.04997
G1 X152.483 Y123.368 E.04894
G1 X151.355 Y124.494 E.04997
G1 X150.192 Y125.273 E.04389
G1 X149.235 Y125.712 E.03301
G1 X148.069 Y126.052 E.03808
G1 X146.691 Y126.211 E.04349
G1 X103.318 Y126.211 E1.35993
G1 X101.575 Y125.97 E.05517
G1 X100.082 Y125.415 E.04994
G1 X98.632 Y124.483 E.05405
G1 X97.506 Y123.355 E.04997
G1 X96.727 Y122.191 E.04392
G1 X96.287 Y121.235 E.033
G1 X95.948 Y120.069 E.03807
G1 X95.797 Y118.895 E.03711
G1 X95.789 Y91.318 E.86466
G1 X96.03 Y89.575 E.05517
G1 X96.586 Y88.081 E.04998
G1 X97.485 Y86.682 E.05214
M204 S1000
;WIPE_START
G1 F8640
G1 X98.645 Y85.506 E-.38141
G1 X99.808 Y84.727 E-.32322
G1 X100.183 Y84.555 E-.09537
;WIPE_END
G1 Z.6 F720
G1 X99.609 Y88.384 F10800
G1 Z.2 F720
G1 E.8 F2100
M204 S800
G1 F1200
G1 X100.044 Y87.841 E.02181
G1 X100.727 Y87.275 E.02781
G1 X101.939 Y86.7 E.04206
G1 X103.319 Y86.451 E.04397
G1 X146.745 Y86.451 E1.36159
G1 X148.101 Y86.725 E.04338
G1 X148.659 Y86.931 E.01865
G1 X150.227 Y88.086 E.06106
G1 X150.74 Y88.766 E.02671
G1 X151.123 Y89.454 E.02469
G1 X151.549 Y91.252 E.05794
G1 X151.549 Y118.723 E.86133
G1 X151.354 Y119.872 E.03654
G1 X150.921 Y120.955 E.03657
G1 X149.956 Y122.159 E.04838
G1 X149.273 Y122.725 E.02781
G1 X148.061 Y123.3 E.04206
G1 X146.681 Y123.549 E.04397
G1 X103.277 Y123.549 E1.3609
G1 X102.128 Y123.354 E.03654
G1 X101.045 Y122.921 E.03657
G1 X99.841 Y121.956 E.04838
G1 X99.275 Y121.273 E.02781
G1 X98.7 Y120.061 E.04206
G1 X98.451 Y118.681 E.04397
G1 X98.451 Y91.277 E.85923
G1 X98.646 Y90.128 E.03654
G1 X99.079 Y89.045 E.03657
G1 X99.572 Y88.43 E.02471
M204 S1000
G1 X99.862 Y88.665 F10800
M204 S800
G1 F1200
G1 X100.324 Y88.094 E.02303
G1 X100.948 Y87.582 E.02531
G1 X102.076 Y87.052 E.03908
G1 X103.335 Y86.828 E.04009
G1 X146.726 Y86.828 E1.36049
G1 X148.01 Y87.091 E.04109
G1 X148.503 Y87.275 E.0165
G1 X149.943 Y88.334 E.05605
G1 X150.431 Y88.982 E.02543
G1 X150.781 Y89.614 E.02265
G1 X151.172 Y91.273 E.05344
G1 X151.172 Y118.707 E.86017
G1 X150.986 Y119.787 E.03436
G1 X150.582 Y120.787 E.03382
G1 X149.676 Y121.906 E.04514
G1 X149.052 Y122.418 E.02531
G1 X147.924 Y122.948 E.03908
G1 X146.665 Y123.172 E.04009
G1 X103.293 Y123.172 E1.3599
G1 X102.213 Y122.986 E.03436
G1 X101.213 Y122.582 E.03382
G1 X100.094 Y121.676 E.04514
G1 X99.582 Y121.052 E.02531
G1 X99.052 Y119.924 E.03908
G1 X98.828 Y118.665 E.04009
G1 X98.828 Y91.293 E.85823
G1 X99.014 Y90.213 E.03436
G1 X99.418 Y89.213 E.03382
G1 X99.824 Y88.712 E.02022
M204 S1000
G1 X100.112 Y88.948 F10800
M204 S800
G1 F1200
G1 X100.603 Y88.348 E.02431
G1 X101.167 Y87.89 E.02278
G1 X102.212 Y87.404 E.03614
G1 X103.351 Y87.205 E.03625
G1 X146.706 Y87.205 E1.35937
G1 X147.919 Y87.457 E.03884
G1 X148.345 Y87.618 E.01428
G1 X149.658 Y88.583 E.05109
G1 X150.122 Y89.198 E.02416
G1 X150.438 Y89.773 E.02057
G1 X150.795 Y91.295 E.04902
G1 X150.795 Y118.691 E.85898
G1 X150.618 Y119.702 E.03218
G1 X150.244 Y120.617 E.03099
G1 X149.397 Y121.652 E.04193
G1 X148.833 Y122.11 E.02278
G1 X147.788 Y122.596 E.03614
G1 X146.649 Y122.795 E.03625
G1 X103.309 Y122.795 E1.3589
G1 X102.298 Y122.618 E.03218
G1 X101.383 Y122.244 E.03099
G1 X100.348 Y121.397 E.04193
G1 X99.89 Y120.833 E.02278
G1 X99.404 Y119.788 E.03614
G1 X99.205 Y118.649 E.03625
G1 X99.205 Y91.309 E.85723
G1 X99.382 Y90.298 E.03218
G1 X99.756 Y89.383 E.03099
G1 X100.074 Y88.994 E.01575
M204 S1000
G1 X100.36 Y89.232 F10800
M204 S800
G1 F1200
G1 X100.881 Y88.604 E.02558
G1 X101.385 Y88.198 E.02029
G1 X102.302 Y87.771 E.03172
G1 X103.368 Y87.582 E.03394
G1 X146.686 Y87.582 E1.35821
G1 X147.825 Y87.823 E.0365
G1 X148.187 Y87.961 E.01215
G1 X149.374 Y88.832 E.04616
G1 X149.812 Y89.414 E.02284
G1 X150.095 Y89.931 E.01848
G1 X150.418 Y91.316 E.04459
G1 X150.418 Y118.674 E.85779
G1 X150.251 Y119.615 E.02997
G1 X149.907 Y120.446 E.0282
G1 X149.119 Y121.396 E.0387
G1 X148.615 Y121.802 E.02029
G1 X147.698 Y122.229 E.03172
G1 X146.632 Y122.418 E.03394
G1 X103.326 Y122.418 E1.35783
G1 X102.385 Y122.251 E.02997
G1 X101.554 Y121.907 E.0282
G1 X100.604 Y121.119 E.0387
G1 X100.198 Y120.615 E.02029
G1 X99.771 Y119.698 E.03172
G1 X99.582 Y118.632 E.03394
G1 X99.582 Y91.326 E.85616
G1 X99.749 Y90.385 E.02997
G1 X100.093 Y89.554 E.0282
G1 X100.322 Y89.278 E.01124
M204 S1000
G1 X100.606 Y89.517 F10800
M204 S800
G1 F1200
G1 X101.156 Y88.862 E.02682
G1 X101.601 Y88.508 E.01783
G1 X102.437 Y88.124 E.02885
G1 X103.384 Y87.959 E.03014
G1 X146.666 Y87.959 E1.35708
G1 X147.731 Y88.188 E.03416
M73 P0 R92
G1 X148.027 Y88.303 E.00996
G1 X149.089 Y89.081 E.04128
G1 X149.502 Y89.63 E.02154
G1 X149.751 Y90.088 E.01635
G1 X150.041 Y91.338 E.04023
G1 X150.041 Y118.657 E.85657
G1 X149.883 Y119.527 E.02772
G1 X149.571 Y120.273 E.02535
G1 X148.844 Y121.138 E.03543
G1 X148.399 Y121.492 E.01783
G1 X147.563 Y121.876 E.02885
G1 X146.616 Y122.041 E.03014
G1 X103.343 Y122.041 E1.35679
G1 X102.473 Y121.883 E.02772
M73 P1 R92
M73 Q1 S94
G1 X101.727 Y121.571 E.02535
G1 X100.862 Y120.844 E.03543
G1 X100.508 Y120.399 E.01783
G1 X100.124 Y119.563 E.02885
G1 X99.959 Y118.616 E.03014
G1 X99.959 Y91.343 E.85513
G1 X100.117 Y90.473 E.02772
G1 X100.429 Y89.727 E.02535
G1 X100.568 Y89.562 E.00676
M204 S1000
G1 X100.849 Y89.803 F10800
M204 S800
G1 F1200
G1 X101.43 Y89.122 E.02807
G1 X101.815 Y88.819 E.01536
G1 X102.569 Y88.478 E.02595
G1 X103.399 Y88.336 E.0264
G1 X146.645 Y88.337 E1.35595
G1 X147.634 Y88.553 E.03174
M73 Q1 S93
G1 X147.864 Y88.644 E.00776
G1 X148.841 Y89.367 E.03811
G1 X149.19 Y89.841 E.01846
G1 X149.407 Y90.244 E.01435
G1 X149.664 Y91.359 E.03588
G1 X149.664 Y118.639 E.85535
G1 X149.517 Y119.437 E.02544
G1 X149.236 Y120.098 E.02252
G1 X148.57 Y120.878 E.03216
G1 X148.185 Y121.181 E.01536
G1 X147.431 Y121.522 E.02595
G1 X146.601 Y121.664 E.0264
G1 X103.361 Y121.664 E1.35576
G1 X102.562 Y121.517 E.02547
G1 X101.902 Y121.235 E.0225
G1 X101.122 Y120.57 E.03214
G1 X100.819 Y120.185 E.01536
G1 X100.478 Y119.431 E.02595
G1 X100.336 Y118.601 E.0264
G1 X100.336 Y91.361 E.85409
G1 X100.483 Y90.563 E.02544
G1 X100.764 Y89.902 E.02252
G1 X100.81 Y89.848 E.00222
M204 S1000
G1 X101.098 Y90.08 F10800
M204 S800
G1 F1200
G1 X101.702 Y89.384 E.02889
G1 X102.027 Y89.132 E.01289
G1 X102.7 Y88.832 E.0231
G1 X103.415 Y88.713 E.02273
G1 X146.624 Y88.714 E1.35479
G1 X147.535 Y88.917 E.02926
G1 X147.699 Y88.984 E.00555
G1 X148.554 Y89.613 E.03328
G1 X148.878 Y90.053 E.01713
G1 X149.062 Y90.399 E.01229
G1 X149.287 Y91.38 E.03156
G1 X149.287 Y118.621 E.85412
G1 X149.15 Y119.346 E.02313
G1 X148.902 Y119.92 E.01961
G1 X148.298 Y120.616 E.02889
G1 X147.973 Y120.868 E.01289
G1 X147.3 Y121.168 E.0231
G1 X146.585 Y121.287 E.02273
G1 X103.379 Y121.287 E1.35469
G1 X102.654 Y121.15 E.02313
G1 X102.08 Y120.902 E.01961
G1 X101.384 Y120.298 E.02889
G1 X101.132 Y119.973 E.01289
G1 X100.832 Y119.3 E.0231
G1 X100.713 Y118.585 E.02273
G1 X100.713 Y91.379 E.85303
G1 X100.85 Y90.654 E.02313
G1 X101.075 Y90.135 E.01774
M204 S1000
G1 X101.419 Y90.287 F10800
M204 S800
G1 F1200
G1 X101.971 Y89.649 E.02645
G1 X102.238 Y89.445 E.01054
G1 X102.787 Y89.2 E.01885
G1 X103.431 Y89.091 E.02048
G1 X146.602 Y89.091 E1.3536
G1 X147.433 Y89.281 E.02673
G1 X147.532 Y89.322 E.00336
G1 X148.268 Y89.86 E.02858
G1 X148.566 Y90.265 E.01577
G1 X148.717 Y90.553 E.0102
G1 X148.909 Y91.401 E.02726
G1 X148.909 Y118.603 E.8529
G1 X148.784 Y119.253 E.02075
G1 X148.569 Y119.74 E.01669
G1 X148.029 Y120.351 E.02557
G1 X147.762 Y120.555 E.01054
G1 X147.213 Y120.8 E.01885
G1 X146.569 Y120.909 E.02048
G1 X103.397 Y120.909 E1.35363
G1 X102.747 Y120.784 E.02075
G1 X102.26 Y120.569 E.01669
G1 X101.649 Y120.029 E.02557
G1 X101.445 Y119.762 E.01054
G1 X101.2 Y119.213 E.01885
G1 X101.091 Y118.569 E.02048
G1 X101.091 Y91.397 E.85196
G1 X101.216 Y90.747 E.02075
G1 X101.395 Y90.341 E.01391
M204 S1000
G1 X101.738 Y90.496 F10800
M204 S800
G1 F1200
G1 X101.761 Y90.443 E.00181
G1 X102.237 Y89.916 E.02227
G1 X102.445 Y89.761 E.00813
G1 X102.915 Y89.555 E.01609
G1 X103.446 Y89.468 E.01687
G1 X146.58 Y89.468 E1.35244
G1 X147.358 Y89.657 E.0251
G1 X147.982 Y90.108 E.02414
G1 X148.253 Y90.476 E.01433
G1 X148.371 Y90.704 E.00805
G1 X148.532 Y91.422 E.02307
G1 X148.532 Y118.584 E.85165
G1 X148.419 Y119.157 E.01831
G1 X148.239 Y119.557 E.01375
G1 X147.763 Y120.084 E.02227
G1 X147.555 Y120.239 E.00813
G1 X147.085 Y120.445 E.01609
G1 X146.554 Y120.532 E.01687
G1 X103.416 Y120.532 E1.35256
G1 X102.843 Y120.419 E.01831
G1 X102.443 Y120.239 E.01375
G1 X101.916 Y119.763 E.02227
G1 X101.761 Y119.555 E.00813
G1 X101.555 Y119.085 E.01609
G1 X101.468 Y118.554 E.01687
G1 X101.468 Y91.416 E.85089
G1 X101.581 Y90.843 E.01831
G1 X101.713 Y90.551 E.01005
M204 S1000
G1 X102.053 Y90.709 F10800
M204 S800
G1 F1200
G1 X102.09 Y90.63 E.00274
G1 X102.5 Y90.187 E.01893
G1 X102.648 Y90.079 E.00574
G1 X103.041 Y89.912 E.01339
G1 X103.46 Y89.845 E.0133
G1 X146.557 Y89.845 E1.35128
G1 X147.185 Y89.997 E.02026
G1 X147.697 Y90.357 E.01962
G1 X147.939 Y90.687 E.01283
G1 X148.024 Y90.853 E.00585
G1 X148.155 Y91.442 E.01892
G1 X148.155 Y118.564 E.85039
G1 X148.054 Y119.059 E.01584
G1 X147.91 Y119.37 E.01075
G1 X147.5 Y119.813 E.01893
G1 X147.352 Y119.921 E.00574
G1 X146.959 Y120.088 E.01339
G1 X146.54 Y120.155 E.0133
G1 X103.436 Y120.155 E1.3515
G1 X102.941 Y120.054 E.01584
G1 X102.63 Y119.91 E.01075
G1 X102.187 Y119.5 E.01893
G1 X102.079 Y119.352 E.00574
G1 X101.912 Y118.96 E.01336
G1 X101.845 Y118.54 E.01334
G1 X101.845 Y91.436 E.84983
G1 X101.946 Y90.941 E.01584
G1 X102.028 Y90.763 E.00614
M204 S1000
G1 X102.366 Y90.926 F10800
M204 S800
G1 F1200
G1 X102.416 Y90.822 E.00362
G1 X102.758 Y90.462 E.01557
G1 X102.848 Y90.399 E.00344
G1 X103.125 Y90.28 E.00945
G1 X103.476 Y90.222 E.01115
G1 X146.537 Y90.222 E1.35015
G1 X147.005 Y90.329 E.01505
G1 X147.413 Y90.607 E.01548
G1 X147.625 Y90.896 E.01124
G1 X147.675 Y90.998 E.00356
G1 X147.778 Y91.463 E.01493
G1 X147.778 Y118.544 E.84911
G1 X147.691 Y118.957 E.01323
G1 X147.584 Y119.178 E.0077
G1 X147.242 Y119.538 E.01557
G1 X147.152 Y119.601 E.00344
G1 X146.875 Y119.72 E.00945
G1 X146.524 Y119.778 E.01115
G1 X103.456 Y119.778 E1.35037
G1 X103.043 Y119.691 E.01323
G1 X102.822 Y119.584 E.0077
G1 X102.462 Y119.242 E.01557
G1 X102.399 Y119.152 E.00344
G1 X102.28 Y118.875 E.00945
G1 X102.222 Y118.524 E.01115
G1 X102.222 Y91.456 E.8487
G1 X102.309 Y91.043 E.01323
G1 X102.34 Y90.98 E.0022
M204 S1000
G1 X102.673 Y91.148 F10800
M204 S800
G1 F1200
G1 X102.737 Y91.021 E.00446
G1 X103.01 Y90.743 E.01222
G1 X103.248 Y90.637 E.00817
G1 X103.49 Y90.599 E.00768
G1 X146.519 Y90.599 E1.34914
G1 X146.832 Y90.666 E.01004
G1 X147.13 Y90.86 E.01115
G1 X147.308 Y91.102 E.00942
G1 X147.401 Y91.483 E.0123
G1 X147.401 Y118.522 E.84779
G1 X147.328 Y118.849 E.01051
G1 X147.263 Y118.979 E.00456
G1 X146.961 Y119.275 E.01326
G1 X146.752 Y119.363 E.00711
G1 X146.51 Y119.401 E.00768
G1 X103.478 Y119.401 E1.34924
G1 X103.151 Y119.328 E.01051
G1 X103.021 Y119.263 E.00456
G1 X102.725 Y118.961 E.01326
G1 X102.637 Y118.752 E.00711
G1 X102.599 Y118.51 E.00768
G1 X102.599 Y91.478 E.84757
G1 X102.659 Y91.206 E.00873
M204 S1000
G1 X103.025 Y91.293 F10800
M204 S800
G1 F1200
G1 X103.051 Y91.231 E.00211
G1 X103.234 Y91.051 E.00805
G1 X103.37 Y90.994 E.00462
G1 X103.502 Y90.976 E.00418
G1 X146.503 Y90.976 E1.34827
G1 X146.671 Y91.008 E.00536
M73 P2 R91
M73 Q2 S93
G1 X146.851 Y91.116 E.00658
G1 X146.971 Y91.279 E.00635
G1 X147.024 Y91.506 E.00731
G1 X147.024 Y118.499 E.84635
G1 X146.949 Y118.769 E.00879
G1 X146.766 Y118.949 E.00805
G1 X146.63 Y119.006 E.00462
G1 X146.498 Y119.024 E.00418
G1 X103.501 Y119.024 E1.34814
G1 X103.231 Y118.949 E.00879
G1 X103.051 Y118.766 E.00805
G1 X102.994 Y118.63 E.00462
G1 X102.976 Y118.498 E.00418
G1 X102.976 Y91.501 E.84647
G1 X103.011 Y91.351 E.00483
M204 S1000
; printing object FoldingHexKeyToolHolder-PartBody.stl id:0 copy 0
;WIPE_START
M73 Q2 S92
G1 F8640
G1 X103.051 Y91.231 E-.02921
G1 X103.234 Y91.051 E-.05927
G1 X103.37 Y90.994 E-.03405
G1 X103.502 Y90.976 E-.03076
G1 X106.303 Y90.976 E-.64671
;WIPE_END
G1 Z.6 F720
G1 X106.114 Y94.114 F10800
G1 Z.2 F720
G1 E.8 F2100
M204 S800
;TYPE:Perimeter
;WIDTH:0.419999
G1 F1200
G1 X143.886 Y94.115 E1.18431
G1 X143.886 Y115.886 E.68261
G1 X106.114 Y115.886 E1.18431
G1 X106.114 Y94.174 E.68076
M204 S1000
G1 X105.737 Y93.737 F10800
M204 S800
G1 F1200
G1 X144.263 Y93.738 E1.20795
G1 X144.263 Y116.263 E.70625
G1 X105.737 Y116.263 E1.20795
G1 X105.737 Y93.797 E.7044
M204 S1000
G1 X105.36 Y93.36 F10800
M204 S800
G1 F1200
G1 X144.64 Y93.361 E1.23159
G1 X144.64 Y116.64 E.7299
G1 X105.36 Y116.64 E1.23159
G1 X105.36 Y93.42 E.72805
M204 S1000
G1 X104.983 Y92.983 F10800
M204 S800
G1 F1200
G1 X145.017 Y92.984 E1.25524
G1 X145.017 Y117.017 E.75354
G1 X104.983 Y117.017 E1.25524
G1 X104.983 Y93.043 E.75169
M204 S1000
G1 X104.606 Y92.606 F10800
M204 S800
G1 F1200
G1 X145.394 Y92.607 E1.27888
G1 X145.394 Y117.394 E.77718
G1 X104.606 Y117.394 E1.27888
G1 X104.606 Y92.666 E.77533
M204 S1000
G1 X104.229 Y92.229 F10800
M204 S800
G1 F1200
G1 X145.771 Y92.229 E1.30252
G1 X145.771 Y117.771 E.80085
G1 X104.229 Y117.771 E1.30252
G1 X104.229 Y92.289 E.79897
M204 S1000
G1 X103.852 Y91.852 F10800
M204 S800
G1 F1200
G1 X146.148 Y91.852 E1.32616
G1 X146.148 Y118.148 E.82449
G1 X103.852 Y118.148 E1.32616
G1 X103.852 Y91.912 E.82261
M204 S1000
G1 X103.474 Y91.531 F10800
M204 S800
;TYPE:External perimeter
G1 F1200
G1 X103.535 Y91.474 E.00262
G1 X146.478 Y91.481 E1.34645
G1 X146.526 Y91.56 E.0029
G1 X146.526 Y118.469 E.84371
G1 X146.465 Y118.526 E.00262
G1 X103.531 Y118.526 E1.34616
G1 X103.474 Y118.465 E.00262
M73 P3 R91
M73 Q3 S92
G1 X103.474 Y91.591 E.84261
M204 S1000
G1 X103.558 Y91.533 F10800
;WIPE_START
G1 F8640
G1 X103.535 Y91.474 E-.03047
G1 X106.868 Y91.475 E-.76953
;WIPE_END
G1 Z.6 F720
G1 X143.716 Y95.051 F10800
M73 P3 R90
G1 Z.2 F720
G1 E.8 F2100
M204 S800
;TYPE:Solid infill
;WIDTH:0.421799
G1 F1200
G1 X143.12 Y94.454 E.02658
G1 X142.584 Y94.454 E.01689
G1 X143.547 Y95.417 E.0429
G1 X143.547 Y95.953 E.01689
