; generated by PrusaSlicer 2.6.1+linux-x64-GTK3 on 2023-09-17 at 17:19:14 UTC


;
;
; 

; external perimeters extrusion width = 0.45mm
; perimeters extrusion width = 0.45mm
; infill extrusion width = 0.45mm
; solid infill extrusion width = 0.45mm
; top infill extrusion width = 0.40mm
; first layer extrusion width = 0.42mm

M73 P0 R118
M73 Q0 S120
M201 X1000 Y1000 Z200 E5000 ; sets maximum accelerations, mm/sec^2
M203 X200 Y200 Z12 E120 ; sets maximum feedrates, mm / sec
M204 S1250 T1250 ; sets acceleration (S) and retract acceleration (R), mm/sec^2
M205 X8.00 Y8.00 Z0.40 E4.50 ; sets the jerk limits, mm/sec
M205 S0 T0 ; sets the minimum extruding and travel feed rate, mm/sec
;TYPE:Custom
M862.3 P "MK3S" ; printer model check
M862.1 P0.4 ; nozzle diameter check
M115 U3.13.0 ; tell printer latest fw version
G90 ; use absolute coordinates
M83 ; extruder relative mode
M104 S215 ; set extruder temp
M140 S60 ; set bed temp
M190 S60 ; wait for bed temp
M109 S215 ; wait for extruder temp
G28 W ; home all without mesh bed level
G80 ; mesh bed leveling

G1 Z0.2 F720
G1 Y-3 F1000 ; go outside print area
G92 E0
G1 X60 E9 F1000 ; intro line
G1 X100 E12.5 F1000 ; intro line

G92 E0
M221 S95

; Don't change E values below. Excessive value can damage the printer.

G21 ; set units to millimeters
G90 ; use absolute coordinates
M83 ; use relative distances for extrusion
M900 K0.05 ; Filament gcode LA 1.5
M900 K30 ; Filament gcode LA 1.0
M107
;LAYER_CHANGE
;Z:0.2
;HEIGHT:0.2
;BEFORE_LAYER_CHANGE
G92 E0.0
;0.2


G1 E-.8 F2100
G1 Z.4 F720
;AFTER_LAYER_CHANGE
;0.2
G1 X67.735 Y149.408 F10800
G1 Z.2 F720
G1 E.8 F2100
M204 S800
;TYPE:Skirt/Brim
;WIDTH:0.42
G1 F1200
G1 X68.72 Y149.037 E.033
G1 X69.819 Y148.793 E.0353
G1 X70.845 Y148.71 E.03227
G1 X149.07 Y148.711 E2.45269
G1 X150.516 Y148.872 E.04562
M73 P0 R117
G1 X151.881 Y149.292 E.04478
G1 X153.256 Y150.029 E.04891
G1 X154.207 Y150.787 E.03813
G1 X155.159 Y151.858 E.04493
G1 X155.951 Y153.203 E.04894
G1 X156.369 Y154.343 E.03807
G1 X156.636 Y155.89 E.04922
G1 X156.654 Y173.515 E.55262
G1 X156.491 Y175.009 E.04712
G1 X156.204 Y176.022 E.03301
G1 X155.782 Y176.987 E.03302
G1 X155.233 Y177.886 E.03303
G1 X154.567 Y178.7 E.03298
G1 X153.797 Y179.417 E.03299
G1 X152.936 Y180.022 E.03299
G1 X152 Y180.505 E.03302
G1 X151.163 Y180.81 E.02793
G1 X150.064 Y181.054 E.0353
G1 X149.038 Y181.136 E.03227
G1 X70.475 Y181.121 E2.46329
G1 X69.356 Y180.972 E.0354
G1 X68.343 Y180.686 E.033
G1 X67.378 Y180.264 E.03302
G1 X66.2 Y179.507 E.0439
G1 X65.416 Y178.805 E.033
G1 X64.64 Y177.871 E.03807
G1 X64.093 Y176.971 E.03302
G1 X63.555 Y175.644 E.0449
G1 X63.311 Y174.546 E.03527
G1 X63.229 Y173.52 E.03227
G1 X63.229 Y156.331 E.53895
G1 X63.361 Y154.997 E.04203
G1 X63.626 Y153.978 E.03301
G1 X64.028 Y153.004 E.03304
G1 X64.558 Y152.094 E.03302
G1 X65.206 Y151.265 E.03299
G1 X65.962 Y150.533 E.03299
G1 X66.81 Y149.91 E.03299
G1 X67.683 Y149.436 E.03115
M204 S1000
;WIPE_START
G1 F8640
G1 X68.72 Y149.037 E-.25656
G1 X69.819 Y148.793 E-.25994
G1 X70.845 Y148.71 E-.23768
G1 X71.043 Y148.71 E-.04582
;WIPE_END
G1 Z.6 F720
G1 X68.74 Y151.936 F10800
G1 Z.2 F720
G1 E.8 F2100
M204 S800
G1 F1200
G1 X69.714 Y151.524 E.03316
G1 X70.674 Y151.384 E.03042
G1 X149.334 Y151.385 E2.46633
G1 X151.081 Y151.851 E.05669
M73 Q0 S119
G1 X152.572 Y152.914 E.05741
G1 X153.588 Y154.451 E.05777
G1 X153.991 Y156.184 E.05579
G1 X153.95 Y174.002 E.55867
G1 X153.553 Y175.476 E.04786
G1 X152.731 Y176.759 E.04778
G1 X151.574 Y177.73 E.04736
G1 X150.169 Y178.323 E.04782
G1 X149.211 Y178.463 E.03036
G1 X70.727 Y178.472 E2.46081
G1 X69.121 Y178.131 E.05148
G1 X67.738 Y177.325 E.05019
G1 X66.681 Y176.13 E.05002
G1 X66.043 Y174.654 E.05042
G1 X65.902 Y173.691 E.03052
G1 X65.924 Y155.914 E.55739
G1 X66.291 Y154.462 E.04696
G1 X67.135 Y153.107 E.05005
G1 X68.298 Y152.123 E.04777
G1 X68.685 Y151.959 E.01318
M204 S1000
G1 X68.828 Y152.301 F10800
M204 S800
G1 F1200
G1 X69.836 Y151.881 E.03424
G1 X70.687 Y151.761 E.02695
G1 X149.309 Y151.762 E2.46514
G1 X150.949 Y152.206 E.05327
G1 X152.278 Y153.153 E.05117
G1 X153.229 Y154.571 E.05353
G1 X153.614 Y156.206 E.05267
G1 X153.579 Y173.93 E.55572
G1 X153.218 Y175.3 E.04442
G1 X152.466 Y176.489 E.04411
G1 X151.354 Y177.423 E.04553
G1 X150.047 Y177.965 E.04436
G1 X149.198 Y178.086 E.02689
G1 X70.746 Y178.095 E2.45981
G1 X69.284 Y177.79 E.04683
G1 X67.955 Y177.015 E.04824
G1 X66.985 Y175.905 E.04622
G1 X66.4 Y174.53 E.04685
G1 X66.279 Y173.679 E.02695
G1 X66.296 Y155.981 E.55491
G1 X66.628 Y154.634 E.0435
G1 X67.402 Y153.375 E.04634
G1 X68.519 Y152.43 E.04588
G1 X68.772 Y152.324 E.0086
M204 S1000
G1 X68.913 Y152.667 F10800
M204 S800
G1 F1200
G1 X69.956 Y152.239 E.03535
G1 X70.699 Y152.138 E.02351
G1 X149.283 Y152.139 E2.46395
G1 X150.816 Y152.561 E.04985
G1 X152.029 Y153.437 E.04691
G1 X152.895 Y154.75 E.04932
G1 X153.237 Y156.226 E.04751
G1 X153.208 Y173.86 E.5529
G1 X152.883 Y175.126 E.04098
G1 X152.199 Y176.222 E.04051
G1 X151.181 Y177.087 E.04189
G1 X149.969 Y177.595 E.0412
G1 X149.184 Y177.709 E.02487
G1 X70.765 Y177.718 E2.45877
G1 X69.445 Y177.447 E.04225
G1 X68.218 Y176.742 E.04437
G1 X67.29 Y175.68 E.04422
G1 X66.758 Y174.409 E.0432
G1 X66.656 Y173.666 E.02351
G1 X66.668 Y156.047 E.55243
G1 X66.966 Y154.805 E.04005
G1 X67.707 Y153.599 E.04438
G1 X68.737 Y152.738 E.04209
G1 X68.857 Y152.689 E.00406
M204 S1000
G1 X69.001 Y153.037 F10800
M204 S800
G1 F1200
G1 X70.032 Y152.609 E.035
G1 X70.712 Y152.515 E.02152
G1 X149.258 Y152.516 E2.46275
G1 X150.625 Y152.888 E.04442
G1 X151.736 Y153.677 E.04273
G1 X152.536 Y154.87 E.04504
G1 X152.859 Y156.248 E.04438
G1 X152.837 Y173.791 E.55005
G1 X152.547 Y174.952 E.03752
G1 X151.895 Y175.996 E.03859
G1 X150.962 Y176.779 E.03819
G1 X149.849 Y177.237 E.03774
G1 X149.171 Y177.331 E.02146
G1 X70.785 Y177.341 E2.45774
G1 X69.553 Y177.085 E.03945
G1 X68.436 Y176.433 E.04055
G1 X67.596 Y175.459 E.04033
G1 X67.116 Y174.289 E.03965
G1 X67.033 Y173.655 E.02005
G1 X67.04 Y156.111 E.55008
G1 X67.304 Y154.974 E.0366
G1 X67.974 Y153.866 E.0406
G1 X68.946 Y153.06 E.03959
M204 S1000
G1 X69.13 Y153.383 F10800
M204 S800
G1 F1200
G1 X70.15 Y152.968 E.03453
G1 X70.724 Y152.892 E.01815
G1 X149.232 Y152.893 E2.46156
G1 X150.491 Y153.241 E.04096
G1 X151.486 Y153.961 E.03851
G1 X152.203 Y155.049 E.04085
G1 X152.482 Y156.269 E.03924
G1 X152.465 Y173.725 E.54732
G1 X152.21 Y174.781 E.03406
G1 X151.629 Y175.727 E.03481
G1 X150.743 Y176.47 E.03626
G1 X149.731 Y176.878 E.03421
G1 X149.16 Y176.954 E.01806
G1 X70.803 Y176.964 E2.45683
G1 X69.713 Y176.742 E.03488
M73 P1 R116
M73 Q1 S119
G1 X68.698 Y176.161 E.03667
G1 X67.932 Y175.284 E.03651
G1 X67.487 Y174.214 E.03633
G1 X67.41 Y173.642 E.0181
G1 X67.412 Y156.172 E.54776
G1 X67.644 Y155.139 E.0332
G1 X68.242 Y154.133 E.03669
G1 X69.084 Y153.421 E.03457
M204 S1000
G1 X69.303 Y153.719 F10800
M204 S800
G1 F1200
G1 X70.226 Y153.338 E.03131
G1 X70.737 Y153.269 E.01617
G1 X149.208 Y153.27 E2.4604
G1 X150.301 Y153.569 E.03553
G1 X151.193 Y154.201 E.03428
G1 X151.843 Y155.169 E.03656
G1 X152.105 Y156.29 E.0361
G1 X152.093 Y173.661 E.54466
G1 X151.871 Y174.614 E.03068
G1 X151.36 Y175.461 E.03102
G1 X150.571 Y176.133 E.0325
G1 X149.656 Y176.508 E.03101
G1 X149.147 Y176.577 E.01611
G1 X70.823 Y176.587 E2.45579
G1 X69.82 Y176.379 E.03212
M73 Q1 S118
G1 X68.916 Y175.852 E.03281
G1 X68.238 Y175.063 E.03262
G1 X67.857 Y174.14 E.03131
G1 X67.788 Y173.629 E.01617
G1 X67.785 Y156.231 E.5455
G1 X67.985 Y155.302 E.0298
G1 X68.513 Y154.397 E.03285
G1 X69.257 Y153.758 E.03075
M204 S1000
G1 X69.478 Y154.054 F10800
M204 S800
G1 F1200
G1 X70.303 Y153.708 E.02805
G1 X70.75 Y153.646 E.01415
G1 X149.181 Y153.647 E2.45915
G1 X150.166 Y153.922 E.03207
G1 X150.943 Y154.485 E.03009
G1 X151.509 Y155.346 E.03231
G1 X151.728 Y156.311 E.03103
G1 X151.72 Y173.6 E.54208
G1 X151.532 Y174.446 E.02717
G1 X151.054 Y175.239 E.02903
G1 X150.353 Y175.824 E.02863
G1 X149.58 Y176.138 E.02616
G1 X149.133 Y176.2 E.01415
G1 X70.841 Y176.21 E2.45479
G1 X69.98 Y176.036 E.02754
G1 X69.178 Y175.579 E.02894
G1 X68.573 Y174.887 E.02882
G1 X68.227 Y174.062 E.02805
G1 X68.165 Y173.616 E.01412
G1 X68.159 Y156.287 E.54334
G1 X68.328 Y155.461 E.02644
G1 X68.786 Y154.659 E.02896
G1 X69.432 Y154.094 E.02691
M204 S1000
G1 X69.655 Y154.388 F10800
M204 S800
G1 F1200
G1 X70.382 Y154.078 E.02478
G1 X70.764 Y154.023 E.0121
G1 X149.154 Y154.024 E2.45786
G1 X150.028 Y154.275 E.02851
G1 X150.689 Y154.766 E.02582
G1 X151.173 Y155.52 E.02809
G1 X151.351 Y156.33 E.026
G1 X151.348 Y173.542 E.53967
G1 X151.19 Y174.283 E.02376
G1 X150.784 Y174.974 E.02513
G1 X150.18 Y175.488 E.02487
G1 X149.503 Y175.768 E.02297
G1 X149.119 Y175.823 E.01216
G1 X70.858 Y175.833 E2.45382
G1 X70.135 Y175.692 E.0231
G1 X69.437 Y175.303 E.02505
G1 X68.907 Y174.709 E.02496
G1 X68.596 Y173.983 E.02476
G1 X68.542 Y173.602 E.01207
G1 X68.532 Y156.34 E.54124
G1 X68.673 Y155.617 E.0231
G1 X69.062 Y154.918 E.02508
G1 X69.611 Y154.428 E.02307
M204 S1000
G1 X69.858 Y154.712 F10800
M204 S800
G1 F1200
G1 X70.461 Y154.447 E.02065
G1 X70.778 Y154.4 E.01005
G1 X149.129 Y154.401 E2.45664
G1 X149.836 Y154.6 E.02303
G1 X150.395 Y155.004 E.02163
G1 X150.813 Y155.638 E.02381
G1 X150.974 Y156.352 E.02295
G1 X150.974 Y173.488 E.53729
G1 X150.847 Y174.124 E.02034
G1 X150.511 Y174.712 E.02123
G1 X150.004 Y175.153 E.02107
G1 X149.423 Y175.399 E.01978
G1 X149.105 Y175.446 E.01008
G1 X70.877 Y175.456 E2.45278
G1 X70.241 Y175.328 E.02034
G1 X69.653 Y174.993 E.02122
G1 X69.212 Y174.486 E.02107
G1 X68.966 Y173.905 E.01978
G1 X68.919 Y173.587 E.01008
G1 X68.909 Y156.359 E.54017
G1 X69.036 Y155.722 E.02037
G1 X69.372 Y155.134 E.02123
G1 X69.812 Y154.751 E.01829
M204 S1000
G1 X70.058 Y155.026 F10800
M204 S800
G1 F1200
G1 X70.543 Y154.816 E.01657
G1 X70.793 Y154.777 E.00793
G1 X149.101 Y154.778 E2.45529
G1 X149.695 Y154.952 E.01941
G1 X150.14 Y155.284 E.01741
G1 X150.477 Y155.81 E.01959
G1 X150.597 Y156.371 E.01799
G1 X150.597 Y173.471 E.53616
G1 X150.502 Y173.97 E.01593
G1 X150.234 Y174.454 E.01735
G1 X149.825 Y174.82 E.01721
G1 X149.34 Y175.03 E.01657
G1 X149.09 Y175.069 E.00793
G1 X70.894 Y175.078 E2.45178
G1 X70.395 Y174.983 E.01593
G1 X69.911 Y174.716 E.01733
G1 X69.545 Y174.306 E.01723
G1 X69.334 Y173.822 E.01655
G1 X69.296 Y173.572 E.00793
G1 X69.286 Y156.376 E.53917
G1 X69.382 Y155.876 E.01596
G1 X69.649 Y155.392 E.01733
G1 X70.014 Y155.066 E.01534
M204 S1000
G1 X70.243 Y155.356 F10800
M204 S800
G1 F1200
G1 X70.63 Y155.184 E.01328
G1 X70.809 Y155.154 E.00569
G1 X149.075 Y155.155 E2.45398
G1 X149.504 Y155.278 E.01399
G1 X149.848 Y155.524 E.01326
G1 X150.117 Y155.929 E.01524
G1 X150.22 Y156.392 E.01487
G1 X150.22 Y173.455 E.535
G1 X150.154 Y173.822 E.01169
G1 X149.953 Y174.201 E.01345
G1 X149.641 Y174.49 E.01333
G1 X149.254 Y174.663 E.01329
G1 X149.074 Y174.692 E.00572
G1 X70.91 Y174.701 E2.45078
G1 X70.543 Y174.636 E.01169
M73 P1 R115
G1 X70.164 Y174.434 E.01347
G1 X69.875 Y174.122 E.01333
G1 X69.702 Y173.735 E.01329
G1 X69.673 Y173.556 E.00569
G1 X69.663 Y156.392 E.53817
G1 X69.729 Y156.024 E.01172
G1 X69.93 Y155.645 E.01345
G1 X70.199 Y155.397 E.01147
M204 S1000
G1 X70.447 Y155.678 F10800
M204 S800
G1 F1200
G1 X70.718 Y155.551 E.00938
G1 X70.827 Y155.531 E.00347
G1 X149.046 Y155.532 E2.4525
G1 X149.36 Y155.628 E.0103
G1 X149.591 Y155.802 E.00907
G1 X149.779 Y156.098 E.01099
G1 X149.843 Y156.41 E.00999
G1 X149.843 Y173.437 E.53387
G1 X149.79 Y173.72 E.00903
G1 X149.642 Y173.987 E.00957
G1 X149.415 Y174.186 E.00947
G1 X149.166 Y174.296 E.00854
G1 X149.056 Y174.315 E.0035
G1 X70.928 Y174.324 E2.44965
G1 X70.645 Y174.271 E.00903
M73 P2 R115
M73 Q2 S117
G1 X70.378 Y174.123 E.00957
G1 X70.178 Y173.897 E.00946
G1 X70.069 Y173.647 E.00855
G1 X70.05 Y173.538 E.00347
G1 X70.041 Y156.41 E.53704
G1 X70.094 Y156.126 E.00906
G1 X70.242 Y155.86 E.00954
G1 X70.402 Y155.718 E.00671
M204 S1000
G1 X70.641 Y156.005 F10800
M204 S800
G1 F1200
G1 X70.684 Y155.97 E.00174
G1 X70.848 Y155.908 E.0055
G1 X148.976 Y155.903 E2.44965
G1 X149.165 Y155.953 E.00613
G1 X149.331 Y156.078 E.00652
G1 X149.435 Y156.255 E.00644
G1 X149.466 Y156.424 E.00539
G1 X149.466 Y173.417 E.5328
G1 X149.427 Y173.611 E.0062
G1 X149.338 Y173.762 E.0055
G1 X149.199 Y173.877 E.00566
G1 X149.035 Y173.938 E.00549
G1 X70.947 Y173.947 E2.44839
G1 X70.753 Y173.909 E.0062
G1 X70.603 Y173.819 E.00548
G1 X70.488 Y173.681 E.00563
G1 X70.427 Y173.517 E.00549
G1 X70.418 Y156.429 E.53578
G1 X70.456 Y156.235 E.0062
G1 X70.546 Y156.084 E.00551
G1 X70.595 Y156.043 E.002
M204 S1000
; printing object ProjectCalcPlusToolHolder-Part.stl id:0 copy 0
;WIPE_START
G1 F8640
G1 X70.684 Y155.97 E-.02658
G1 X70.848 Y155.908 E-.04048
G1 X74.022 Y155.908 E-.73294
;WIPE_END
G1 Z.6 F720
G1 X146.328 Y159.038 F10800
G1 Z.2 F720
G1 E.8 F2100
M204 S800
;TYPE:Perimeter
;WIDTH:0.419999
G1 F1200
G1 X146.328 Y170.802 E.36885
G1 X73.562 Y170.809 E2.28152
G1 X73.557 Y159.044 E.36888
G1 X146.268 Y159.038 E2.2798
M204 S1000
G1 X146.705 Y158.661 F10800
M204 S800
G1 F1200
G1 X146.705 Y171.179 E.39249
G1 X73.185 Y171.186 E2.30516
G1 X73.18 Y158.667 E.39252
G1 X146.645 Y158.661 E2.30344
M204 S1000
G1 X147.082 Y158.284 F10800
M204 S800
G1 F1200
G1 X147.082 Y171.556 E.41613
G1 X72.808 Y171.563 E2.32881
G1 X72.802 Y158.29 E.41616
G1 X147.022 Y158.284 E2.32711
M204 S1000
G1 X147.459 Y157.907 F10800
M204 S800
G1 F1200
G1 X147.459 Y171.933 E.43977
G1 X72.431 Y171.94 E2.35245
G1 X72.425 Y157.913 E.43981
G1 X147.399 Y157.907 E2.35075
M204 S1000
G1 X147.836 Y157.53 F10800
M204 S800
G1 F1200
G1 X147.836 Y172.31 E.46342
G1 X72.054 Y172.317 E2.37609
M73 P2 R114
G1 X72.048 Y157.536 E.46345
G1 X147.776 Y157.53 E2.37439
M204 S1000
G1 X148.213 Y157.153 F10800
M204 S800
G1 F1200
G1 X148.213 Y172.687 E.48706
G1 X71.677 Y172.694 E2.39973
M73 Q2 S116
G1 X71.671 Y157.159 E.48709
G1 X148.153 Y157.153 E2.39804
M204 S1000
G1 X148.59 Y156.776 F10800
M204 S800
G1 F1200
G1 X148.59 Y173.064 E.5107
G1 X71.3 Y173.072 E2.42337
G1 X71.293 Y156.782 E.51076
M73 P3 R114
G1 X148.53 Y156.776 E2.42171
M204 S1000
G1 X148.919 Y156.404 F10800
M204 S800
;TYPE:External perimeter
M73 Q3 S116
G1 F1200
G1 X148.967 Y156.483 E.0029
G1 X148.967 Y173.375 E.52964
G1 X148.935 Y173.441 E.0023
G1 X70.99 Y173.449 E2.44391
G1 X70.923 Y173.417 E.00233
G1 X70.916 Y156.471 E.53133
G1 X70.948 Y156.405 E.0023
G1 X148.86 Y156.398 E2.44287
M204 S1000
G1 X148.905 Y156.495 F10800
;WIPE_START
G1 F8640
G1 X148.967 Y156.483 E-.03155
G1 X148.967 Y159.811 E-.76845
;WIPE_END
G1 Z.6 F720
G1 X146.158 Y159.972 F10800
G1 Z.2 F720
G1 E.8 F2100
M204 S800
;TYPE:Solid infill
;WIDTH:0.420944
G1 F1200
G1 X145.563 Y159.378 E.02643
G1 X145.029 Y159.378 E.01679
G1 X145.988 Y160.337 E.04263
G1 X145.988 Y160.872 E.01682
G1 X144.494 Y159.378 E.06641
G1 X143.96 Y159.378 E.01679
G1 X145.988 Y161.406 E.09015
G1 X145.988 Y161.941 E.01682
G1 X143.425 Y159.378 E.11393
G1 X142.891 Y159.378 E.01679
G1 X145.988 Y162.476 E.13769
G1 X145.988 Y163.01 E.01679
G1 X142.356 Y159.378 E.16145
G1 X141.821 Y159.378 E.01682
G1 X145.988 Y163.545 E.18523
G1 X145.988 Y164.079 E.01679
G1 X141.287 Y159.378 E.20897
G1 X140.752 Y159.378 E.01682
G1 X145.988 Y164.614 E.23275
G1 X145.988 Y165.149 E.01682
G1 X140.218 Y159.378 E.25651
G1 X139.683 Y159.378 E.01682
G1 X145.988 Y165.683 E.28027
G1 X145.988 Y166.218 E.01682
G1 X139.149 Y159.378 E.30403
G1 X138.614 Y159.378 E.01682
G1 X145.988 Y166.752 E.32779
G1 X145.988 Y167.287 E.01682
G1 X138.08 Y159.378 E.35155
G1 X137.545 Y159.378 E.01682
G1 X145.988 Y167.822 E.37534
G1 X145.988 Y168.356 E.01679
G1 X137.01 Y159.378 E.3991
G1 X136.476 Y159.378 E.01679
G1 X145.988 Y168.891 E.42286
G1 X145.988 Y169.425 E.01679
G1 X135.941 Y159.378 E.44662
G1 X135.407 Y159.378 E.01679
G1 X145.988 Y169.96 E.47038
G1 X145.988 Y170.463 E.01581
G1 X145.956 Y170.463 E.00101
G1 X134.872 Y159.379 E.49271
G1 X134.338 Y159.379 E.01679
G1 X145.422 Y170.463 E.49271
G1 X144.887 Y170.463 E.01682
G1 X133.803 Y159.379 E.49271
G1 X133.268 Y159.379 E.01682
G1 X144.353 Y170.463 E.49274
G1 X143.818 Y170.463 E.01682
G1 X132.734 Y159.379 E.49271
G1 X132.199 Y159.379 E.01682
G1 X143.284 Y170.463 E.49274
G1 X142.749 Y170.463 E.01682
G1 X131.665 Y159.379 E.49271
