; generated by PrusaSlicer 2.6.1+linux-x64-GTK3 on 2023-09-15 at 00:50:59 UTC


;
;
; 

; external perimeters extrusion width = 0.45mm
; perimeters extrusion width = 0.45mm
; infill extrusion width = 0.45mm
; solid infill extrusion width = 0.45mm
; top infill extrusion width = 0.40mm
; first layer extrusion width = 0.42mm

M73 P0 R36
M73 Q0 S37
M201 X1000 Y1000 Z200 E5000 ; sets maximum accelerations, mm/sec^2
M203 X200 Y200 Z12 E120 ; sets maximum feedrates, mm / sec
M204 S1250 T1250 ; sets acceleration (S) and retract acceleration (R), mm/sec^2
M205 X8.00 Y8.00 Z0.40 E4.50 ; sets the jerk limits, mm/sec
M205 S0 T0 ; sets the minimum extruding and travel feed rate, mm/sec
;TYPE:Custom
M862.3 P "MK3S" ; printer model check
M862.1 P0.4 ; nozzle diameter check
M115 U3.13.0 ; tell printer latest fw version
G90 ; use absolute coordinates
M83 ; extruder relative mode
M104 S215 ; set extruder temp
M140 S60 ; set bed temp
M190 S60 ; wait for bed temp
M109 S215 ; wait for extruder temp
G28 W ; home all without mesh bed level
G80 ; mesh bed leveling

G1 Z0.2 F720
G1 Y-3 F1000 ; go outside print area
G92 E0
G1 X60 E9 F1000 ; intro line
G1 X100 E12.5 F1000 ; intro line

G92 E0
M221 S95

; Don't change E values below. Excessive value can damage the printer.

G21 ; set units to millimeters
G90 ; use absolute coordinates
M83 ; use relative distances for extrusion
M900 K0.05 ; Filament gcode LA 1.5
M900 K30 ; Filament gcode LA 1.0
M107
;LAYER_CHANGE
;Z:0.2
;HEIGHT:0.2
;BEFORE_LAYER_CHANGE
G92 E0.0
;0.2


G1 E-.8 F2100
G1 Z.4 F720
;AFTER_LAYER_CHANGE
;0.2
G1 X98.419 Y89.907 F10800
G1 Z.2 F720
G1 E.8 F2100
M204 S800
;TYPE:Skirt/Brim
;WIDTH:0.42
G1 F1200
G1 X101.407 Y86.919 E.13249
G1 X103.088 Y86.223 E.05705
G1 X146.912 Y86.223 E1.37407
G1 X148.593 Y86.919 E.05705
G1 X151.581 Y89.907 E.13249
G1 X152.277 Y91.588 E.05705
G1 X152.277 Y118.412 E.84105
G1 X151.581 Y120.093 E.05705
G1 X148.593 Y123.081 E.13249
G1 X146.912 Y123.777 E.05705
G1 X103.088 Y123.777 E1.37407
G1 X101.407 Y123.081 E.05705
G1 X98.419 Y120.093 E.13249
G1 X97.723 Y118.412 E.05705
G1 X97.723 Y91.588 E.84105
G1 X98.396 Y89.962 E.05518
M204 S1000
;WIPE_START
G1 F8640
G1 X100.833 Y87.499 E-.8
;WIPE_END
G1 Z.6 F720
G1 X101.045 Y91.281 F10800
G1 Z.2 F720
G1 E.8 F2100
M204 S800
G1 F1200
G1 X101.159 Y91.05 E.00808
G1 X102.096 Y90.019 E.04368
G1 X102.781 Y89.511 E.02674
G1 X104.753 Y88.886 E.06486
G1 X145.189 Y88.89 E1.26784
G1 X146.21 Y89.084 E.03259
G1 X147.188 Y89.5 E.03332
G1 X148.312 Y90.396 E.04507
G1 X149.205 Y91.734 E.05044
G1 X149.613 Y93.279 E.0501
G1 X149.613 Y116.718 E.73491
G1 X149.299 Y118.03 E.0423
G1 X148.841 Y118.95 E.03222
G1 X147.904 Y119.981 E.04368
G1 X147.219 Y120.489 E.02674
G1 X145.247 Y121.113 E.06485
G1 X104.782 Y121.113 E1.26875
G1 X103.47 Y120.799 E.0423
M73 P1 R36
M73 Q1 S37
G1 X102.55 Y120.341 E.03222
G1 X101.519 Y119.404 E.04368
G1 X101.011 Y118.719 E.02674
G1 X100.387 Y116.747 E.06485
G1 X100.387 Y93.282 E.73573
G1 X100.701 Y91.97 E.0423
G1 X101.018 Y91.334 E.02228
M204 S1000
G1 X101.353 Y91.503 F10800
M204 S800
G1 F1200
G1 X101.484 Y91.244 E.0091
G1 X102.361 Y90.288 E.04068
G1 X102.979 Y89.834 E.02404
G1 X104.782 Y89.264 E.05929
G1 X145.171 Y89.267 E1.26637
G1 X146.117 Y89.45 E.03021
M73 Q1 S36
G1 X147.015 Y89.836 E.03065
G1 X148.053 Y90.671 E.04177
G1 X148.849 Y91.862 E.04492
G1 X149.236 Y93.304 E.04681
G1 X149.236 Y116.695 E.73341
G1 X148.938 Y117.919 E.0395
G1 X148.516 Y118.757 E.02942
G1 X147.639 Y119.712 E.04065
G1 X147.021 Y120.166 E.02404
G1 X145.218 Y120.736 E.05929
G1 X104.805 Y120.736 E1.26712
G1 X103.581 Y120.438 E.0395
G1 X102.744 Y120.016 E.02939
G1 X101.788 Y119.139 E.04068
G1 X101.334 Y118.521 E.02404
G1 X100.764 Y116.718 E.05929
G1 X100.764 Y93.305 E.7341
G1 X101.062 Y92.081 E.0395
G1 X101.326 Y91.557 E.0184
M204 S1000
G1 X101.66 Y91.727 F10800
M204 S800
G1 F1200
G1 X101.807 Y91.439 E.01014
G1 X102.624 Y90.559 E.03765
G1 X103.176 Y90.156 E.02143
G1 X104.811 Y89.641 E.05375
G1 X145.152 Y89.644 E1.26486
G1 X146.024 Y89.816 E.02787
G1 X146.84 Y90.171 E.0279
G1 X147.793 Y90.945 E.03849
G1 X148.517 Y92.043 E.04124
G1 X148.859 Y93.328 E.04169
G1 X148.859 Y116.671 E.7319
G1 X148.577 Y117.806 E.03667
G1 X148.193 Y118.561 E.02656
G1 X147.376 Y119.441 E.03765
G1 X146.824 Y119.844 E.02143
G1 X145.189 Y120.359 E.05375
G1 X104.829 Y120.359 E1.26546
G1 X103.694 Y120.077 E.03667
G1 X102.939 Y119.693 E.02656
G1 X102.059 Y118.876 E.03765
G1 X101.656 Y118.324 E.02143
G1 X101.141 Y116.689 E.05375
G1 X101.141 Y93.329 E.73244
G1 X101.423 Y92.194 E.03667
G1 X101.633 Y91.781 E.01453
M204 S1000
G1 X101.966 Y91.953 F10800
M204 S800
G1 F1200
G1 X102.13 Y91.636 E.01119
G1 X102.886 Y90.831 E.03463
G1 X103.372 Y90.48 E.0188
G1 X104.84 Y90.018 E.04825
G1 X145.133 Y90.021 E1.26336
G1 X145.929 Y90.181 E.02546
G1 X146.664 Y90.505 E.02519
G1 X147.53 Y91.217 E.03515
G1 X148.185 Y92.223 E.03764
G1 X148.482 Y93.352 E.0366
G1 X148.482 Y116.648 E.73043
G1 X148.217 Y117.692 E.03377
G1 X147.87 Y118.364 E.02371
G1 X147.114 Y119.169 E.03463
G1 X146.628 Y119.52 E.0188
G1 X145.161 Y119.982 E.04822
G1 X104.852 Y119.982 E1.26386
G1 X103.808 Y119.717 E.03377
M73 P2 R36
M73 Q2 S36
G1 X103.136 Y119.37 E.02371
G1 X102.331 Y118.614 E.03463
G1 X101.98 Y118.128 E.0188
G1 X101.518 Y116.661 E.04822
G1 X101.518 Y93.352 E.73084
G1 X101.783 Y92.308 E.03377
G1 X101.939 Y92.006 E.01066
M204 S1000
G1 X102.27 Y92.18 F10800
M204 S800
G1 F1200
G1 X102.451 Y91.835 E.01222
G1 X103.146 Y91.104 E.03163
G1 X103.566 Y90.804 E.01618
G1 X104.868 Y90.395 E.04279
G1 X145.115 Y90.398 E1.26192
G1 X145.796 Y90.535 E.02178
G1 X146.487 Y90.839 E.02367
G1 X147.267 Y91.488 E.03181
G1 X147.829 Y92.35 E.03226
G1 X148.105 Y93.378 E.03337
G1 X148.105 Y116.623 E.72883
G1 X147.858 Y117.575 E.03084
G1 X147.549 Y118.165 E.02088
G1 X146.854 Y118.896 E.03163
G1 X146.434 Y119.196 E.01618
G1 X145.132 Y119.605 E.04279
G1 X104.877 Y119.605 E1.26217
G1 X103.925 Y119.358 E.03084
G1 X103.335 Y119.049 E.02088
G1 X102.604 Y118.354 E.03163
G1 X102.304 Y117.934 E.01618
G1 X101.895 Y116.632 E.04279
G1 X101.895 Y93.377 E.72914
G1 X102.142 Y92.425 E.03084
G1 X102.242 Y92.233 E.00679
M204 S1000
G1 X102.572 Y92.409 F10800
M204 S800
G1 F1200
G1 X102.771 Y92.037 E.01323
G1 X103.404 Y91.38 E.02861
G1 X103.759 Y91.13 E.01361
G1 X104.897 Y90.772 E.03741
G1 X145.095 Y90.776 E1.26038
G1 X145.699 Y90.9 E.01933
G1 X146.308 Y91.172 E.02091
G1 X147.001 Y91.757 E.02844
G1 X147.495 Y92.528 E.02871
G1 X147.728 Y93.402 E.02836
G1 X147.728 Y116.598 E.72729
G1 X147.5 Y117.456 E.02784
G1 X147.229 Y117.963 E.01803
G1 X146.596 Y118.62 E.02861
G1 X146.241 Y118.87 E.01361
G1 X145.103 Y119.228 E.03741
G1 X104.902 Y119.228 E1.26047
G1 X104.044 Y119 E.02784
M73 P2 R35
G1 X103.537 Y118.729 E.01803
G1 X102.88 Y118.096 E.02861
G1 X102.63 Y117.741 E.01361
G1 X102.272 Y116.603 E.03741
G1 X102.272 Y93.402 E.72745
G1 X102.5 Y92.544 E.02784
G1 X102.544 Y92.462 E.00292
M204 S1000
G1 X102.872 Y92.64 F10800
M204 S800
G1 F1200
G1 X103.088 Y92.241 E.01423
G1 X103.66 Y91.657 E.02563
G1 X103.95 Y91.456 E.01106
G1 X104.926 Y91.149 E.03208
G1 X145.074 Y91.153 E1.25881
G1 X145.599 Y91.264 E.01682
G1 X146.127 Y91.504 E.01819
G1 X146.734 Y92.025 E.02508
G1 X147.139 Y92.656 E.02351
G1 X147.351 Y93.428 E.0251
G1 X147.351 Y116.572 E.72566
G1 X147.142 Y117.334 E.02477
G1 X146.912 Y117.759 E.01515
G1 X146.34 Y118.343 E.02563
G1 X146.05 Y118.544 E.01106
G1 X145.074 Y118.851 E.03208
G1 X104.928 Y118.851 E1.25875
G1 X104.166 Y118.642 E.02477
M73 P3 R35
G1 X103.741 Y118.412 E.01515
G1 X103.157 Y117.84 E.02563
G1 X102.956 Y117.55 E.01106
G1 X102.649 Y116.574 E.03208
G1 X102.649 Y93.428 E.72573
G1 X102.849 Y92.695 E.02382
M204 S1000
M73 Q3 S36
G1 X103.212 Y92.798 F10800
M204 S800
G1 F1200
G1 X103.404 Y92.449 E.01249
G1 X103.914 Y91.937 E.02266
G1 X104.139 Y91.783 E.00855
G1 X104.955 Y91.526 E.02682
G1 X145.053 Y91.53 E1.25724
G1 X145.497 Y91.627 E.01425
G1 X145.943 Y91.834 E.01542
G1 X146.466 Y92.291 E.02178
G1 X146.785 Y92.786 E.01846
G1 X146.974 Y93.455 E.0218
G1 X146.974 Y116.545 E.72397
G1 X146.786 Y117.209 E.02164
G1 X146.596 Y117.551 E.01227
G1 X146.086 Y118.063 E.02266
G1 X145.861 Y118.217 E.00855
G1 X145.045 Y118.474 E.02682
G1 X104.955 Y118.474 E1.25699
G1 X104.291 Y118.286 E.02164
G1 X103.949 Y118.096 E.01227
G1 X103.437 Y117.586 E.02266
G1 X103.283 Y117.361 E.00855
G1 X103.026 Y116.545 E.02682
G1 X103.026 Y93.455 E.72397
G1 X103.196 Y92.856 E.01952
M204 S1000
G1 X103.556 Y92.962 F10800
M204 S800
G1 F1200
G1 X103.718 Y92.66 E.01075
G1 X104.164 Y92.219 E.01967
G1 X104.325 Y92.112 E.00606
G1 X104.984 Y91.903 E.02168
G1 X145.031 Y91.907 E1.25565
G1 X145.391 Y91.99 E.01158
G1 X145.756 Y92.162 E.01265
G1 X146.196 Y92.554 E.01848
G1 X146.431 Y92.92 E.01364
G1 X146.597 Y93.483 E.0184
G1 X146.597 Y116.517 E.72221
G1 X146.431 Y117.08 E.0184
G1 X146.282 Y117.34 E.0094
G1 X145.836 Y117.781 E.01967
G1 X145.675 Y117.888 E.00606
G1 X145.016 Y118.097 E.02168
G1 X104.983 Y118.097 E1.25521
G1 X104.42 Y117.931 E.0184
G1 X104.16 Y117.782 E.0094
G1 X103.719 Y117.336 E.01967
G1 X103.612 Y117.175 E.00606
G1 X103.403 Y116.516 E.02168
G1 X103.403 Y93.483 E.72218
G1 X103.539 Y93.019 E.01516
M204 S1000
G1 X103.898 Y93.13 F10800
M204 S800
G1 F1200
G1 X103.921 Y93.055 E.00246
G1 X104.028 Y92.875 E.00657
G1 X104.411 Y92.504 E.01672
G1 X104.507 Y92.443 E.00357
G1 X105.013 Y92.28 E.01667
G1 X145.009 Y92.284 E1.25405
G1 X145.247 Y92.339 E.00766
G1 X145.568 Y92.491 E.01114
G1 X145.923 Y92.815 E.01507
G1 X146.079 Y93.057 E.00903
G1 X146.22 Y93.512 E.01494
G1 X146.22 Y116.488 E.7204
G1 X146.079 Y116.945 E.015
G1 X145.972 Y117.125 E.00657
G1 X145.589 Y117.496 E.01672
G1 X145.493 Y117.557 E.00357
G1 X144.987 Y117.72 E.01667
G1 X105.012 Y117.72 E1.25339
G1 X104.555 Y117.579 E.015
M73 Q3 S35
G1 X104.375 Y117.472 E.00657
G1 X104.004 Y117.089 E.01672
G1 X103.943 Y116.993 E.00357
G1 X103.78 Y116.487 E.01667
G1 X103.78 Y93.512 E.72036
G1 X103.881 Y93.187 E.01067
M204 S1000
G1 X104.236 Y93.304 F10800
M204 S800
G1 F1200
G1 X104.271 Y93.198 E.0035
G1 X104.334 Y93.097 E.00373
G1 X104.653 Y92.794 E.01379
G1 X105.044 Y92.657 E.01299
G1 X144.987 Y92.661 E1.25238
G1 X145.104 Y92.688 E.00376
M73 P4 R35
M73 Q4 S35
G1 X145.378 Y92.818 E.00951
G1 X145.647 Y93.073 E.01162
G1 X145.73 Y93.2 E.00476
G1 X145.843 Y93.544 E.01135
G1 X145.843 Y116.456 E.71839
G1 X145.729 Y116.802 E.01142
G1 X145.666 Y116.903 E.00373
G1 X145.347 Y117.206 E.01379
G1 X144.956 Y117.343 E.01299
G1 X105.044 Y117.343 E1.25141
G1 X104.698 Y117.229 E.01142
G1 X104.597 Y117.166 E.00373
G1 X104.294 Y116.847 E.01379
G1 X104.157 Y116.456 E.01299
G1 X104.157 Y93.544 E.71839
G1 X104.217 Y93.361 E.00604
M204 S1000
G1 X104.568 Y93.487 F10800
M204 S800
G1 F1200
G1 X104.632 Y93.328 E.00537
G1 X104.866 Y93.111 E.01001
G1 X105.079 Y93.034 E.0071
G1 X144.935 Y93.034 E1.24966
G1 X145.185 Y93.144 E.00856
G1 X145.384 Y93.352 E.00903
G1 X145.466 Y93.579 E.00757
G1 X145.466 Y116.421 E.71619
G1 X145.384 Y116.648 E.00757
G1 X145.134 Y116.889 E.01089
G1 X144.921 Y116.966 E.0071
G1 X105.079 Y116.966 E1.24922
G1 X104.852 Y116.884 E.00757
G1 X104.611 Y116.634 E.01089
G1 X104.534 Y116.421 E.0071
G1 X104.534 Y93.579 E.71619
G1 X104.547 Y93.543 E.0012
M204 S1000
G1 X104.911 Y93.621 F10800
M204 S800
G1 F1200
G1 X104.94 Y93.552 E.00235
G1 X105.052 Y93.44 E.00497
G1 X105.121 Y93.411 E.00235
G1 X144.879 Y93.411 E1.24658
G1 X144.948 Y93.44 E.00235
G1 X145.06 Y93.552 E.00497
G1 X145.089 Y93.621 E.00235
G1 X145.089 Y116.379 E.71356
G1 X145.06 Y116.448 E.00235
G1 X144.948 Y116.56 E.00497
G1 X144.879 Y116.589 E.00235
G1 X105.121 Y116.589 E1.24658
G1 X105.052 Y116.56 E.00235
G1 X104.94 Y116.448 E.00497
G1 X104.911 Y116.379 E.00235
G1 X104.911 Y93.681 E.71168
M204 S1000
; printing object RedHandledNeedleNose.stl id:0 copy 0
;WIPE_START
G1 F8640
G1 X104.94 Y93.552 E-.03053
G1 X105.052 Y93.44 E-.03657
G1 X105.121 Y93.411 E-.01728
G1 X108.22 Y93.411 E-.71562
;WIPE_END
G1 Z.6 F720
G1 X106.944 Y94.857 F10800
G1 Z.2 F720
G1 E.8 F2100
M204 S800
;TYPE:Perimeter
;WIDTH:0.60727
G1 F1200
G1 X106.928 Y94.867 E.00089
;WIDTH:0.569437
G1 X106.757 Y94.977 E.0089
;WIDTH:0.531604
G1 X106.586 Y95.086 E.00824
;WIDTH:0.542727
G1 X106.418 Y95.432 E.01598
;WIDTH:0.591684
G1 X106.25 Y95.779 E.01759
G1 X106.226 Y95.24 E.02462
;WIDTH:0.542727
G1 X106.201 Y94.701 E.02242
;WIDTH:0.49377
G1 X106.426 Y94.701 E.00843
;WIDTH:0.531604
G1 X106.651 Y94.72 E.00918
;WIDTH:0.569437
G1 X106.875 Y94.739 E.00984
;WIDTH:0.60727
G1 X107.099 Y94.758 E.01055
G1 X106.995 Y94.825 E.00581
M204 S1000
;WIPE_START
G1 F8640
G1 X106.928 Y94.867 E-.01826
G1 X106.757 Y94.977 E-.04695
G1 X106.586 Y95.086 E-.04682
G1 X106.418 Y95.432 E-.08881
G1 X106.25 Y95.779 E-.08902
G1 X106.226 Y95.24 E-.12458
G1 X106.201 Y94.701 E-.12459
G1 X106.426 Y94.701 E-.05195
G1 X106.651 Y94.72 E-.05214
G1 X106.875 Y94.739 E-.05191
G1 X107.099 Y94.758 E-.05191
G1 X106.995 Y94.825 E-.02857
;WIPE_END
G1 E-.02449 F2100
G1 Z.6 F720
G1 X106.258 Y114.401 F10800
G1 Z.2 F720
G1 E.8 F2100
M204 S800
G1 F1200
G1 X106.367 Y114.572 E.00952
;WIDTH:0.569437
G1 X106.477 Y114.743 E.0089
;WIDTH:0.531604
G1 X106.586 Y114.914 E.00824
;WIDTH:0.542727
G1 X106.932 Y115.082 E.01598
;WIDTH:0.591684
G1 X107.279 Y115.25 E.01759
G1 X106.74 Y115.274 E.02462
;WIDTH:0.542727
G1 X106.201 Y115.299 E.02242
;WIDTH:0.49377
G1 X106.201 Y115.074 E.00843
;WIDTH:0.531604
G1 X106.22 Y114.849 E.00918
;WIDTH:0.569437
G1 X106.239 Y114.625 E.00984
;WIDTH:0.60727
G1 X106.253 Y114.46 E.00777
M204 S1000
;WIPE_START
G1 F8640
G1 X106.367 Y114.572 E-.0369
G1 X106.477 Y114.743 E-.04695
G1 X106.586 Y114.914 E-.04682
G1 X106.932 Y115.082 E-.08881
G1 X107.279 Y115.25 E-.08902
G1 X106.74 Y115.274 E-.12458
G1 X106.201 Y115.299 E-.12459
G1 X106.201 Y115.074 E-.05195
G1 X106.22 Y114.849 E-.05214
G1 X106.239 Y114.625 E-.05191
G1 X106.253 Y114.46 E-.03824
;WIPE_END
G1 E-.04809 F2100
G1 Z.6 F720
G1 X142.901 Y115.242 F10800
G1 Z.2 F720
G1 E.8 F2100
M204 S800
G1 F1200
G1 X143.072 Y115.133 E.00952
;WIDTH:0.569438
G1 X143.243 Y115.023 E.0089
;WIDTH:0.531605
G1 X143.414 Y114.914 E.00824
G1 X143.523 Y114.743 E.00824
;WIDTH:0.569438
G1 X143.633 Y114.572 E.0089
;WIDTH:0.60727
G1 X143.742 Y114.401 E.00952
G1 X143.761 Y114.7 E.01406
;WIDTH:0.569438
G1 X143.78 Y114.999 E.01312
;WIDTH:0.531605
G1 X143.799 Y115.299 E.01221
;WIDTH:0.493772
G1 X143.574 Y115.299 E.00843
;WIDTH:0.531605
G1 X143.349 Y115.28 E.00918
;WIDTH:0.569438
G1 X143.125 Y115.261 E.00984
;WIDTH:0.60727
G1 X142.96 Y115.247 E.00777
M204 S1000
;WIPE_START
G1 F8640
G1 X143.072 Y115.133 E-.0369
G1 X143.243 Y115.023 E-.04695
G1 X143.414 Y114.914 E-.04682
G1 X143.523 Y114.743 E-.04682
G1 X143.633 Y114.572 E-.04695
G1 X143.742 Y114.401 E-.04682
G1 X143.761 Y114.7 E-.06918
G1 X143.78 Y114.999 E-.06918
G1 X143.799 Y115.299 E-.06941
G1 X143.574 Y115.299 E-.05195
G1 X143.349 Y115.28 E-.05214
G1 X143.125 Y115.261 E-.05191
G1 X142.96 Y115.247 E-.03824
;WIPE_END
G1 E-.12673 F2100
G1 Z.6 F720
G1 X143.75 Y95.779 F10800
G1 Z.2 F720
G1 E.8 F2100
M204 S800
;WIDTH:0.591684
G1 F1200
G1 X143.582 Y95.432 E.01759
;WIDTH:0.542728
G1 X143.414 Y95.086 E.01598
G1 X143.068 Y94.918 E.01598
;WIDTH:0.591684
G1 X142.721 Y94.75 E.01759
G1 X143.26 Y94.726 E.02462
;WIDTH:0.542728
G1 X143.799 Y94.701 E.02242
;WIDTH:0.493772
G1 X143.799 Y94.926 E.00843
;WIDTH:0.542728
G1 X143.774 Y95.353 E.01778
;WIDTH:0.591684
G1 X143.753 Y95.719 E.01673
M204 S1000
;WIPE_START
M73 P5 R35
G1 F8640
G1 X143.582 Y95.432 E-.07714
G1 X143.414 Y95.086 E-.08881
G1 X143.068 Y94.918 E-.08881
G1 X142.721 Y94.75 E-.08902
G1 X143.26 Y94.726 E-.12458
G1 X143.799 Y94.701 E-.12459
G1 X143.799 Y94.926 E-.05195
G1 X143.774 Y95.353 E-.09876
G1 X143.76 Y95.597 E-.05634
;WIPE_END
G1 Z.6 F720
G1 X144.213 Y115.713 F10800
G1 Z.2 F720
G1 E.8 F2100
M204 S800
;WIDTH:0.419999
G1 F1200
G1 X105.787 Y115.713 E1.20482
G1 X105.787 Y94.287 E.6718
M73 Q5 S35
G1 X144.213 Y94.287 E1.20482
G1 X144.213 Y115.653 E.66991
M204 S1000
G1 X144.59 Y116.09 F10800
M204 S800
;TYPE:External perimeter
G1 F1200
G1 X105.41 Y116.09 E1.22846
G1 X105.41 Y93.91 E.69544
M73 P5 R34
G1 X144.59 Y93.91 E1.22846
G1 X144.59 Y116.03 E.69356
M204 S1000
G1 X144.196 Y116.022 F10800
