; generated by PrusaSlicer 2.7.4+linux-x64-GTK3 on 2024-06-06 at 12:59:19 UTC


;
;
; 

; external perimeters extrusion width = 0.68mm
; perimeters extrusion width = 0.68mm
; infill extrusion width = 0.68mm
; solid infill extrusion width = 0.68mm
; top infill extrusion width = 0.60mm
; first layer extrusion width = 0.65mm

M73 P0 R110
M73 Q0 S111
M201 X1000 Y1000 Z200 E5000 ; sets maximum accelerations, mm/sec^2
M203 X200 Y200 Z12 E120 ; sets maximum feedrates, mm / sec
M204 S1250 T1250 ; sets acceleration (S) and retract acceleration (R), mm/sec^2
M205 X8.00 Y8.00 Z0.40 E4.50 ; sets the jerk limits, mm/sec
M205 S0 T0 ; sets the minimum extruding and travel feed rate, mm/sec

; printing object Full_Cylinder_Bushing_Parametric-Creality_Spool.stl id:0 copy 0
; stop printing object Full_Cylinder_Bushing_Parametric-Creality_Spool.stl id:0 copy 0

;TYPE:Custom
M862.3 P "MK3S" ; printer model check
M862.1 P0.6 ; nozzle diameter check
M115 U3.13.3 ; tell printer latest fw version
G90 ; use absolute coordinates
M83 ; extruder relative mode
M104 S235 ; set extruder temp
M140 S90 ; set bed temp
M190 S90 ; wait for bed temp
M109 S235 ; wait for extruder temp
G28 W ; home all without mesh bed level
G80 X95.0151 Y75.0226 W59.9698 H59.9548 ; mesh bed levelling

G1 Z0.2 F720
G1 Y-3 F1000 ; go outside print area
G92 E0
G1 X60 E9 F1000 ; intro line
G1 X100 E12.5 F1000 ; intro line

G92 E0
M221 S95

; Don't change E values below. Excessive value can damage the printer.

G21 ; set units to millimeters
G90 ; use absolute coordinates
M83 ; use relative distances for extrusion

M900 K0.04 ; Filament gcode LA 1.5
M900 K24 ; Filament gcode LA 1.0




M107
;LAYER_CHANGE
;Z:0.2
;HEIGHT:0.2
G1 E-1 F2100
G1 Z.4 F720
G1 X102.534 Y85.654 F10800
G1 Z.2 F720
G1 E1 F2100
M204 S800
;TYPE:Skirt/Brim
;WIDTH:0.65
G1 F1200
G1 X103.198 Y84.859 E.05229
G1 X104.735 Y83.323 E.10969
G1 X106.545 Y81.754 E.12092
G1 X108.951 Y80.032 E.14935
G1 X111.517 Y78.558 E.14938
G1 X114.217 Y77.347 E.14937
G1 X117.024 Y76.41 E.14938
G1 X119.91 Y75.758 E.14935
G1 X122.847 Y75.397 E.14937
G1 X125.805 Y75.329 E.14936
G1 X128.626 Y75.541 E.1428
G1 X131.541 Y76.048 E.14935
G1 X134.392 Y76.843 E.14941
G1 X137.148 Y77.918 E.14933
G1 X139.784 Y79.263 E.14938
G1 X142.274 Y80.863 E.1494
G1 X144.591 Y82.702 E.14932
G1 X146.714 Y84.764 E.1494
G1 X148.621 Y87.026 E.14935
G1 X150.293 Y89.468 E.14939
G1 X151.714 Y92.063 E.14935
G1 X152.869 Y94.787 E.14935
G1 X153.748 Y97.613 E.14939
G1 X154.34 Y100.512 E.14936
G1 X154.641 Y103.456 E.14938
G1 X154.648 Y106.415 E.14937
G1 X154.36 Y109.36 E.14937
G1 X153.78 Y112.261 E.14934
G1 X153.344 Y113.811 E.08128
G1 X152.325 Y116.589 E.14937
G1 X151.036 Y119.252 E.14934
G1 X149.487 Y121.774 E.1494
G1 X147.696 Y124.129 E.14935
G1 X145.678 Y126.293 E.14936
G1 X143.455 Y128.246 E.14937
G1 X141.049 Y129.968 E.14935
G1 X138.483 Y131.442 E.14938
G1 X135.783 Y132.653 E.14937
G1 X132.976 Y133.59 E.14938
G1 X130.09 Y134.242 E.14935
G1 X127.153 Y134.603 E.14937
G1 X124.195 Y134.671 E.14936
G1 X121.245 Y134.443 E.14936
G1 X118.332 Y133.923 E.14937
G1 X115.485 Y133.115 E.14939
G1 X112.733 Y132.028 E.14936
G1 X110.103 Y130.672 E.14937
G1 X107.621 Y129.062 E.14934
G1 X105.311 Y127.212 E.14939
G1 X103.198 Y125.141 E.14935
G1 X101.301 Y122.87 E.14937
G1 X99.707 Y120.532 E.14284
G1 X98.286 Y117.937 E.14935
G1 X97.131 Y115.213 E.14935
G1 X96.252 Y112.387 E.14939
G1 X95.66 Y109.488 E.14936
G1 X95.359 Y106.544 E.14938
G1 X95.352 Y103.585 E.14937
G1 X95.64 Y100.64 E.14937
G1 X96.22 Y97.739 E.14934
G1 X97.086 Y94.909 E.14939
G1 X98.23 Y92.18 E.14937
G1 X99.639 Y89.579 E.14932
G1 X101.301 Y87.13 E.1494
G1 X102.476 Y85.723 E.09253
M204 S1000
;WIPE_START
G1 F8640
G1 X102.534 Y85.654 E-.02081
G1 X103.198 Y84.859 E-.23917
G1 X104.735 Y83.323 E-.50174
G1 X105.515 Y82.647 E-.23828
;WIPE_END
G1 Z.4 F720
; printing object Full_Cylinder_Bushing_Parametric-Creality_Spool.stl id:0 copy 0
G1 X150.415 Y104.99 F10800
G1 Z.2 F720
G1 E1 F2100
M204 S800
;TYPE:External perimeter
;WIDTH:0.650051
G1 F1200
G1 X150.416 Y105.008 E.00091
G1 X150.385 Y106.244 E.06242
G1 X150.291 Y107.508 E.06399
G1 X150.135 Y108.766 E.06399
G1 X149.916 Y110.014 E.06397
G1 X149.635 Y111.249 E.06394
G1 X149.293 Y112.47 E.06401
G1 X148.891 Y113.671 E.06394
G1 X148.429 Y114.851 E.06397
G1 X147.908 Y116.007 E.06401
G1 X147.331 Y117.135 E.06396
G1 X146.699 Y118.233 E.06396
G1 X146.012 Y119.298 E.06398
G1 X145.273 Y120.328 E.064
G1 X144.484 Y121.319 E.06395
G1 X143.646 Y122.27 E.06399
G1 X142.762 Y123.178 E.06397
G1 X141.834 Y124.041 E.06398
G1 X140.864 Y124.856 E.06396
G1 X139.855 Y125.623 E.06398
G1 X138.808 Y126.337 E.06398
G1 X137.727 Y126.999 E.06399
G1 X136.615 Y127.606 E.06396
G1 X135.474 Y128.157 E.06397
G1 X134.306 Y128.65 E.064
G1 X133.116 Y129.085 E.06396
G1 X131.905 Y129.459 E.06398
G1 X130.678 Y129.773 E.06394
G1 X129.436 Y130.025 E.06398
G1 X128.183 Y130.215 E.06398
G1 X126.922 Y130.343 E.06399
G1 X125.656 Y130.407 E.06399
G1 X124.389 Y130.408 E.06396
G1 X123.123 Y130.346 E.06399
G1 X121.862 Y130.221 E.06397
G1 X120.609 Y130.033 E.06396
G1 X119.367 Y129.783 E.06396
G1 X118.138 Y129.472 E.064
G1 X116.927 Y129.099 E.06397
G1 X115.736 Y128.667 E.06396
G1 X114.568 Y128.176 E.06396
G1 X113.425 Y127.627 E.06401
G1 X112.312 Y127.022 E.06395
G1 X111.23 Y126.362 E.06398
G1 X110.182 Y125.649 E.06399
G1 X109.171 Y124.885 E.06397
G1 X108.2 Y124.071 E.06397
G1 X107.27 Y123.21 E.06398
G1 X106.385 Y122.304 E.06394
G1 X105.545 Y121.354 E.06402
G1 X104.754 Y120.364 E.06397
G1 X104.014 Y119.336 E.06394
G1 X103.325 Y118.272 E.06399
G1 X102.669 Y117.135 E.06627
G1 X102.092 Y116.007 E.06396
G1 X101.571 Y114.851 E.06401
G1 X101.109 Y113.671 E.06397
G1 X100.707 Y112.47 E.06394
G1 X100.365 Y111.249 E.06401
G1 X100.084 Y110.014 E.06394
G1 X99.865 Y108.766 E.06397
G1 X99.709 Y107.508 E.06399
G1 X99.615 Y106.244 E.06399
G1 X99.584 Y104.977 E.06398
G1 X99.617 Y103.71 E.06398
G1 X99.713 Y102.447 E.06394
G1 X99.872 Y101.19 E.06396
G1 X100.093 Y99.942 E.06398
G1 X100.376 Y98.707 E.06396
G1 X100.72 Y97.487 E.06399
G1 X101.125 Y96.286 E.06398
G1 X101.589 Y95.107 E.06396
G1 X102.111 Y93.952 E.06399
G1 X102.69 Y92.825 E.06396
G1 X103.325 Y91.728 E.06399
G1 X104.014 Y90.664 E.06399
G1 X104.754 Y89.636 E.06394
G1 X105.545 Y88.646 E.06397
G1 X106.385 Y87.696 E.06402
G1 X107.27 Y86.79 E.06394
G1 X108.2 Y85.929 E.06398
G1 X109.171 Y85.115 E.06397
G1 X110.182 Y84.351 E.06397
G1 X111.23 Y83.638 E.06399
G1 X112.312 Y82.978 E.06398
G1 X113.425 Y82.373 E.06395
G1 X114.568 Y81.824 E.06401
G1 X115.736 Y81.333 E.06396
G1 X116.927 Y80.901 E.06396
G1 X118.138 Y80.528 E.06397
G1 X119.367 Y80.217 E.064
G1 X120.609 Y79.967 E.06396
G1 X121.862 Y79.779 E.06396
G1 X123.123 Y79.654 E.06397
G1 X124.344 Y79.593 E.06172
G1 X125.611 Y79.592 E.06396
G1 X126.877 Y79.654 E.06399
G1 X128.138 Y79.779 E.06397
G1 X129.436 Y79.975 E.06627
G1 X130.678 Y80.227 E.06398
G1 X131.905 Y80.541 E.06394
G1 X133.116 Y80.915 E.06398
G1 X134.306 Y81.35 E.06396
G1 X135.474 Y81.843 E.064
G1 X136.615 Y82.394 E.06397
G1 X137.727 Y83.001 E.06396
G1 X138.808 Y83.663 E.06399
G1 X139.855 Y84.377 E.06398
G1 X140.864 Y85.144 E.06398
G1 X141.834 Y85.959 E.06396
G1 X142.762 Y86.822 E.06398
G1 X143.646 Y87.73 E.06397
G1 X144.484 Y88.681 E.06399
G1 X145.273 Y89.672 E.06395
G1 X146.012 Y90.702 E.064
G1 X146.699 Y91.767 E.06398
G1 X147.331 Y92.865 E.06396
G1 X147.908 Y93.993 E.06396
G1 X148.429 Y95.149 E.06401
G1 X148.891 Y96.329 E.06397
G1 X149.293 Y97.53 E.06394
G1 X149.635 Y98.751 E.06401
G1 X149.916 Y99.986 E.06394
G1 X150.135 Y101.234 E.06397
G1 X150.291 Y102.492 E.06399
G1 X150.385 Y103.756 E.06399
G1 X150.413 Y104.9 E.05777
M204 S1000
;WIPE_START
G1 F8640
G1 X150.415 Y104.99 E-.02079
G1 X150.416 Y105.008 E-.00416
G1 X150.385 Y106.244 E-.28549
G1 X150.291 Y107.508 E-.29267
G1 X150.135 Y108.766 E-.2927
G1 X150.057 Y109.21 E-.10419
;WIPE_END
G1 Z.4 F720
G1 X141.41 Y86.394 F10800
G1 Z.2 F720
G1 E1 F2100
M204 S800
;WIDTH:0.649958
G1 F1200
G1 X142.317 Y87.235 E.06243
G1 X143.181 Y88.12 E.06243
G1 X144 Y89.048 E.06247
G1 X144.771 Y90.014 E.06239
G1 X145.494 Y91.019 E.06249
G1 X146.165 Y92.057 E.06239
G1 X146.784 Y93.129 E.06248
G1 X147.349 Y94.229 E.06242
G1 X147.858 Y95.356 E.06242
G1 X148.31 Y96.508 E.06246
G1 X148.704 Y97.68 E.06241
G1 X149.04 Y98.871 E.06246
G1 X149.315 Y100.077 E.06244
G1 X149.53 Y101.295 E.06243
G1 X149.685 Y102.522 E.06243
G1 X149.777 Y103.756 E.06246
G1 X149.809 Y104.992 E.06241
G1 X149.778 Y106.229 E.06246
G1 X149.686 Y107.463 E.06246
G1 X149.533 Y108.69 E.06241
G1 X149.318 Y109.908 E.06243
G1 X149.043 Y111.114 E.06244
G1 X148.709 Y112.305 E.06244
G1 X148.315 Y113.478 E.06246
G1 X147.864 Y114.63 E.06244
G1 X147.355 Y115.757 E.06242
G1 X146.791 Y116.858 E.06244
G1 X146.173 Y117.93 E.06246
G1 X145.502 Y118.969 E.06243
G1 X144.78 Y119.974 E.06246
G1 X144.009 Y120.941 E.06243
G1 X143.191 Y121.869 E.06244
G1 X142.328 Y122.754 E.06239
G1 X141.421 Y123.596 E.06247
G1 X140.474 Y124.391 E.06241
G1 X139.476 Y125.148 E.06323
G1 X138.453 Y125.844 E.06245
G1 X137.398 Y126.489 E.06242
G1 X136.311 Y127.08 E.06245
G1 X135.197 Y127.616 E.0624
G1 X134.071 Y128.091 E.06169
G1 X132.908 Y128.514 E.06247
G1 X131.726 Y128.879 E.06244
G1 X130.528 Y129.185 E.06241
G1 X129.315 Y129.43 E.06246
G1 X128.092 Y129.615 E.06243
G1 X126.861 Y129.739 E.06245
G1 X125.626 Y129.801 E.06242
G1 X124.389 Y129.801 E.06244
G1 X123.154 Y129.74 E.06241
G1 X121.923 Y129.617 E.06244
G1 X120.699 Y129.433 E.06248
G1 X119.487 Y129.188 E.06241
G1 X118.288 Y128.883 E.06245
G1 X117.106 Y128.519 E.06243
G1 X115.943 Y128.096 E.06247
G1 X114.803 Y127.616 E.06243
G1 X113.689 Y127.08 E.0624
G1 X112.602 Y126.489 E.06245
G1 X111.547 Y125.844 E.06242
G1 X110.524 Y125.148 E.06245
G1 X109.538 Y124.401 E.06244
G1 X108.59 Y123.606 E.06245
G1 X107.683 Y122.765 E.06243
G1 X106.819 Y121.88 E.06243
G1 X106 Y120.952 E.06247
G1 X105.229 Y119.986 E.06239
G1 X104.506 Y118.981 E.06249
G1 X103.835 Y117.943 E.06239
G1 X103.216 Y116.871 E.06248
G1 X102.651 Y115.771 E.06242
G1 X102.142 Y114.644 E.06242
G1 X101.69 Y113.492 E.06246
G1 X101.296 Y112.32 E.06241
G1 X100.96 Y111.129 E.06246
G1 X100.685 Y109.923 E.06244
G1 X100.47 Y108.705 E.06243
G1 X100.315 Y107.478 E.06243
G1 X100.223 Y106.244 E.06246
G1 X100.191 Y105.008 E.06241
G1 X100.222 Y103.771 E.06246
G1 X100.314 Y102.537 E.06246
G1 X100.467 Y101.31 E.06241
G1 X100.682 Y100.092 E.06243
G1 X100.957 Y98.886 E.06244
G1 X101.291 Y97.695 E.06244
G1 X101.685 Y96.522 E.06246
G1 X102.136 Y95.37 E.06244
G1 X102.645 Y94.243 E.06242
G1 X103.209 Y93.142 E.06244
G1 X103.827 Y92.07 E.06246
G1 X104.498 Y91.031 E.06243
G1 X105.22 Y90.026 E.06246
G1 X105.991 Y89.059 E.06243
G1 X106.809 Y88.131 E.06244
G1 X107.672 Y87.246 E.06239
G1 X108.579 Y86.404 E.06247
G1 X109.526 Y85.609 E.06241
G1 X110.524 Y84.852 E.06323
G1 X111.547 Y84.156 E.06245
G1 X112.602 Y83.511 E.06242
G1 X113.689 Y82.92 E.06245
G1 X114.803 Y82.384 E.0624
G1 X115.943 Y81.904 E.06243
G1 X117.092 Y81.486 E.06171
G1 X118.274 Y81.121 E.06244
G1 X119.472 Y80.815 E.06241
G1 X120.685 Y80.57 E.06246
G1 X121.908 Y80.385 E.06243
G1 X123.139 Y80.261 E.06245
G1 X124.374 Y80.199 E.06242
G1 X125.611 Y80.199 E.06244
G1 X126.846 Y80.26 E.06241
G1 X128.077 Y80.383 E.06244
G1 X129.301 Y80.567 E.06248
G1 X130.513 Y80.812 E.06241
G1 X131.712 Y81.117 E.06245
G1 X132.894 Y81.481 E.06243
G1 X134.057 Y81.904 E.06247
G1 X135.197 Y82.384 E.06243
G1 X136.311 Y82.92 E.0624
G1 X137.398 Y83.511 E.06245
G1 X138.453 Y84.156 E.06242
G1 X139.476 Y84.852 E.06245
G1 X140.462 Y85.599 E.06244
G1 X141.341 Y86.336 E.0579
M204 S1000
;LAYER_CHANGE
;Z:0.6
;HEIGHT:0.4
;BEFORE_LAYER_CHANGE
G92 E0.0
;0.6


;WIPE_START
G1 F8640
G1 X141.41 Y86.394 E-.02081
G1 X142.317 Y87.235 E-.2856
G1 X143.181 Y88.12 E-.28558
G1 X144 Y89.048 E-.28579
G1 X144.33 Y89.462 E-.12222
;WIPE_END
G1 Z.6 F720
;AFTER_LAYER_CHANGE
;0.6
M104 S240 ; set temperature
; stop printing object Full_Cylinder_Bushing_Parametric-Creality_Spool.stl id:0 copy 0
G1 Z.8
M73 Q0 S110
G1 X148.039 Y86.336 F10800
G1 Z.6 F720
G1 E1 F2100
;TYPE:Skirt/Brim
;WIDTH:0.65
G1 F2127.059
G1 X148.621 Y87.026 E.08469
G1 X150.293 Y89.468 E.27767
G1 X151.714 Y92.063 E.27758
G1 X152.869 Y94.787 E.27759
G1 X153.748 Y97.613 E.27766
G1 X154.34 Y100.512 E.2776
G1 X154.641 Y103.456 E.27765
G1 X154.648 Y106.415 E.27761
G1 X154.36 Y109.36 E.27762
G1 X153.78 Y112.261 E.27756
G1 X153.344 Y113.811 E.15106
G1 X152.325 Y116.589 E.27761
G1 X151.036 Y119.252 E.27757
G1 X149.487 Y121.774 E.27768
G1 X147.696 Y124.129 E.27758
G1 X145.678 Y126.293 E.27761
G1 X143.455 Y128.246 E.27762
G1 X141.049 Y129.968 E.27759
G1 X138.483 Y131.442 E.27763
G1 X135.783 Y132.653 E.27763
G1 X132.976 Y133.59 E.27764
G1 X130.09 Y134.242 E.27759
G1 X127.153 Y134.603 E.27762
G1 X124.195 Y134.671 E.27759
G1 X121.245 Y134.443 E.27759
G1 X118.332 Y133.923 E.27762
G1 X115.485 Y133.115 E.27765
G1 X112.733 Y132.028 E.2776
G1 X110.103 Y130.672 E.27761
G1 X107.621 Y129.062 E.27756
G1 X105.311 Y127.212 E.27766
G1 X103.198 Y125.141 E.27758
G1 X101.301 Y122.87 E.27762
G1 X99.707 Y120.532 E.26548
G1 X98.286 Y117.937 E.27758
G1 X97.131 Y115.213 E.27759
G1 X96.252 Y112.387 E.27766
G1 X95.66 Y109.488 E.2776
G1 X95.359 Y106.544 E.27765
G1 X95.352 Y103.585 E.27761
G1 X95.64 Y100.64 E.27762
G1 X96.22 Y97.739 E.27756
G1 X97.086 Y94.909 E.27766
G1 X98.23 Y92.18 E.27762
G1 X99.639 Y89.579 E.27753
G1 X101.301 Y87.13 E.27768
G1 X103.198 Y84.859 E.27762
G1 X104.735 Y83.323 E.20387
G1 X106.545 Y81.754 E.22474
G1 X108.951 Y80.032 E.27759
G1 X111.517 Y78.558 E.27763
G1 X114.217 Y77.347 E.27763
G1 X117.024 Y76.41 E.27764
G1 X119.91 Y75.758 E.27759
G1 X122.847 Y75.397 E.27762
G1 X125.805 Y75.329 E.27759
G1 X128.626 Y75.541 E.26541
G1 X131.541 Y76.048 E.27759
G1 X134.392 Y76.843 E.27769
G1 X137.148 Y77.918 E.27754
G1 X139.784 Y79.263 E.27764
G1 X142.274 Y80.863 E.27768
G1 X144.591 Y82.702 E.27753
G1 X146.714 Y84.764 E.27767
G1 X147.981 Y86.267 E.18443
;WIPE_START
G1 F8640
G1 X148.039 Y86.336 E-.02081
G1 X148.621 Y87.026 E-.20843
G1 X150.293 Y89.468 E-.68337
G1 X150.475 Y89.8 E-.08739
;WIPE_END
G1 Z.8 F720
; printing object Full_Cylinder_Bushing_Parametric-Creality_Spool.stl id:0 copy 0
G1 X150.529 Y105.01 F10800
G1 Z.6 F720
G1 E1 F2100
M204 S800
;TYPE:Perimeter
;WIDTH:0.920298
G1 F1438.061
G1 X150.529 Y105.046 E.005
;WIDTH:0.920076
G1 X150.499 Y106.227 E.1639
G1 X150.406 Y107.496 E.17653
G1 X150.25 Y108.759 E.17655
G1 X150.032 Y110.013 E.17658
G1 X149.751 Y111.255 E.17666
G1 X149.408 Y112.481 E.17662
G1 X149.005 Y113.688 E.17654
G1 X148.542 Y114.874 E.17663
G1 X148.02 Y116.035 E.1766
G1 X147.442 Y117.169 E.17658
G1 X146.807 Y118.272 E.17657
G1 X146.119 Y119.343 E.1766
G1 X145.377 Y120.378 E.17668
G1 X144.586 Y121.374 E.17645
G1 X143.745 Y122.33 E.17665
G1 X142.858 Y123.243 E.1766
G1 X141.926 Y124.11 E.1766
G1 X140.953 Y124.93 E.17653
G1 X139.94 Y125.701 E.17661
G1 X138.889 Y126.42 E.17666
G1 X137.804 Y127.085 E.17655
G1 X136.687 Y127.696 E.17663
G1 X135.542 Y128.251 E.17653
G1 X134.369 Y128.747 E.17669
G1 X133.174 Y129.185 E.17657
G1 X131.958 Y129.562 E.17662
G1 X130.725 Y129.878 E.17659
G1 X129.478 Y130.133 E.17658
G1 X128.129 Y130.336 E.18926
G1 X126.862 Y130.461 E.17663
G1 X125.59 Y130.522 E.17667
G1 X124.41 Y130.522 E.16371
G1 X123.138 Y130.461 E.17667
G1 X121.871 Y130.336 E.17663
G1 X120.612 Y130.149 E.17658
G1 X119.364 Y129.899 E.17658
G1 X118.13 Y129.587 E.17658
G1 X116.913 Y129.214 E.17659
G1 X115.716 Y128.781 E.1766
G1 X114.542 Y128.288 E.17665
G1 X113.395 Y127.738 E.17648
G1 X112.276 Y127.131 E.17661
G1 X111.188 Y126.47 E.17662
G1 X110.135 Y125.754 E.17666
G1 X109.119 Y124.988 E.17653
G1 X108.143 Y124.171 E.17658
G1 X107.208 Y123.307 E.17662
G1 X106.318 Y122.398 E.17649
G1 X105.474 Y121.445 E.17661
G1 X104.678 Y120.451 E.17667
G1 X103.933 Y119.419 E.17658
G1 X103.241 Y118.351 E.17655
G1 X102.602 Y117.25 E.17661
G1 X102.019 Y116.118 E.17665
G1 X101.494 Y114.959 E.17652
G1 X101.027 Y113.775 E.17658
G1 X100.619 Y112.569 E.17663
G1 X100.272 Y111.344 E.17664
G1 X99.987 Y110.104 E.17652
G1 X99.763 Y108.85 E.17673
G1 X99.603 Y107.588 E.17648
G1 X99.505 Y106.318 E.17672
G1 X99.471 Y105.046 E.17653
