; generated by PrusaSlicer 2.6.1+linux-x64-GTK3 on 2023-09-06 at 23:40:40 UTC


;
;
; 

; external perimeters extrusion width = 0.45mm
; perimeters extrusion width = 0.45mm
; infill extrusion width = 0.45mm
; solid infill extrusion width = 0.45mm
; top infill extrusion width = 0.40mm
; first layer extrusion width = 0.42mm

M73 P0 R114
M73 C97
M73 Q0 S115
M73 D98
M201 X1000 Y1000 Z200 E5000 ; sets maximum accelerations, mm/sec^2
M203 X200 Y200 Z12 E120 ; sets maximum feedrates, mm / sec
M204 S1250 T1250 ; sets acceleration (S) and retract acceleration (R), mm/sec^2
M205 X8.00 Y8.00 Z0.40 E4.50 ; sets the jerk limits, mm/sec
M205 S0 T0 ; sets the minimum extruding and travel feed rate, mm/sec
;TYPE:Custom
M862.3 P "MK3S" ; printer model check
M862.1 P0.4 ; nozzle diameter check
M115 U3.13.0 ; tell printer latest fw version
G90 ; use absolute coordinates
M83 ; extruder relative mode
M104 S215 ; set extruder temp
M140 S60 ; set bed temp
M190 S60 ; wait for bed temp
M109 S215 ; wait for extruder temp
G28 W ; home all without mesh bed level
G80 ; mesh bed leveling

G1 Z0.2 F720
G1 Y-3 F1000 ; go outside print area
G92 E0
G1 X60 E9 F1000 ; intro line
G1 X100 E12.5 F1000 ; intro line

G92 E0
M221 S95

; Don't change E values below. Excessive value can damage the printer.
M907 E430 ; set extruder motor current
G21 ; set units to millimeters
G90 ; use absolute coordinates
M83 ; use relative distances for extrusion
M900 K0.05 ; Filament gcode LA 1.5
M900 K30 ; Filament gcode LA 1.0
M107
;LAYER_CHANGE
;Z:0.2
;HEIGHT:0.2
;BEFORE_LAYER_CHANGE
G92 E0.0
;0.2


G1 E-.8 F2100
G1 Z.4 F720
;AFTER_LAYER_CHANGE
;0.2
G1 X43.06 Y86.015 F10800
G1 Z.2 F720
G1 E.8 F2100
M204 S800
;TYPE:Skirt/Brim
;WIDTH:0.42
G1 F1200
G1 X44 Y85.821 E.03009
G1 X206 Y85.821 E5.0794
G1 X207.307 Y86.213 E.04278
M73 Q0 S114
G1 X208.183 Y87.258 E.04275
G1 X208.377 Y88.198 E.03009
G1 X208.377 Y121.802 E1.05363
G1 X207.985 Y123.109 E.04278
G1 X206.94 Y123.985 E.04275
G1 X206 Y124.179 E.03009
G1 X44 Y124.179 E5.0794
G1 X42.693 Y123.787 E.04278
M73 D97
G1 X41.817 Y122.742 E.04275
G1 X41.623 Y121.802 E.03009
G1 X41.623 Y88.198 E1.05363
G1 X42.015 Y86.891 E.04278
G1 X43.014 Y86.053 E.04088
M204 S1000
; printing object FY-Strip.stl id:0 copy 0
;WIPE_START
G1 F8640
G1 X44 Y85.821 E-.23389
G1 X46.452 Y85.821 E-.56611
;WIPE_END
G1 Z.6 F720
G1 X44.787 Y121.015 F10800
G1 Z.2 F720
G1 E.8 F2100
M204 S800
;TYPE:Perimeter
;WIDTH:0.419999
G1 F1200
G1 X44.787 Y88.985 E1.00428
G1 X205.213 Y88.985 E5.03004
G1 X205.213 Y121.015 E1.00428
G1 X44.847 Y121.015 E5.02815
M204 S1000
G1 X44.41 Y121.392 F10800
M204 S800
;TYPE:External perimeter
M73 P0 R113
G1 F1200
G1 X44.41 Y88.608 E1.02792
G1 X205.59 Y88.608 E5.05368
G1 X205.59 Y121.392 E1.02792
M73 C96
G1 X44.47 Y121.392 E5.0518
M204 S1000
G1 X44.586 Y121.033 F10800
;WIPE_START
G1 F8640
G1 X44.464 Y117.927 E-.8
;WIPE_END
G1 Z.6 F720
G1 X205.043 Y89.919 F10800
G1 Z.2 F720
G1 E.8 F2100
M204 S800
;TYPE:Solid infill
;WIDTH:0.420803
M73 Q1 S114
G1 F1200
G1 X204.449 Y89.324 E.02642
G1 X203.915 Y89.324 E.01678
G1 X204.874 Y90.283 E.04261
G1 X204.874 Y90.818 E.01681
G1 X203.38 Y89.324 E.06639
G1 X202.846 Y89.324 E.01678
G1 X204.874 Y91.352 E.09012
G1 X204.874 Y91.887 E.01681
G1 X202.311 Y89.324 E.11389
G1 X201.777 Y89.324 E.01678
M73 P1 R113
G1 X204.874 Y92.421 E.13762
G1 X204.874 Y92.955 E.01678
G1 X201.243 Y89.324 E.16135
G1 X200.708 Y89.324 E.01681
G1 X204.874 Y93.49 E.18512
G1 X204.874 Y94.024 E.01678
G1 X200.174 Y89.324 E.20885
G1 X199.639 Y89.324 E.01681
G1 X204.874 Y94.559 E.23262
G1 X204.874 Y95.093 E.01678
G1 X199.105 Y89.324 E.25635
G1 X198.57 Y89.324 E.01681
G1 X204.874 Y95.628 E.28013
G1 X204.874 Y96.162 E.01678
G1 X198.036 Y89.324 E.30385
G1 X197.502 Y89.324 E.01678
M73 Q1 S113
G1 X204.874 Y96.696 E.32758
G1 X204.874 Y97.231 E.01681
G1 X196.967 Y89.324 E.35136
G1 X196.433 Y89.324 E.01678
G1 X204.874 Y97.765 E.37509
G1 X204.874 Y98.3 E.01681
G1 X195.898 Y89.324 E.39886
G1 X195.364 Y89.324 E.01678
G1 X204.874 Y98.834 E.42259
G1 X204.874 Y99.368 E.01678
G1 X194.83 Y89.324 E.44632
G1 X194.295 Y89.324 E.01681
G1 X204.874 Y99.903 E.47009
G1 X204.874 Y100.437 E.01678
G1 X193.761 Y89.324 E.49382
G1 X193.226 Y89.324 E.01681
G1 X204.874 Y100.972 E.51759
G1 X204.874 Y101.506 E.01678
M73 D96
G1 X192.692 Y89.324 E.54132
G1 X192.158 Y89.324 E.01678
G1 X204.874 Y102.04 E.56505
G1 X204.874 Y102.575 E.01681
G1 X191.623 Y89.324 E.58882
G1 X191.089 Y89.324 E.01678
G1 X204.874 Y103.109 E.61255
G1 X204.874 Y103.644 E.01681
G1 X190.554 Y89.324 E.63633
G1 X190.02 Y89.324 E.01678
G1 X204.874 Y104.178 E.66005
G1 X204.874 Y104.712 E.01678
G1 X189.486 Y89.324 E.68378
G1 X188.951 Y89.324 E.01681
G1 X204.874 Y105.247 E.70756
G1 X204.874 Y105.781 E.01678
G1 X188.417 Y89.324 E.73129
G1 X187.882 Y89.324 E.01681
G1 X204.874 Y106.316 E.75506
G1 X204.874 Y106.85 E.01678
G1 X187.348 Y89.324 E.77879
G1 X186.814 Y89.324 E.01678
G1 X204.874 Y107.384 E.80252
G1 X204.874 Y107.919 E.01681
G1 X186.279 Y89.324 E.82629
G1 X185.745 Y89.324 E.01678
G1 X204.874 Y108.453 E.85002
G1 X204.874 Y108.988 E.01681
G1 X185.21 Y89.324 E.87379
G1 X184.676 Y89.324 E.01678
G1 X204.874 Y109.522 E.89752
G1 X204.874 Y110.057 E.01681
G1 X184.141 Y89.324 E.92129
G1 X183.607 Y89.324 E.01678
G1 X204.874 Y110.591 E.94502
G1 X204.874 Y111.125 E.01678
G1 X183.073 Y89.324 E.96875
G1 X182.538 Y89.324 E.01681
G1 X204.874 Y111.66 E.99253
G1 X204.874 Y112.194 E.01678
M73 P1 R112
G1 X182.004 Y89.324 E1.01625
G1 X181.469 Y89.324 E.01681
G1 X204.874 Y112.729 E1.04003
G1 X204.874 Y113.263 E.01678
G1 X180.935 Y89.324 E1.06376
G1 X180.401 Y89.324 E.01678
G1 X204.874 Y113.797 E1.08749
G1 X204.874 Y114.332 E.01681
G1 X179.866 Y89.324 E1.11126
G1 X179.332 Y89.324 E.01678
G1 X204.874 Y114.866 E1.13499
G1 X204.874 Y115.401 E.01681
G1 X178.797 Y89.324 E1.15876
G1 X178.263 Y89.324 E.01678
M73 C95
G1 X204.874 Y115.935 E1.18249
G1 X204.874 Y116.469 E.01678
G1 X177.729 Y89.324 E1.20622
G1 X177.194 Y89.324 E.01681
G1 X204.874 Y117.004 E1.22999
G1 X204.874 Y117.538 E.01678
G1 X176.66 Y89.324 E1.25372
G1 X176.125 Y89.324 E.01681
G1 X204.874 Y118.073 E1.27749
G1 X204.874 Y118.607 E.01678
G1 X175.591 Y89.324 E1.30122
G1 X175.057 Y89.324 E.01678
G1 X204.874 Y119.141 E1.32495
G1 X204.874 Y119.676 E.01681
G1 X174.522 Y89.324 E1.34873
G1 X173.988 Y89.324 E.01678
M73 Q1 S112
G1 X204.874 Y120.21 E1.37245
G1 X204.874 Y120.676 E.01464
G1 X204.804 Y120.676 E.0022
G1 X173.453 Y89.324 E1.39314
G1 X172.919 Y89.324 E.01678
G1 X204.27 Y120.676 E1.39314
G1 X203.736 Y120.676 E.01678
M73 P2 R112
M73 Q2 S112
M73 D95
G1 X172.385 Y89.324 E1.39314
G1 X171.85 Y89.324 E.01681
G1 X203.201 Y120.676 E1.39314
G1 X202.667 Y120.676 E.01678
G1 X171.316 Y89.324 E1.39314
G1 X170.781 Y89.324 E.01681
G1 X202.132 Y120.676 E1.39314
G1 X201.598 Y120.676 E.01678
G1 X170.247 Y89.324 E1.39314
G1 X169.712 Y89.324 E.01681
G1 X201.064 Y120.676 E1.39316
G1 X200.529 Y120.676 E.01681
G1 X169.178 Y89.324 E1.39314
G1 X168.644 Y89.324 E.01678
G1 X199.995 Y120.676 E1.39314
G1 X199.46 Y120.676 E.01681
G1 X168.109 Y89.324 E1.39314
G1 X167.575 Y89.324 E.01678
G1 X198.926 Y120.676 E1.39314
G1 X198.392 Y120.676 E.01678
G1 X167.04 Y89.324 E1.39316
G1 X166.506 Y89.324 E.01678
M73 P2 R111
G1 X197.857 Y120.676 E1.39314
G1 X197.323 Y120.676 E.01678
G1 X165.972 Y89.324 E1.39314
G1 X165.437 Y89.324 E.01681
G1 X196.788 Y120.676 E1.39314
G1 X196.254 Y120.676 E.01678
G1 X164.903 Y89.324 E1.39314
G1 X164.368 Y89.324 E.01681
G1 X195.72 Y120.676 E1.39316
G1 X195.185 Y120.676 E.01681
M73 C94
G1 X163.834 Y89.324 E1.39314
G1 X163.3 Y89.324 E.01678
G1 X194.651 Y120.676 E1.39314
G1 X194.116 Y120.676 E.01681
G1 X162.765 Y89.324 E1.39314
G1 X162.231 Y89.324 E.01678
G1 X193.582 Y120.676 E1.39314
G1 X193.047 Y120.676 E.01681
G1 X161.696 Y89.324 E1.39314
G1 X161.162 Y89.324 E.01678
G1 X192.513 Y120.676 E1.39314
G1 X191.979 Y120.676 E.01678
G1 X160.628 Y89.324 E1.39314
G1 X160.093 Y89.324 E.01681
G1 X191.444 Y120.676 E1.39314
G1 X190.91 Y120.676 E.01678
M73 Q2 S111
G1 X159.559 Y89.324 E1.39314
G1 X159.024 Y89.324 E.01681
G1 X190.375 Y120.676 E1.39314
G1 X189.841 Y120.676 E.01678
G1 X158.49 Y89.324 E1.39314
G1 X157.956 Y89.324 E.01678
M73 D94
G1 X189.307 Y120.676 E1.39314
G1 X188.772 Y120.676 E.01681
G1 X157.421 Y89.324 E1.39314
G1 X156.887 Y89.324 E.01678
G1 X188.238 Y120.676 E1.39314
G1 X187.703 Y120.676 E.01681
M73 P3 R111
M73 Q3 S111
G1 X156.352 Y89.324 E1.39314
G1 X155.818 Y89.324 E.01678
G1 X187.169 Y120.676 E1.39314
G1 X186.635 Y120.676 E.01678
G1 X155.283 Y89.324 E1.39316
G1 X154.749 Y89.324 E.01678
G1 X186.1 Y120.676 E1.39314
G1 X185.566 Y120.676 E.01678
G1 X154.215 Y89.324 E1.39314
G1 X153.68 Y89.324 E.01681
G1 X185.031 Y120.676 E1.39314
G1 X184.497 Y120.676 E.01678
G1 X153.146 Y89.324 E1.39314
G1 X152.611 Y89.324 E.01681
G1 X183.963 Y120.676 E1.39316
G1 X183.428 Y120.676 E.01681
M73 P3 R110
G1 X152.077 Y89.324 E1.39314
G1 X151.543 Y89.324 E.01678
G1 X182.894 Y120.676 E1.39314
G1 X182.359 Y120.676 E.01681
G1 X151.008 Y89.324 E1.39314
G1 X150.474 Y89.324 E.01678
G1 X181.825 Y120.676 E1.39314
G1 X181.291 Y120.676 E.01678
G1 X149.939 Y89.324 E1.39316
G1 X149.405 Y89.324 E.01678
M73 C93
G1 X180.756 Y120.676 E1.39314
G1 X180.222 Y120.676 E.01678
G1 X148.871 Y89.324 E1.39314
G1 X148.336 Y89.324 E.01681
G1 X179.687 Y120.676 E1.39314
G1 X179.153 Y120.676 E.01678
G1 X147.802 Y89.324 E1.39314
G1 X147.267 Y89.324 E.01681
G1 X178.618 Y120.676 E1.39314
G1 X178.084 Y120.676 E.01678
G1 X146.733 Y89.324 E1.39314
G1 X146.199 Y89.324 E.01678
G1 X177.55 Y120.676 E1.39314
G1 X177.015 Y120.676 E.01681
M73 Q3 S110
G1 X145.664 Y89.324 E1.39314
G1 X145.13 Y89.324 E.01678
G1 X176.481 Y120.676 E1.39314
G1 X175.946 Y120.676 E.01681
G1 X144.595 Y89.324 E1.39314
G1 X144.061 Y89.324 E.01678
M73 D93
G1 X175.412 Y120.676 E1.39314
G1 X174.878 Y120.676 E.01678
G1 X143.527 Y89.324 E1.39314
G1 X142.992 Y89.324 E.01681
G1 X174.343 Y120.676 E1.39314
G1 X173.809 Y120.676 E.01678
G1 X142.458 Y89.324 E1.39314
G1 X141.923 Y89.324 E.01681
G1 X173.274 Y120.676 E1.39314
G1 X172.74 Y120.676 E.01678
G1 X141.389 Y89.324 E1.39314
G1 X140.854 Y89.324 E.01681
G1 X172.206 Y120.676 E1.39316
G1 X171.671 Y120.676 E.01681
G1 X140.32 Y89.324 E1.39314
G1 X139.786 Y89.324 E.01678
M73 P4 R110
M73 Q4 S110
G1 X171.137 Y120.676 E1.39314
G1 X170.602 Y120.676 E.01681
G1 X139.251 Y89.324 E1.39314
G1 X138.717 Y89.324 E.01678
G1 X170.068 Y120.676 E1.39314
G1 X169.534 Y120.676 E.01678
M73 P4 R109
G1 X138.182 Y89.324 E1.39316
G1 X137.648 Y89.324 E.01678
G1 X168.999 Y120.676 E1.39314
G1 X168.465 Y120.676 E.01678
G1 X137.114 Y89.324 E1.39314
G1 X136.579 Y89.324 E.01681
G1 X167.93 Y120.676 E1.39314
G1 X167.396 Y120.676 E.01678
G1 X136.045 Y89.324 E1.39314
G1 X135.51 Y89.324 E.01681
G1 X166.862 Y120.676 E1.39316
G1 X166.327 Y120.676 E.01681
M73 C92
G1 X134.976 Y89.324 E1.39314
G1 X134.442 Y89.324 E.01678
G1 X165.793 Y120.676 E1.39314
G1 X165.258 Y120.676 E.01681
G1 X133.907 Y89.324 E1.39314
G1 X133.373 Y89.324 E.01678
G1 X164.724 Y120.676 E1.39314
G1 X164.189 Y120.676 E.01681
G1 X132.838 Y89.324 E1.39314
G1 X132.304 Y89.324 E.01678
G1 X163.655 Y120.676 E1.39314
G1 X163.121 Y120.676 E.01678
G1 X131.77 Y89.324 E1.39314
G1 X131.235 Y89.324 E.01681
M73 Q4 S109
G1 X162.586 Y120.676 E1.39314
G1 X162.052 Y120.676 E.01678
G1 X130.701 Y89.324 E1.39314
G1 X130.166 Y89.324 E.01681
G1 X161.517 Y120.676 E1.39314
G1 X160.983 Y120.676 E.01678
M73 D92
G1 X129.632 Y89.324 E1.39314
G1 X129.098 Y89.324 E.01678
G1 X160.449 Y120.676 E1.39314
G1 X159.914 Y120.676 E.01681
G1 X128.563 Y89.324 E1.39314
G1 X128.029 Y89.324 E.01678
G1 X159.38 Y120.676 E1.39314
G1 X158.845 Y120.676 E.01681
G1 X127.494 Y89.324 E1.39314
G1 X126.96 Y89.324 E.01678
G1 X158.311 Y120.676 E1.39314
G1 X157.777 Y120.676 E.01678
G1 X126.425 Y89.324 E1.39316
G1 X125.891 Y89.324 E.01678
G1 X157.242 Y120.676 E1.39314
G1 X156.708 Y120.676 E.01678
G1 X125.357 Y89.324 E1.39314
G1 X124.822 Y89.324 E.01681
G1 X156.173 Y120.676 E1.39314
G1 X155.639 Y120.676 E.01678
G1 X124.288 Y89.324 E1.39314
G1 X123.753 Y89.324 E.01681
M73 P5 R108
M73 Q5 S109
G1 X155.105 Y120.676 E1.39316
G1 X154.57 Y120.676 E.01681
G1 X123.219 Y89.324 E1.39314
G1 X122.685 Y89.324 E.01678
G1 X154.036 Y120.676 E1.39314
G1 X153.501 Y120.676 E.01681
G1 X122.15 Y89.324 E1.39314
G1 X121.616 Y89.324 E.01678
G1 X152.967 Y120.676 E1.39314
G1 X152.433 Y120.676 E.01678
M73 C91
G1 X121.081 Y89.324 E1.39316
G1 X120.547 Y89.324 E.01678
G1 X151.898 Y120.676 E1.39314
G1 X151.364 Y120.676 E.01678
G1 X120.013 Y89.324 E1.39314
G1 X119.478 Y89.324 E.01681
G1 X150.829 Y120.676 E1.39314
G1 X150.295 Y120.676 E.01678
G1 X118.944 Y89.324 E1.39314
G1 X118.409 Y89.324 E.01681
G1 X149.76 Y120.676 E1.39314
G1 X149.226 Y120.676 E.01678
G1 X117.875 Y89.324 E1.39314
G1 X117.341 Y89.324 E.01678
M73 Q5 S108
G1 X148.692 Y120.676 E1.39314
G1 X148.157 Y120.676 E.01681
G1 X116.806 Y89.324 E1.39314
G1 X116.272 Y89.324 E.01678
G1 X147.623 Y120.676 E1.39314
G1 X147.088 Y120.676 E.01681
M73 D91
G1 X115.737 Y89.324 E1.39314
G1 X115.203 Y89.324 E.01678
G1 X146.554 Y120.676 E1.39314
G1 X146.02 Y120.676 E.01678
G1 X114.669 Y89.324 E1.39314
G1 X114.134 Y89.324 E.01681
G1 X145.485 Y120.676 E1.39314
G1 X144.951 Y120.676 E.01678
G1 X113.6 Y89.324 E1.39314
G1 X113.065 Y89.324 E.01681
G1 X144.416 Y120.676 E1.39314
G1 X143.882 Y120.676 E.01678
G1 X112.531 Y89.324 E1.39314
G1 X111.996 Y89.324 E.01681
G1 X143.348 Y120.676 E1.39316
G1 X142.813 Y120.676 E.01681
G1 X111.462 Y89.324 E1.39314
G1 X110.928 Y89.324 E.01678
G1 X142.279 Y120.676 E1.39314
G1 X141.744 Y120.676 E.01681
G1 X110.393 Y89.324 E1.39314
G1 X109.859 Y89.324 E.01678
G1 X141.21 Y120.676 E1.39314
G1 X140.676 Y120.676 E.01678
M73 P5 R107
G1 X109.324 Y89.324 E1.39316
G1 X108.79 Y89.324 E.01678
G1 X140.141 Y120.676 E1.39314
G1 X139.607 Y120.676 E.01678
G1 X108.256 Y89.324 E1.39314
G1 X107.721 Y89.324 E.01681
G1 X139.072 Y120.676 E1.39314
G1 X138.538 Y120.676 E.01678
M73 P6 R107
M73 Q6 S108
G1 X107.187 Y89.324 E1.39314
G1 X106.652 Y89.324 E.01681
M73 C90
G1 X138.004 Y120.676 E1.39316
G1 X137.469 Y120.676 E.01681
G1 X106.118 Y89.324 E1.39314
G1 X105.584 Y89.324 E.01678
G1 X136.935 Y120.676 E1.39314
G1 X136.4 Y120.676 E.01681
G1 X105.049 Y89.324 E1.39314
G1 X104.515 Y89.324 E.01678
G1 X135.866 Y120.676 E1.39314
G1 X135.331 Y120.676 E.01681
G1 X103.98 Y89.324 E1.39314
G1 X103.446 Y89.324 E.01678
G1 X134.797 Y120.676 E1.39314
G1 X134.263 Y120.676 E.01678
M73 Q6 S107
G1 X102.912 Y89.324 E1.39314
G1 X102.377 Y89.324 E.01681
G1 X133.728 Y120.676 E1.39314
G1 X133.194 Y120.676 E.01678
G1 X101.843 Y89.324 E1.39314
G1 X101.308 Y89.324 E.01681
M73 D90
G1 X132.659 Y120.676 E1.39314
G1 X132.125 Y120.676 E.01678
G1 X100.774 Y89.324 E1.39314
G1 X100.24 Y89.324 E.01678
G1 X131.591 Y120.676 E1.39314
G1 X131.056 Y120.676 E.01681
G1 X99.705 Y89.324 E1.39314
G1 X99.171 Y89.324 E.01678
G1 X130.522 Y120.676 E1.39314
G1 X129.987 Y120.676 E.01681
G1 X98.636 Y89.324 E1.39314
G1 X98.102 Y89.324 E.01678
G1 X129.453 Y120.676 E1.39314
G1 X128.919 Y120.676 E.01678
G1 X97.567 Y89.324 E1.39316
G1 X97.033 Y89.324 E.01678
G1 X128.384 Y120.676 E1.39314
G1 X127.85 Y120.676 E.01678
G1 X96.499 Y89.324 E1.39314
G1 X95.964 Y89.324 E.01681
G1 X127.315 Y120.676 E1.39314
G1 X126.781 Y120.676 E.01678
M73 P6 R106
G1 X95.43 Y89.324 E1.39314
G1 X94.895 Y89.324 E.01681
G1 X126.247 Y120.676 E1.39316
G1 X125.712 Y120.676 E.01681
G1 X94.361 Y89.324 E1.39314
G1 X93.827 Y89.324 E.01678
G1 X125.178 Y120.676 E1.39314
G1 X124.643 Y120.676 E.01681
G1 X93.292 Y89.324 E1.39314
G1 X92.758 Y89.324 E.01678
M73 C89
G1 X124.109 Y120.676 E1.39314
G1 X123.575 Y120.676 E.01678
G1 X92.223 Y89.324 E1.39316
G1 X91.689 Y89.324 E.01678
G1 X123.04 Y120.676 E1.39314
G1 X122.506 Y120.676 E.01678
M73 P7 R106
G1 X91.155 Y89.324 E1.39314
G1 X90.62 Y89.324 E.01681
M73 Q7 S107
G1 X121.971 Y120.676 E1.39314
G1 X121.437 Y120.676 E.01678
G1 X90.086 Y89.324 E1.39314
G1 X89.551 Y89.324 E.01681
G1 X120.902 Y120.676 E1.39314
G1 X120.368 Y120.676 E.01678
G1 X89.017 Y89.324 E1.39314
G1 X88.483 Y89.324 E.01678
M73 Q7 S106
G1 X119.834 Y120.676 E1.39314
G1 X119.299 Y120.676 E.01681
G1 X87.948 Y89.324 E1.39314
