; generated by PrusaSlicer 2.7.4+linux-x64-GTK3 on 2024-05-27 at 20:16:57 UTC


;
;
; 

; external perimeters extrusion width = 0.45mm
; perimeters extrusion width = 0.45mm
; infill extrusion width = 0.45mm
; solid infill extrusion width = 0.45mm
; top infill extrusion width = 0.40mm
; first layer extrusion width = 0.42mm

; external perimeters extrusion width = 0.45mm
; perimeters extrusion width = 0.45mm
; infill extrusion width = 0.45mm
; solid infill extrusion width = 0.45mm
; top infill extrusion width = 0.40mm
; first layer extrusion width = 0.42mm

M73 P0 R206
M73 Q0 S207
M201 X1000 Y1000 Z200 E5000 ; sets maximum accelerations, mm/sec^2
M203 X200 Y200 Z12 E120 ; sets maximum feedrates, mm / sec
M204 S1250 T1250 ; sets acceleration (S) and retract acceleration (R), mm/sec^2
M205 X8.00 Y8.00 Z0.40 E4.50 ; sets the jerk limits, mm/sec
M205 S0 T0 ; sets the minimum extruding and travel feed rate, mm/sec

; printing object Ridge_left_plate.stl id:0 copy 0
; stop printing object Ridge_left_plate.stl id:0 copy 0
; printing object Ridge_right_plate.stl id:1 copy 0
; stop printing object Ridge_right_plate.stl id:1 copy 0

;TYPE:Custom
M862.3 P "MK3S" ; printer model check
M862.1 P0.6 ; nozzle diameter check
M115 U3.13.3 ; tell printer latest fw version
G90 ; use absolute coordinates
M83 ; extruder relative mode
M104 S230 ; set extruder temp
M140 S85 ; set bed temp
M190 S85 ; wait for bed temp
M109 S230 ; wait for extruder temp
G28 W ; home all without mesh bed level
G80 X65.4344 Y59.6344 W119.131 H90.7312 ; mesh bed levelling

G1 Z0.2 F720
G1 Y-3 F1000 ; go outside print area
G92 E0
G1 X60 E9 F1000 ; intro line
G1 X100 E12.5 F1000 ; intro line

G92 E0
M221 S95

; Don't change E values below. Excessive value can damage the printer.
M907 E430 ; set extruder motor current
G21 ; set units to millimeters
G90 ; use absolute coordinates
M83 ; use relative distances for extrusion

M900 K0.04 ; Filament gcode LA 1.5
M900 K24 ; Filament gcode LA 1.0




M107
;LAYER_CHANGE
;Z:0.2
;HEIGHT:0.2
G1 E-1 F2100
G1 Z.4 F720
G1 X66.882 Y61.746 F10800
G1 Z.2 F720
G1 E1 F2100
M204 S800
;TYPE:Skirt/Brim
;WIDTH:0.42
G1 F1200
G1 X67.754 Y60.916 E.03775
G1 X68.549 Y60.417 E.02943
G1 X69.351 Y60.084 E.02723
G1 X70.266 Y59.875 E.02943
G1 X71 Y59.823 E.02307
G1 X179 Y59.823 E3.38626
G1 X180.066 Y59.932 E.0336
G1 X180.9 Y60.172 E.02721
G1 X181.746 Y60.579 E.02944
G1 X182.705 Y61.306 E.03773
G1 X183.284 Y61.954 E.02725
G1 X183.899 Y62.989 E.03775
G1 X184.209 Y63.874 E.0294
G1 X184.373 Y65.067 E.03776
G1 X184.377 Y144.8 E2.49997
G1 X184.209 Y146.126 E.04191
G1 X183.783 Y147.251 E.03772
G1 X183.118 Y148.254 E.03773
G1 X182.246 Y149.084 E.03775
G1 X181.452 Y149.583 E.0294
G1 X180.649 Y149.916 E.02726
G1 X179.734 Y150.125 E.02943
G1 X179 Y150.177 E.02307
G1 X71 Y150.177 E3.38626
G1 X69.674 Y150.009 E.04191
G1 X68.549 Y149.583 E.03772
G1 X67.546 Y148.918 E.03773
G1 X66.716 Y148.046 E.03775
G1 X66.217 Y147.251 E.02943
G1 X65.884 Y146.449 E.02723
G1 X65.675 Y145.534 E.02943
G1 X65.623 Y144.8 E.02307
G1 X65.623 Y65.2 E2.4958
G1 X65.791 Y63.874 E.04191
G1 X66.217 Y62.749 E.03772
G1 X66.832 Y61.821 E.03491
M204 S1000
;WIPE_START
G1 F8640
G1 X66.882 Y61.746 E-.02081
G1 X67.754 Y60.916 E-.27798
G1 X68.549 Y60.417 E-.21673
G1 X69.351 Y60.084 E-.20051
G1 X70.266 Y59.875 E-.21672
G1 X70.557 Y59.854 E-.06725
;WIPE_END
G1 Z.4 F720
; printing object Ridge_left_plate.stl id:0 copy 0
G1 X120.459 Y111.023 F10800
G1 Z.2 F720
G1 E1 F2100
M204 S800
;TYPE:Perimeter
;WIDTH:0.419999
G1 F1200
G1 X120.362 Y111.055 E.0032
G1 X119.569 Y111.171 E.02513
G1 X118.783 Y111.333 E.02516
G1 X118.008 Y111.539 E.02514
G1 X117.246 Y111.788 E.02514
G1 X116.5 Y112.081 E.02513
G1 X115.771 Y112.416 E.02516
G1 X115.057 Y112.796 E.02536
G1 X114.323 Y113.245 E.02698
G1 X113.717 Y113.663 E.02308
G1 X113.083 Y114.154 E.02514
G1 X112.478 Y114.681 E.02516
G1 X111.905 Y115.241 E.02512
G1 X111.364 Y115.834 E.02517
G1 X110.858 Y116.456 E.02514
G1 X110.388 Y117.106 E.02515
G1 X109.957 Y117.782 E.02514
G1 X109.564 Y118.481 E.02514
G1 X109.212 Y119.202 E.02516
G1 X108.902 Y119.941 E.02513
G1 X108.635 Y120.697 E.02514
G1 X108.411 Y121.467 E.02514
G1 X108.231 Y122.249 E.02516
G1 X108.097 Y123.039 E.02512
G1 X108.007 Y123.836 E.02515
G1 X107.964 Y124.637 E.02515
G1 X107.966 Y125.445 E.02533
G1 X108.021 Y126.304 E.02699
G1 X108.107 Y127.036 E.02311
G1 X108.246 Y127.825 E.02512
G1 X108.43 Y128.606 E.02516
G1 X108.658 Y129.375 E.02515
G1 X108.93 Y130.129 E.02513
G1 X109.244 Y130.867 E.02515
G1 X109.599 Y131.586 E.02514
G1 X109.996 Y132.283 E.02515
G1 X110.431 Y132.956 E.02513
G1 X110.904 Y133.604 E.02515
G1 X111.413 Y134.223 E.02513
G1 X111.957 Y134.813 E.02516
G1 X112.534 Y135.37 E.02515
G1 X113.141 Y135.893 E.02512
G1 X113.778 Y136.381 E.02516
G1 X114.441 Y136.832 E.02514
G1 X115.129 Y137.245 E.02516
G1 X115.839 Y137.617 E.02513
G1 X116.569 Y137.948 E.02513
G1 X117.317 Y138.237 E.02514
G1 X118.08 Y138.483 E.02514
G1 X118.857 Y138.684 E.02516
G1 X119.643 Y138.842 E.02514
G1 X120.459 Y138.955 E.02583
G1 X120.449 Y144.811 E.18361
G1 X120.36 Y145.276 E.01484
G1 X120.134 Y145.704 E.01518
G1 X119.767 Y146.02 E.01518
G1 X119.323 Y146.214 E.01519
G1 X118.92 Y146.259 E.01271
G1 X71.171 Y146.259 E1.49713
G1 X70.989 Y146.249 E.00572
M73 Q0 S206
G1 X70.524 Y146.16 E.01484
G1 X70.096 Y145.934 E.01518
G1 X69.78 Y145.567 E.01518
G1 X69.586 Y145.123 E.01519
G1 X69.541 Y144.72 E.01271
G1 X69.541 Y65.371 E2.48793
G1 X69.551 Y65.189 E.00572
G1 X69.64 Y64.724 E.01484
G1 X69.866 Y64.296 E.01518
G1 X70.233 Y63.98 E.01518
G1 X70.677 Y63.786 E.01519
G1 X71.08 Y63.741 E.01271
G1 X118.83 Y63.742 E1.49717
G1 X119.032 Y63.753 E.00634
G1 X119.474 Y63.839 E.01412
G1 X119.904 Y64.066 E.01525
G1 X120.22 Y64.433 E.01518
G1 X120.414 Y64.877 E.01519
G1 X120.459 Y65.28 E.01271
G1 X120.459 Y110.933 E1.43142
M204 S1000
G1 X120.459 Y110.933 F10800
G1 X120.836 Y111.391
M204 S800
G1 F1200
G1 X120.416 Y111.428 E.01322
G1 X119.643 Y111.541 E.02449
G1 X118.879 Y111.697 E.02445
G1 X118.125 Y111.897 E.02446
G1 X117.383 Y112.14 E.02448
G1 X116.656 Y112.424 E.02447
G1 X115.947 Y112.75 E.02447
G1 X115.254 Y113.118 E.0246
G1 X114.536 Y113.557 E.02639
G1 X113.947 Y113.962 E.02241
G1 X113.33 Y114.439 E.02445
G1 X112.741 Y114.951 E.02447
G1 X112.182 Y115.496 E.02448
G1 X111.656 Y116.072 E.02446
G1 X111.163 Y116.678 E.02449
G1 X110.706 Y117.31 E.02445
G1 X110.285 Y117.967 E.02447
G1 X109.903 Y118.647 E.02445
G1 X109.56 Y119.348 E.02447
G1 X109.257 Y120.068 E.02449
G1 X108.997 Y120.803 E.02444
G1 X108.778 Y121.552 E.02447
G1 X108.603 Y122.313 E.02448
G1 X108.471 Y123.082 E.02446
G1 X108.384 Y123.858 E.02448
G1 X108.341 Y124.637 E.02446
G1 X108.343 Y125.422 E.02461
G1 X108.396 Y126.261 E.02636
G1 X108.479 Y126.971 E.02241
G1 X108.614 Y127.74 E.02448
G1 X108.792 Y128.5 E.02447
G1 X109.013 Y129.248 E.02446
G1 X109.277 Y129.982 E.02446
G1 X109.582 Y130.701 E.02449
G1 X109.928 Y131.4 E.02445
G1 X110.313 Y132.079 E.02447
G1 X110.736 Y132.735 E.02447
G1 X111.196 Y133.365 E.02446
G1 X111.691 Y133.968 E.02446
G1 X112.22 Y134.542 E.02447
G1 X112.781 Y135.085 E.02448
G1 X113.371 Y135.595 E.02445
G1 X113.99 Y136.07 E.02446
G1 X114.635 Y136.509 E.02446
G1 X115.304 Y136.911 E.02447
G1 X115.995 Y137.274 E.02447
G1 X116.706 Y137.597 E.02449
G1 X117.434 Y137.878 E.02447
G1 X118.176 Y138.118 E.02445
G1 X118.931 Y138.315 E.02447
G1 X119.697 Y138.468 E.02449
G1 X120.836 Y138.609 E.03599
G1 X120.836 Y144.629 E.18875
G1 X120.784 Y145.207 E.0182
G1 X120.648 Y145.594 E.01286
G1 X120.43 Y145.941 E.01285
G1 X120.141 Y146.23 E.01281
G1 X119.794 Y146.448 E.01285
G1 X119.407 Y146.584 E.01286
G1 X118.941 Y146.636 E.0147
G1 X71.171 Y146.636 E1.49779
G1 X70.593 Y146.584 E.0182
G1 X70.206 Y146.448 E.01286
G1 X69.859 Y146.23 E.01285
G1 X69.57 Y145.941 E.01281
G1 X69.352 Y145.594 E.01285
G1 X69.216 Y145.207 E.01286
G1 X69.164 Y144.741 E.0147
G1 X69.164 Y65.371 E2.48859
G1 X69.216 Y64.793 E.0182
G1 X69.352 Y64.406 E.01286
G1 X69.57 Y64.059 E.01285
G1 X69.859 Y63.77 E.01281
G1 X70.206 Y63.552 E.01285
G1 X70.593 Y63.416 E.01286
G1 X71.059 Y63.364 E.0147
G1 X118.85 Y63.365 E1.49845
G1 X119.406 Y63.416 E.01751
G1 X119.794 Y63.552 E.01289
G1 X120.141 Y63.77 E.01285
G1 X120.43 Y64.059 E.01281
G1 X120.648 Y64.406 E.01285
G1 X120.784 Y64.793 E.01286
G1 X120.836 Y65.259 E.0147
G1 X120.836 Y111.301 E1.44361
M204 S1000
G1 X120.836 Y111.301 F10800
G1 X121.213 Y111.737
M204 S800
G1 F1200
G1 X120.469 Y111.802 E.02342
G1 X119.718 Y111.91 E.02379
G1 X118.975 Y112.062 E.02378
G1 X118.241 Y112.256 E.0238
G1 X117.52 Y112.491 E.02378
G1 X116.813 Y112.767 E.0238
G1 X116.123 Y113.083 E.0238
G1 X115.45 Y113.44 E.02389
G1 X114.749 Y113.868 E.02575
G1 X114.177 Y114.26 E.02174
G1 X113.577 Y114.724 E.02378
G1 X113.004 Y115.222 E.0238
G1 X112.46 Y115.751 E.02379
G1 X111.948 Y116.311 E.02379
G1 X111.468 Y116.899 E.0238
G1 X111.023 Y117.514 E.0238
G1 X110.613 Y118.152 E.02378
G1 X110.241 Y118.814 E.02381
G1 X109.907 Y119.495 E.02378
G1 X109.613 Y120.194 E.02378
G1 X109.358 Y120.909 E.0238
G1 X109.145 Y121.638 E.02381
G1 X108.975 Y122.377 E.02378
G1 X108.846 Y123.125 E.0238
G1 X108.76 Y123.879 E.02379
G1 X108.718 Y124.637 E.0238
G1 X108.719 Y125.398 E.02386
G1 X108.771 Y126.218 E.02576
G1 X108.851 Y126.907 E.02175
G1 X108.981 Y127.654 E.02377
G1 X109.154 Y128.393 E.0238
G1 X109.368 Y129.121 E.02379
G1 X109.624 Y129.836 E.02381
G1 X109.92 Y130.534 E.02377
G1 X110.256 Y131.215 E.02381
G1 X110.63 Y131.875 E.02379
G1 X111.041 Y132.513 E.0238
G1 X111.488 Y133.126 E.02379
G1 X111.969 Y133.713 E.02379
G1 X112.483 Y134.272 E.02381
G1 X113.028 Y134.8 E.02379
G1 X113.602 Y135.296 E.02379
G1 X114.203 Y135.759 E.02379
G1 X114.83 Y136.186 E.02379
G1 X115.48 Y136.578 E.0238
G1 X116.152 Y136.931 E.0238
G1 X116.843 Y137.245 E.0238
G1 X117.55 Y137.52 E.02379
G1 X118.272 Y137.753 E.02379
G1 X119.006 Y137.945 E.02379
G1 X119.75 Y138.095 E.0238
G1 X120.501 Y138.202 E.02378
G1 X121.213 Y138.263 E.02241
G1 X121.213 Y144.762 E.20377
G1 X121.154 Y145.292 E.01672
M73 P0 R205
G1 X120.99 Y145.758 E.01549
G1 X120.727 Y146.177 E.01551
G1 X120.377 Y146.527 E.01552
G1 X119.958 Y146.79 E.01551
G1 X119.492 Y146.954 E.01549
G1 X118.962 Y147.013 E.01672
G1 X71.038 Y147.013 E1.50262
G1 X70.508 Y146.954 E.01672
G1 X70.042 Y146.79 E.01549
G1 X69.623 Y146.527 E.01551
G1 X69.273 Y146.177 E.01552
G1 X69.01 Y145.758 E.01551
G1 X68.846 Y145.292 E.01549
G1 X68.787 Y144.762 E.01672
G1 X68.787 Y65.238 E2.49341
G1 X68.846 Y64.708 E.01672
G1 X69.01 Y64.242 E.01549
G1 X69.273 Y63.823 E.01551
G1 X69.623 Y63.473 E.01552
G1 X70.042 Y63.21 E.01551
G1 X70.508 Y63.046 E.01549
G1 X71.038 Y62.987 E.01672
G1 X118.984 Y62.988 E1.50331
G1 X119.491 Y63.046 E.016
G1 X119.958 Y63.21 E.01552
G1 X120.377 Y63.473 E.01551
G1 X120.727 Y63.823 E.01552
G1 X120.99 Y64.242 E.01551
G1 X121.154 Y64.708 E.01549
G1 X121.213 Y65.238 E.01672
G1 X121.213 Y111.647 E1.45512
M204 S1000
G1 X121.213 Y111.647 F10800
G1 X121.59 Y112.102
M204 S800
;TYPE:External perimeter
G1 F1200
G1 X121.258 Y112.111 E.01041
G1 X120.523 Y112.175 E.02313
G1 X119.793 Y112.28 E.02312
G1 X119.071 Y112.427 E.0231
G1 X118.358 Y112.614 E.02311
G1 X117.657 Y112.843 E.02312
G1 X116.97 Y113.11 E.02311
G1 X116.299 Y113.417 E.02314
G1 X115.646 Y113.762 E.02316
G1 X114.962 Y114.179 E.02512
G1 X114.407 Y114.559 E.02109
G1 X113.824 Y115.009 E.02309
G1 X113.267 Y115.492 E.02312
G1 X112.738 Y116.006 E.02313
G1 X112.24 Y116.55 E.02312
G1 X111.773 Y117.121 E.02313
G1 X111.34 Y117.717 E.0231
G1 X110.942 Y118.338 E.02313
G1 X110.579 Y118.98 E.02312
G1 X110.254 Y119.642 E.02312
G1 X109.968 Y120.321 E.0231
G1 X109.72 Y121.016 E.02314
G1 X109.513 Y121.723 E.0231
G1 X109.346 Y122.441 E.02311
G1 X109.221 Y123.168 E.02313
G1 X109.137 Y123.901 E.02313
G1 X109.095 Y124.637 E.02311
G1 X109.095 Y125.375 E.02314
G1 X109.145 Y126.175 E.02513
G1 X109.222 Y126.843 E.02108
G1 X109.348 Y127.569 E.0231
G1 X109.515 Y128.287 E.02311
G1 X109.724 Y128.995 E.02315
G1 X109.972 Y129.689 E.02311
G1 X110.259 Y130.368 E.02311
G1 X110.584 Y131.029 E.02309
G1 X110.947 Y131.671 E.02312
G1 X111.346 Y132.291 E.02312
G1 X111.78 Y132.888 E.02314
G1 X112.247 Y133.458 E.0231
G1 X112.746 Y134.001 E.02312
G1 X113.275 Y134.515 E.02313
G1 X113.832 Y134.998 E.02312
G1 X114.416 Y135.448 E.02312
G1 X115.025 Y135.864 E.02312
G1 X115.656 Y136.244 E.0231
G1 X116.309 Y136.588 E.02314
G1 X116.979 Y136.894 E.02309
G1 X117.667 Y137.161 E.02314
G1 X118.368 Y137.389 E.02311
G1 X119.081 Y137.576 E.02311
G1 X119.804 Y137.722 E.02313
G1 X120.534 Y137.826 E.02312
G1 X121.59 Y137.898 E.03319
G1 X121.59 Y138.22 E.0101
G1 X121.59 Y144.783 E.20578
G1 X121.524 Y145.376 E.01871
G1 X121.332 Y145.923 E.01818
G1 X121.024 Y146.414 E.01817
G1 X120.614 Y146.824 E.01818
G1 X120.123 Y147.132 E.01817
G1 X119.576 Y147.324 E.01818
G1 X118.983 Y147.39 E.01871
G1 X71.017 Y147.39 E1.50394
G1 X70.424 Y147.324 E.01871
G1 X69.877 Y147.132 E.01818
G1 X69.386 Y146.824 E.01817
G1 X68.976 Y146.414 E.01818
G1 X68.668 Y145.923 E.01817
G1 X68.476 Y145.376 E.01818
G1 X68.41 Y144.783 E.01871
G1 X68.41 Y65.217 E2.49473
G1 X68.476 Y64.624 E.01871
G1 X68.668 Y64.077 E.01818
G1 X68.976 Y63.586 E.01817
G1 X69.386 Y63.176 E.01818
G1 X69.877 Y62.868 E.01817
G1 X70.424 Y62.676 E.01818
G1 X71.017 Y62.61 E.01871
G1 X119.006 Y62.611 E1.50466
G1 X119.576 Y62.676 E.01799
G1 X120.123 Y62.868 E.01818
G1 X120.614 Y63.176 E.01817
G1 X121.024 Y63.586 E.01818
G1 X121.332 Y64.077 E.01817
G1 X121.524 Y64.624 E.01818
G1 X121.59 Y65.217 E.01871
G1 X121.59 Y112.012 E1.46722
M204 S1000
;WIPE_START
G1 F8640
G1 X121.59 Y112.102 E-.02078
G1 X121.258 Y112.111 E-.07669
G1 X120.523 Y112.175 E-.17036
G1 X119.793 Y112.28 E-.17029
G1 X119.071 Y112.427 E-.17013
G1 X118.358 Y112.614 E-.1702
G1 X117.657 Y112.843 E-.17028
G1 X117.45 Y112.924 E-.05127
;WIPE_END
G1 Z.4 F720
G1 X119.324 Y63.967 F10800
G1 Z.2 F720
G1 E1 F2100
M204 S800
;TYPE:Solid infill
;WIDTH:0.420184
G1 F1200
G1 X119.867 Y64.509 E.02407
G1 X119.999 Y64.719 E.00778
G1 X120.081 Y64.953 E.00778
G1 X120.119 Y65.295 E.01079
G1 X118.906 Y64.082 E.05381
G1 X118.372 Y64.082 E.01675
G1 X120.119 Y65.829 E.0775
G1 X120.119 Y66.362 E.01672
G1 X117.839 Y64.082 E.10115
G1 X117.305 Y64.082 E.01675
G1 X120.119 Y66.896 E.12484
G1 X120.119 Y67.429 E.01672
G1 X116.772 Y64.082 E.14848
G1 X116.238 Y64.082 E.01675
G1 X120.119 Y67.963 E.17217
G1 X120.119 Y68.496 E.01672
G1 X115.705 Y64.082 E.19582
G1 X115.171 Y64.082 E.01675
G1 X120.119 Y69.03 E.21951
G1 X120.119 Y69.564 E.01675
G1 X114.638 Y64.082 E.24318
G1 X114.104 Y64.082 E.01675
G1 X120.119 Y70.097 E.26685
G1 X120.119 Y70.631 E.01675
G1 X113.571 Y64.082 E.29051
G1 X113.037 Y64.082 E.01675
G1 X120.119 Y71.164 E.31418
G1 X120.119 Y71.698 E.01675
G1 X112.503 Y64.082 E.33787
G1 X111.97 Y64.082 E.01672
G1 X120.119 Y72.231 E.36152
G1 X120.119 Y72.765 E.01675
M73 Q0 S205
G1 X111.436 Y64.082 E.38521
G1 X110.903 Y64.082 E.01672
G1 X120.119 Y73.298 E.40885
G1 X120.119 Y73.832 E.01675
G1 X110.369 Y64.082 E.43254
G1 X109.836 Y64.082 E.01672
G1 X120.119 Y74.365 E.45619
G1 X120.119 Y74.899 E.01675
G1 X109.302 Y64.082 E.47988
G1 X108.769 Y64.082 E.01672
G1 X120.119 Y75.432 E.50352
G1 X120.119 Y75.966 E.01675
G1 X108.235 Y64.082 E.52721
G1 X107.702 Y64.082 E.01672
G1 X120.119 Y76.499 E.55086
G1 X120.119 Y77.033 E.01675
G1 X107.168 Y64.082 E.57455
G1 X106.634 Y64.082 E.01675
G1 X120.119 Y77.567 E.59824
G1 X120.119 Y78.1 E.01672
G1 X106.101 Y64.082 E.62189
G1 X105.567 Y64.082 E.01675
G1 X120.119 Y78.634 E.64558
G1 X120.119 Y79.167 E.01672
G1 X105.034 Y64.082 E.66922
G1 X104.5 Y64.081 E.01675
G1 X120.119 Y79.701 E.69293
G1 X120.119 Y80.234 E.01672
G1 X103.967 Y64.081 E.71658
G1 X103.433 Y64.081 E.01675
G1 X120.119 Y80.768 E.74027
G1 X120.119 Y81.301 E.01672
G1 X102.9 Y64.081 E.76391
G1 X102.366 Y64.081 E.01675
G1 X120.119 Y81.835 E.7876
G1 X120.119 Y82.368 E.01672
G1 X101.833 Y64.081 E.81125
G1 X101.299 Y64.081 E.01675
G1 X120.119 Y82.902 E.83494
G1 X120.119 Y83.435 E.01672
G1 X100.765 Y64.081 E.85861
G1 X100.232 Y64.081 E.01672
G1 X120.119 Y83.969 E.88228
G1 X120.119 Y84.502 E.01672
G1 X99.698 Y64.081 E.90594
G1 X99.165 Y64.081 E.01672
G1 X120.119 Y85.036 E.92961
