; generated by PrusaSlicer 2.6.1+linux-x64-GTK3 on 2023-09-08 at 20:18:50 UTC


;
;
; 

; external perimeters extrusion width = 0.45mm
; perimeters extrusion width = 0.45mm
; infill extrusion width = 0.45mm
; solid infill extrusion width = 0.45mm
; top infill extrusion width = 0.40mm
; first layer extrusion width = 0.42mm

M73 P0 R70
M73 Q0 S70
M201 X1000 Y1000 Z200 E5000 ; sets maximum accelerations, mm/sec^2
M203 X200 Y200 Z12 E120 ; sets maximum feedrates, mm / sec
M204 S1250 T1250 ; sets acceleration (S) and retract acceleration (R), mm/sec^2
M205 X8.00 Y8.00 Z0.40 E4.50 ; sets the jerk limits, mm/sec
M205 S0 T0 ; sets the minimum extruding and travel feed rate, mm/sec
;TYPE:Custom
M862.3 P "MK3S" ; printer model check
M862.1 P0.4 ; nozzle diameter check
M115 U3.13.0 ; tell printer latest fw version
G90 ; use absolute coordinates
M83 ; extruder relative mode
M104 S215 ; set extruder temp
M140 S60 ; set bed temp
M190 S60 ; wait for bed temp
M109 S215 ; wait for extruder temp
G28 W ; home all without mesh bed level
G80 ; mesh bed leveling

G1 Z0.2 F720
G1 Y-3 F1000 ; go outside print area
G92 E0
G1 X60 E9 F1000 ; intro line
G1 X100 E12.5 F1000 ; intro line

G92 E0
M221 S95

; Don't change E values below. Excessive value can damage the printer.
M907 E430 ; set extruder motor current
G21 ; set units to millimeters
G90 ; use absolute coordinates
M83 ; use relative distances for extrusion
M900 K0.05 ; Filament gcode LA 1.5
M900 K30 ; Filament gcode LA 1.0
M107
;LAYER_CHANGE
;Z:0.2
;HEIGHT:0.2
;BEFORE_LAYER_CHANGE
G92 E0.0
;0.2


G1 E-.8 F2100
G1 Z.4 F720
;AFTER_LAYER_CHANGE
;0.2
G1 X93.019 Y60.307 F10800
G1 Z.2 F720
G1 E.8 F2100
M204 S800
;TYPE:Skirt/Brim
;WIDTH:0.42
G1 F1200
G1 X96.007 Y57.319 E.13249
G1 X97.688 Y56.623 E.05705
G1 X152.313 Y56.623 E1.71273
G1 X153.993 Y57.319 E.05702
G1 X156.981 Y60.307 E.13249
G1 X157.677 Y61.988 E.05705
G1 X157.677 Y148.012 E2.69722
G1 X156.981 Y149.693 E.05705
M73 P0 R69
G1 X153.993 Y152.681 E.13249
G1 X152.312 Y153.377 E.05705
G1 X97.688 Y153.377 E1.7127
G1 X96.007 Y152.681 E.05705
G1 X93.019 Y149.693 E.13249
G1 X92.323 Y148.012 E.05705
G1 X92.323 Y61.988 E2.69722
G1 X92.996 Y60.362 E.05518
M204 S1000
;WIPE_START
G1 F8640
G1 X95.433 Y57.899 E-.8
;WIPE_END
G1 Z.6 F720
G1 X95.609 Y61.685 F10800
M73 Q0 S69
G1 Z.2 F720
G1 E.8 F2100
M204 S800
G1 F1200
G1 X96.092 Y61.026 E.02562
G1 X96.971 Y60.19 E.03803
G1 X98.053 Y59.606 E.03855
G1 X99.382 Y59.286 E.04286
G1 X150.589 Y59.29 E1.60556
G1 X151.61 Y59.484 E.03259
G1 X152.588 Y59.9 E.03332
G1 X153.712 Y60.796 E.04507
G1 X154.605 Y62.134 E.05044
G1 X155.014 Y63.679 E.05011
G1 X155.014 Y102.246 E1.20924
G1 X154.479 Y104.039 E.05867
G1 X153.986 Y104.783 E.02798
G1 X153.814 Y104.969 E.00794
G1 X154.612 Y106.247 E.04724
G1 X155.013 Y107.78 E.04968
G1 X155.013 Y146.347 E1.20924
G1 X154.391 Y148.315 E.06471
G1 X153.908 Y148.974 E.02562
G1 X153.029 Y149.81 E.03803
G1 X151.947 Y150.394 E.03855
G1 X150.618 Y150.713 E.04285
G1 X99.353 Y150.713 E1.60738
G1 X97.385 Y150.091 E.06471
G1 X96.726 Y149.608 E.02562
G1 X95.89 Y148.729 E.03803
G1 X95.306 Y147.647 E.03855
G1 X94.987 Y146.318 E.04285
G1 X94.987 Y107.754 E1.20915
G1 X95.521 Y105.961 E.05866
G1 X96.014 Y105.217 E.02798
G1 X96.223 Y104.993 E.00961
G1 X95.892 Y104.634 E.01531
G1 X95.362 Y103.688 E.034
G1 X94.987 Y102.218 E.04757
G1 X94.987 Y63.653 E1.20918
G1 X95.591 Y61.742 E.06284
M204 S1000
G1 X95.932 Y61.882 F10800
M204 S800
G1 F1200
G1 X96.366 Y61.285 E.02314
G1 X97.174 Y60.508 E.03515
G1 X98.167 Y59.966 E.03547
G1 X99.405 Y59.664 E.03995
G1 X150.571 Y59.667 E1.60427
G1 X151.517 Y59.85 E.03021
G1 X152.415 Y60.236 E.03065
G1 X153.453 Y61.071 E.04177
G1 X154.249 Y62.262 E.04492
G1 X154.636 Y63.704 E.04681
G1 X154.636 Y102.217 E1.20755
G1 X154.127 Y103.901 E.05516
M73 P1 R69
M73 Q1 S69
G1 X153.684 Y104.556 E.02479
G1 X153.245 Y105.009 E.01978
G1 X153.614 Y105.353 E.01582
G1 X154.255 Y106.372 E.03775
G1 X154.636 Y107.805 E.04649
G1 X154.636 Y146.318 E1.20755
G1 X154.068 Y148.118 E.05918
G1 X153.634 Y148.715 E.02314
G1 X152.826 Y149.492 E.03515
G1 X151.833 Y150.034 E.03547
G1 X150.595 Y150.336 E.03995
G1 X99.382 Y150.336 E1.60575
G1 X97.582 Y149.768 E.05918
G1 X96.985 Y149.334 E.02314
G1 X96.208 Y148.526 E.03515
G1 X95.666 Y147.533 E.03547
G1 X95.364 Y146.295 E.03995
G1 X95.364 Y107.783 E1.20752
G1 X95.873 Y106.099 E.05516
G1 X96.316 Y105.444 E.02479
G1 X96.751 Y104.995 E.0196
G1 X96.209 Y104.427 E.02462
G1 X95.703 Y103.525 E.03243
G1 X95.364 Y102.194 E.04306
G1 X95.364 Y63.682 E1.20752
G1 X95.914 Y61.939 E.05731
M204 S1000
G1 X96.255 Y62.078 F10800
M204 S800
G1 F1200
G1 X96.641 Y61.543 E.02068
G1 X97.38 Y60.825 E.03231
G1 X98.283 Y60.326 E.03235
G1 X99.429 Y60.041 E.03703
G1 X150.552 Y60.044 E1.60293
G1 X151.424 Y60.216 E.02787
G1 X152.24 Y60.571 E.0279
G1 X153.193 Y61.345 E.03849
G1 X153.917 Y62.443 E.04124
G1 X154.259 Y63.728 E.04169
G1 X154.259 Y102.189 E1.20592
G1 X153.776 Y103.761 E.05156
G1 X153.384 Y104.327 E.02159
G1 X152.696 Y105.029 E.03082
G1 X153.31 Y105.578 E.02582
G1 X153.921 Y106.549 E.03597
G1 X154.259 Y107.829 E.04151
G1 X154.259 Y146.289 E1.20589
G1 X153.745 Y147.922 E.05368
G1 X153.359 Y148.457 E.02068
G1 X152.62 Y149.175 E.03231
G1 X151.717 Y149.674 E.03235
G1 X150.571 Y149.959 E.03703
G1 X99.411 Y149.959 E1.60409
G1 X97.778 Y149.445 E.05368
G1 X97.243 Y149.059 E.02068
G1 X96.525 Y148.32 E.03231
G1 X96.026 Y147.417 E.03235
G1 X95.741 Y146.271 E.03703
G1 X95.741 Y107.811 E1.20589
G1 X96.224 Y106.239 E.05156
G1 X96.616 Y105.673 E.02159
G1 X97.281 Y104.995 E.02978
G1 X96.525 Y104.22 E.03395
G1 X96.044 Y103.362 E.03084
G1 X95.741 Y102.171 E.03853
G1 X95.741 Y63.711 E1.20589
G1 X96.237 Y62.135 E.0518
M204 S1000
G1 X96.579 Y62.273 F10800
M204 S800
G1 F1200
G1 X96.918 Y61.8 E.01825
G1 X97.587 Y61.141 E.02944
G1 X98.401 Y60.685 E.02925
G1 X99.453 Y60.418 E.03403
G1 X150.533 Y60.421 E1.60158
G1 X151.329 Y60.581 E.02546
G1 X152.064 Y60.905 E.02519
G1 X152.93 Y61.617 E.03515
G1 X153.585 Y62.623 E.03764
G1 X153.882 Y63.752 E.0366
G1 X153.882 Y102.161 E1.20429
G1 X153.449 Y103.572 E.04628
M73 P1 R68
G1 X153.103 Y104.075 E.01914
G1 X152.492 Y104.698 E.02736
G1 X152.052 Y104.971 E.01624
G1 X153.006 Y105.803 E.03969
G1 X153.586 Y106.725 E.03415
G1 X153.882 Y107.853 E.03657
G1 X153.882 Y146.261 E1.20426
G1 X153.421 Y147.727 E.04818
G1 X153.082 Y148.2 E.01825
G1 X152.413 Y148.859 E.02944
G1 X151.599 Y149.315 E.02925
G1 X150.548 Y149.582 E.034
G1 X99.439 Y149.582 E1.60249
G1 X97.973 Y149.121 E.04818
G1 X97.5 Y148.782 E.01825
G1 X96.841 Y148.113 E.02944
G1 X96.385 Y147.299 E.02925
G1 X96.118 Y146.248 E.034
G1 X96.118 Y107.839 E1.20429
G1 X96.551 Y106.428 E.04628
G1 X96.897 Y105.925 E.01914
G1 X97.508 Y105.301 E.02738
G1 X97.965 Y105.019 E.01684
G1 X97.525 Y104.703 E.01699
G1 X96.841 Y104.013 E.03046
G1 X96.385 Y103.199 E.02925
G1 X96.118 Y102.148 E.034
G1 X96.118 Y63.739 E1.20429
G1 X96.561 Y62.33 E.04631
M204 S1000
G1 X96.904 Y62.466 F10800
M204 S800
G1 F1200
G1 X97.196 Y62.055 E.01581
G1 X97.797 Y61.456 E.02661
G1 X98.521 Y61.043 E.02613
G1 X99.477 Y60.795 E.03097
G1 X150.515 Y60.798 E1.60026
G1 X151.196 Y60.935 E.02178
M73 P2 R68
M73 Q2 S68
G1 X151.887 Y61.239 E.02367
G1 X152.667 Y61.888 E.03181
G1 X153.229 Y62.75 E.03226
G1 X153.505 Y63.778 E.03337
G1 X153.505 Y102.132 E1.20256
G1 X153.121 Y103.384 E.04106
G1 X152.822 Y103.823 E.01665
G1 X152.241 Y104.415 E.02601
G1 X151.204 Y105.027 E.03775
G1 X151.929 Y105.366 E.02509
G1 X152.702 Y106.029 E.03193
G1 X153.251 Y106.901 E.03231
G1 X153.505 Y107.877 E.03162
G1 X153.505 Y146.232 E1.20259
G1 X153.096 Y147.534 E.04279
G1 X152.804 Y147.945 E.01581
G1 X152.203 Y148.544 E.02661
G1 X151.479 Y148.957 E.02613
G1 X150.523 Y149.205 E.03097
G1 X99.468 Y149.205 E1.60079
G1 X98.166 Y148.796 E.04279
G1 X97.755 Y148.504 E.01581
G1 X97.156 Y147.903 E.02661
G1 X96.743 Y147.179 E.02613
G1 X96.495 Y146.223 E.03097
G1 X96.495 Y107.868 E1.20259
G1 X96.879 Y106.616 E.04106
G1 X97.178 Y106.177 E.01665
G1 X97.758 Y105.585 E.02599
G1 X98.865 Y104.936 E.04023
G1 X98.168 Y104.697 E.0231
G1 X97.778 Y104.424 E.01493
G1 X97.155 Y103.803 E.02758
G1 X96.743 Y103.079 E.02612
G1 X96.495 Y102.123 E.03097
G1 X96.495 Y63.768 E1.20259
G1 X96.886 Y62.524 E.04089
M204 S1000
;WIPE_START
G1 F8640
G1 X97.196 Y62.055 E-.12981
G1 X97.797 Y61.456 E-.19593
G1 X98.521 Y61.043 E-.19246
G1 X99.477 Y60.795 E-.22805
G1 X99.71 Y60.795 E-.05375
;WIPE_END
G1 Z.6 F720
G1 X99.502 Y105.272 F10800
G1 Z.2 F720
G1 E.8 F2100
M204 S800
G1 F1200
G1 X150.495 Y105.276 E1.59885
G1 X151.099 Y105.4 E.01933
G1 X151.708 Y105.672 E.02091
G1 X152.401 Y106.257 E.02844
G1 X152.895 Y107.028 E.02871
G1 X153.128 Y107.902 E.02836
G1 X153.128 Y146.203 E1.2009
G1 X152.77 Y147.341 E.03741
G1 X152.524 Y147.692 E.01344
G1 X151.991 Y148.232 E.02379
G1 X151.357 Y148.6 E.02298
G1 X150.498 Y148.828 E.02787
G1 X99.497 Y148.828 E1.5991
G1 X98.359 Y148.47 E.03741
G1 X98.008 Y148.224 E.01344
G1 X97.468 Y147.691 E.02379
G1 X97.1 Y147.057 E.02298
G1 X96.872 Y146.198 E.02787
G1 X96.872 Y107.897 E1.2009
G1 X97.23 Y106.759 E.03741
G1 X97.476 Y106.408 E.01344
G1 X98.009 Y105.868 E.02379
G1 X98.643 Y105.5 E.02298
G1 X99.444 Y105.287 E.02599
M204 S1000
G1 X99.528 Y105.649 F10800
M204 S800
G1 F1200
G1 X150.474 Y105.653 E1.59738
G1 X150.999 Y105.764 E.01682
G1 X151.527 Y106.004 E.01819
G1 X152.134 Y106.525 E.02508
G1 X152.539 Y107.156 E.02351
G1 X152.751 Y107.928 E.0251
G1 X152.751 Y146.174 E1.19918
G1 X152.444 Y147.15 E.03208
G1 X152.244 Y147.439 E.01102
G1 X151.741 Y147.949 E.02246
G1 X151.233 Y148.243 E.0184
G1 X150.472 Y148.451 E.02474
G1 X99.526 Y148.451 E1.59738
G1 X98.55 Y148.144 E.03208
G1 X98.261 Y147.944 E.01102
G1 X97.751 Y147.441 E.02246
G1 X97.457 Y146.933 E.0184
G1 X97.249 Y146.172 E.02474
G1 X97.249 Y107.926 E1.19918
G1 X97.556 Y106.95 E.03208
G1 X97.756 Y106.661 E.01102
G1 X98.259 Y106.151 E.02246
G1 X98.767 Y105.857 E.0184
G1 X99.47 Y105.665 E.02285
M204 S1000
G1 X99.555 Y106.026 F10800
M204 S800
G1 F1200
G1 X150.453 Y106.03 E1.59587
G1 X150.897 Y106.127 E.01425
G1 X151.343 Y106.334 E.01542
G1 X151.866 Y106.791 E.02178
G1 X152.185 Y107.286 E.01846
G1 X152.374 Y107.955 E.0218
G1 X152.374 Y146.145 E1.19742
G1 X152.117 Y146.961 E.02682
G1 X151.963 Y147.187 E.00857
G1 X151.49 Y147.666 E.02111
G1 X151.108 Y147.887 E.01384
G1 X150.445 Y148.074 E.0216
G1 X99.555 Y148.074 E1.59562
G1 X98.739 Y147.817 E.02682
G1 X98.513 Y147.663 E.00857
G1 X98.034 Y147.19 E.02111
G1 X97.813 Y146.808 E.01384
G1 X97.626 Y146.145 E.0216
G1 X97.626 Y107.955 E1.19742
G1 X97.883 Y107.139 E.02682
G1 X98.037 Y106.913 E.00857
G1 X98.51 Y106.434 E.02111
G1 X98.892 Y106.213 E.01384
G1 X99.497 Y106.042 E.01971
M204 S1000
G1 X99.583 Y106.403 F10800
M204 S800
G1 F1200
G1 X150.431 Y106.407 E1.5943
G1 X150.791 Y106.49 E.01158
M73 P3 R68
M73 Q3 S68
G1 X151.156 Y106.662 E.01265
G1 X151.596 Y107.054 E.01848
G1 X151.831 Y107.42 E.01364
G1 X151.997 Y107.983 E.0184
G1 X151.997 Y146.116 E1.19563
G1 X151.788 Y146.775 E.02168
M73 P3 R67
G1 X151.681 Y146.936 E.00606
G1 X151.24 Y147.382 E.01967
G1 X150.98 Y147.531 E.0094
G1 X150.417 Y147.697 E.0184
G1 X99.584 Y147.697 E1.59383
G1 X98.925 Y147.488 E.02168
G1 X98.764 Y147.381 E.00606
G1 X98.318 Y146.94 E.01967
G1 X98.169 Y146.68 E.0094
G1 X98.003 Y146.117 E.0184
G1 X98.003 Y107.984 E1.19563
G1 X98.212 Y107.325 E.02168
G1 X98.319 Y107.164 E.00606
G1 X98.76 Y106.718 E.01967
G1 X99.02 Y106.569 E.0094
G1 X99.525 Y106.42 E.01651
M204 S1000
G1 X99.612 Y106.78 F10800
M204 S800
G1 F1200
G1 X150.409 Y106.784 E1.5927
G1 X150.647 Y106.839 E.00766
G1 X150.968 Y106.991 E.01114
G1 X151.323 Y107.315 E.01507
G1 X151.479 Y107.557 E.00903
G1 X151.62 Y108.012 E.01494
G1 X151.62 Y146.087 E1.19381
G1 X151.457 Y146.593 E.01667
G1 X151.396 Y146.689 E.00357
G1 X151.025 Y147.072 E.01672
G1 X150.845 Y147.179 E.00657
G1 X150.388 Y147.32 E.015
G1 X99.613 Y147.32 E1.59201
G1 X99.107 Y147.157 E.01667
G1 X99.011 Y147.096 E.00357
G1 X98.628 Y146.725 E.01672
G1 X98.521 Y146.545 E.00657
G1 X98.38 Y146.088 E.015
G1 X98.38 Y108.013 E1.19381
G1 X98.543 Y107.507 E.01667
M73 Q3 S67
G1 X98.604 Y107.411 E.00357
G1 X98.975 Y107.028 E.01672
G1 X99.155 Y106.921 E.00657
G1 X99.555 Y106.798 E.01312
M204 S1000
G1 X99.644 Y107.157 F10800
M204 S800
G1 F1200
G1 X150.387 Y107.161 E1.59101
G1 X150.504 Y107.188 E.00376
G1 X150.778 Y107.318 E.00951
G1 X151.047 Y107.573 E.01162
G1 X151.13 Y107.7 E.00476
G1 X151.243 Y108.044 E.01135
G1 X151.243 Y146.056 E1.19184
G1 X151.106 Y146.447 E.01299
G1 X150.803 Y146.766 E.01379
G1 X150.702 Y146.829 E.00373
G1 X150.356 Y146.943 E.01142
G1 X99.644 Y146.943 E1.59004
G1 X99.253 Y146.806 E.01299
G1 X98.934 Y146.503 E.01379
G1 X98.871 Y146.402 E.00373
G1 X98.757 Y146.056 E.01142
G1 X98.757 Y108.044 E1.19184
G1 X98.894 Y107.653 E.01299
G1 X99.197 Y107.334 E.01379
G1 X99.298 Y107.271 E.00373
G1 X99.587 Y107.176 E.00954
M204 S1000
G1 X99.679 Y107.534 F10800
M204 S800
G1 F1200
G1 X150.335 Y107.534 E1.58828
G1 X150.585 Y107.644 E.00856
G1 X150.784 Y107.852 E.00903
G1 X150.866 Y108.079 E.00757
G1 X150.866 Y146.021 E1.18964
G1 X150.789 Y146.234 E.0071
G1 X150.572 Y146.468 E.01001
G1 X150.321 Y146.566 E.00845
G1 X99.679 Y146.566 E1.58784
G1 X99.466 Y146.489 E.0071
G1 X99.232 Y146.272 E.01001
G1 X99.134 Y146.021 E.00845
G1 X99.134 Y108.079 E1.18964
G1 X99.211 Y107.866 E.0071
G1 X99.428 Y107.632 E.01001
G1 X99.623 Y107.555 E.00657
M204 S1000
G1 X99.721 Y107.911 F10800
M204 S800
G1 F1200
G1 X150.279 Y107.911 E1.58521
G1 X150.348 Y107.94 E.00235
G1 X150.46 Y108.052 E.00497
G1 X150.489 Y108.121 E.00235
G1 X150.489 Y145.979 E1.18701
G1 X150.46 Y146.048 E.00235
G1 X150.348 Y146.16 E.00497
G1 X150.279 Y146.189 E.00235
G1 X99.721 Y146.189 E1.58521
G1 X99.652 Y146.16 E.00235
M73 P4 R67
M73 Q4 S67
G1 X99.54 Y146.048 E.00497
G1 X99.511 Y145.979 E.00235
G1 X99.511 Y108.121 E1.18701
G1 X99.54 Y108.052 E.00235
G1 X99.666 Y107.934 E.00541
M204 S1000
;WIPE_START
G1 F8640
G1 X103.131 Y107.932 E-.8
;WIPE_END
G1 Z.6 F720
G1 X99.666 Y104.728 F10800
G1 Z.2 F720
G1 E.8 F2100
M204 S800
G1 F1200
G1 X99.497 Y104.728 E.0053
G1 X98.359 Y104.37 E.03741
G1 X98.008 Y104.124 E.01344
G1 X97.468 Y103.591 E.02379
G1 X97.1 Y102.957 E.02298
G1 X96.872 Y102.098 E.02787
G1 X96.872 Y63.797 E1.2009
G1 X97.23 Y62.659 E.03741
G1 X97.476 Y62.308 E.01344
G1 X98.009 Y61.768 E.02379
G1 X98.643 Y61.4 E.02298
G1 X99.502 Y61.172 E.02787
G1 X150.495 Y61.176 E1.59885
G1 X151.099 Y61.3 E.01933
G1 X151.708 Y61.572 E.02091
G1 X152.401 Y62.157 E.02844
G1 X152.895 Y62.928 E.02871
G1 X153.128 Y63.802 E.02836
G1 X153.128 Y102.103 E1.2009
G1 X152.77 Y103.241 E.03741
G1 X152.524 Y103.592 E.01344
G1 X151.991 Y104.132 E.02379
G1 X151.357 Y104.5 E.02298
G1 X150.498 Y104.728 E.02787
G1 X99.726 Y104.728 E1.59192
M204 S1000
G1 X99.726 Y104.351 F10800
M204 S800
G1 F1200
G1 X99.526 Y104.351 E.00627
G1 X98.55 Y104.044 E.03208
G1 X98.261 Y103.844 E.01102
G1 X97.751 Y103.341 E.02246
G1 X97.457 Y102.833 E.0184
G1 X97.249 Y102.072 E.02474
G1 X97.249 Y63.826 E1.19918
G1 X97.556 Y62.85 E.03208
G1 X97.756 Y62.561 E.01102
G1 X98.259 Y62.051 E.02246
G1 X98.767 Y61.757 E.0184
G1 X99.528 Y61.549 E.02474
G1 X150.474 Y61.553 E1.59738
G1 X150.999 Y61.664 E.01682
G1 X151.527 Y61.904 E.01819
G1 X152.134 Y62.425 E.02508
G1 X152.539 Y63.056 E.02351
G1 X152.751 Y63.828 E.0251
G1 X152.751 Y102.074 E1.19918
G1 X152.444 Y103.05 E.03208
G1 X152.244 Y103.339 E.01102
G1 X151.741 Y103.849 E.02246
G1 X151.233 Y104.143 E.0184
G1 X150.472 Y104.351 E.02474
G1 X99.786 Y104.351 E1.58922
M204 S1000
G1 X99.786 Y103.974 F10800
M204 S800
M73 P4 R66
G1 F1200
G1 X99.555 Y103.974 E.00724
G1 X98.739 Y103.717 E.02682
G1 X98.513 Y103.563 E.00857
G1 X98.034 Y103.09 E.02111
G1 X97.813 Y102.708 E.01384
G1 X97.626 Y102.045 E.0216
G1 X97.626 Y63.855 E1.19742
G1 X97.883 Y63.039 E.02682
G1 X98.037 Y62.813 E.00857
G1 X98.51 Y62.334 E.02111
G1 X98.892 Y62.113 E.01384
G1 X99.555 Y61.926 E.0216
G1 X150.453 Y61.93 E1.59587
G1 X150.897 Y62.027 E.01425
G1 X151.343 Y62.234 E.01542
G1 X151.866 Y62.691 E.02178
G1 X152.185 Y63.186 E.01846
G1 X152.374 Y63.855 E.0218
G1 X152.374 Y102.045 E1.19742
G1 X152.117 Y102.861 E.02682
G1 X151.963 Y103.087 E.00857
