; generated by PrusaSlicer 2.7.4+win64 on 2024-04-14 at 15:42:56 UTC


;
;
; 

; external perimeters extrusion width = 0.45mm
; perimeters extrusion width = 0.45mm
; infill extrusion width = 0.45mm
; solid infill extrusion width = 0.45mm
; top infill extrusion width = 0.40mm
; support material extrusion width = 0.35mm
; first layer extrusion width = 0.42mm

M73 P0 R166
M73 Q0 S169
M201 X1000 Y1000 Z200 E5000 ; sets maximum accelerations, mm/sec^2
M203 X200 Y200 Z12 E120 ; sets maximum feedrates, mm / sec
M204 S1250 T1250 ; sets acceleration (S) and retract acceleration (R), mm/sec^2
M205 X8.00 Y8.00 Z0.40 E4.50 ; sets the jerk limits, mm/sec
M205 S0 T0 ; sets the minimum extruding and travel feed rate, mm/sec

; printing object SGPV Cradle.stl id:0 copy 0
; stop printing object SGPV Cradle.stl id:0 copy 0

;TYPE:Custom
M862.3 P "MK3S" ; printer model check
M862.1 P0.4 ; nozzle diameter check
M115 U3.13.3 ; tell printer latest fw version
G90 ; use absolute coordinates
M83 ; extruder relative mode
M104 S215 ; set extruder temp
M140 S60 ; set bed temp
M190 S60 ; wait for bed temp
M109 S215 ; wait for extruder temp
G28 W ; home all without mesh bed level
G80 X59.2225 Y78.6253 W131.555 H55.0672 ; mesh bed levelling

G1 Z0.2 F720
G1 Y-3 F1000 ; go outside print area
G92 E0
G1 X60 E9 F1000 ; intro line
G1 X100 E12.5 F1000 ; intro line

G92 E0
M221 S95

; Don't change E values below. Excessive value can damage the printer.
M907 E430 ; set extruder motor current
G21 ; set units to millimeters
G90 ; use absolute coordinates
M83 ; use relative distances for extrusion

M900 K0.05 ; Filament gcode LA 1.5
M900 K30 ; Filament gcode LA 1.0




M107
;LAYER_CHANGE
;Z:0.2
;HEIGHT:0.2
G1 E-.8 F2100
M73 P0 R165
G1 Z.6 F720
G1 X65.061 Y79.51 F10800
G1 Z.2 F720
G1 E.8 F2100
M204 S800
;TYPE:Skirt/Brim
;WIDTH:0.42
G1 F1200
G1 X66.742 Y78.814 E.05705
G1 X183.258 Y78.814 E3.65328
G1 X184.939 Y79.51 E.05705
G1 X187.575 Y82.146 E.11688
G1 X187.988 Y82.702 E.02172
G1 X190.306 Y87.02 E.15366
G1 X190.589 Y88.144 E.03634
G1 X190.589 Y124.173 E1.12966
G1 X190.467 Y124.925 E.02389
G1 X188.149 Y131.879 E.22983
G1 X187.364 Y132.995 E.04278
G1 X185.894 Y133.504 E.04878
G1 X64.106 Y133.504 E3.81858
G1 X62.799 Y133.112 E.04278
G1 X61.851 Y131.879 E.04877
G1 X59.533 Y124.925 E.22983
G1 X59.411 Y124.173 E.02389
G1 X59.411 Y88.144 E1.12966
G1 X59.694 Y87.02 E.03634
G1 X62.012 Y82.702 E.15366
G1 X62.425 Y82.146 E.02172
G1 X65.018 Y79.552 E.115
M204 S1000
;WIPE_START
G1 F8640
G1 X65.061 Y79.51 E-.01388
G1 X66.742 Y78.814 E-.4201
G1 X68.327 Y78.814 E-.36602
;WIPE_END
G1 Z.6 F720
; printing object SGPV Cradle.stl id:0 copy 0
G1 X69.236 Y86.458 F10800
G1 Z.2 F720
G1 E.8 F2100
M204 S800
;TYPE:Support material interface
;WIDTH:0.35
G1 F1200
G1 X69.373 Y86.458 E.0035
G1 X69.373 Y85.841 E.01575
G1 X69.077 Y86.235 E.01258
G1 X69.077 Y86.458 E.00569
G1 X68.559 Y86.458 E.01323
G1 X68.559 Y86.257 E.00513
G1 X68.374 Y86.195 E.00498
G1 X68.374 Y84.14 E.05247
G1 X68.041 Y84.14 E.0085
G1 X68.041 Y86.458 E.05919
G1 X67.523 Y86.458 E.01323
G1 X67.523 Y84.14 E.05919
G1 X67.055 Y84.14 E.01195
G1 X67.055 Y86.458 E.05919
G1 X67.364 Y86.458 E.00789
M204 S1000
;WIPE_START
G1 F8640
G1 X67.055 Y86.458 E-.07135
G1 X67.055 Y84.14 E-.53523
G1 X67.523 Y84.14 E-.10806
G1 X67.523 Y84.51 E-.08536
;WIPE_END
G1 Z.6 F720
G1 X69.11 Y85.507 F10800
G1 Z.2 F720
G1 E.8 F2100
M204 S800
;TYPE:Support material
;WIDTH:0.42
G1 F1200
G1 X68.824 Y85.956 E.01669
G1 X68.743 Y85.929 E.00268
G1 X68.743 Y85.455 E.01486
G1 X69.054 Y85.499 E.00985
M204 S1000
;WIPE_START
G1 F8640
G1 X68.743 Y85.455 E-.07253
G1 X68.743 Y85.929 E-.10945
G1 X68.824 Y85.956 E-.01971
G1 X69.11 Y85.507 E-.12292
;WIPE_END
G1 E-.47539 F2100
G1 Z.6 F720
G1 X180.764 Y86.458 F10800
G1 Z.2 F720
G1 E.8 F2100
M204 S800
;TYPE:Support material interface
;WIDTH:0.35
G1 F1200
G1 X180.627 Y86.458 E.0035
G1 X180.627 Y85.862 E.01522
G1 X180.923 Y86.303 E.01356
G1 X180.923 Y86.458 E.00396
G1 X181.441 Y86.458 E.01323
G1 X181.441 Y86.271 E.00477
G1 X181.601 Y86.222 E.00427
G1 X181.601 Y84.14 E.05316
G1 X181.959 Y84.14 E.00914
G1 X181.959 Y86.458 E.05919
G1 X182.477 Y86.458 E.01323
G1 X182.477 Y84.14 E.05919
G1 X182.945 Y84.14 E.01195
G1 X182.945 Y86.458 E.05919
G1 X182.636 Y86.458 E.00789
M204 S1000
;WIPE_START
G1 F8640
G1 X182.945 Y86.458 E-.07135
G1 X182.945 Y84.14 E-.53523
G1 X182.477 Y84.14 E-.10806
G1 X182.477 Y84.51 E-.08536
;WIPE_END
G1 Z.6 F720
G1 X181.232 Y85.727 F10800
G1 Z.2 F720
G1 E.8 F2100
M204 S800
;TYPE:Support material
;WIDTH:0.42
G1 F1200
G1 X181.232 Y85.949 E.00696
G1 X181.147 Y85.974 E.00278
G1 X180.878 Y85.563 E.0154
G1 X181.232 Y85.511 E.01122
G1 X181.232 Y85.671 E.00502
M204 S1000
;WIPE_START
G1 F8640
G1 X181.232 Y85.511 E-.03694
G1 X180.878 Y85.563 E-.08262
G1 X181.147 Y85.974 E-.11342
G1 X181.232 Y85.949 E-.02046
G1 X181.232 Y85.727 E-.05126
;WIPE_END
G1 E-.4953 F2100
G1 Z.6 F720
G1 X185.894 Y88.144 F10800
G1 Z.2 F720
G1 E.8 F2100
M204 S800
G1 F1200
G1 X188.212 Y88.144 E.07268
G1 X188.212 Y124.173 E1.12966
G1 X185.894 Y124.173 E.07268
G1 X185.894 Y131.127 E.21804
G1 X177.679 Y131.127 E.25758
G1 X177.679 Y128.809 E.07268
G1 X175.361 Y128.809 E.07268
G1 X175.361 Y126.491 E.07268
G1 X173.043 Y126.491 E.07268
G1 X173.043 Y124.173 E.07268
G1 X76.957 Y124.173 E3.01271
G1 X76.957 Y126.491 E.07268
G1 X74.639 Y126.491 E.07268
G1 X74.639 Y128.809 E.07268
G1 X72.321 Y128.809 E.07268
G1 X72.321 Y131.127 E.07268
G1 X64.106 Y131.127 E.25758
G1 X64.106 Y124.173 E.21804
G1 X61.788 Y124.173 E.07268
G1 X61.788 Y88.144 E1.12966
G1 X64.106 Y88.144 E.07268
G1 X64.106 Y83.827 E.13536
G1 X66.686 Y83.827 E.08089
G1 X66.686 Y86.827 E.09406
G1 X69.742 Y86.827 E.09582
G1 X69.742 Y83.771 E.09582
G1 X69.292 Y83.771 E.01411
G1 X69.174 Y83.258 E.0165
G1 X68.322 Y83.355 E.02689
G1 X68.322 Y83.771 E.01304
G1 X66.742 Y83.771 E.04954
G1 X66.742 Y81.191 E.08089
G1 X74.639 Y81.191 E.2476
G1 X74.639 Y83.509 E.07268
G1 X76.957 Y83.509 E.07268
G1 X76.957 Y85.827 E.07268
G1 X79.275 Y85.827 E.07268
G1 X79.275 Y88.144 E.07265
G1 X170.725 Y88.144 E2.86735
G1 X170.725 Y85.827 E.07265
G1 X173.043 Y85.827 E.07268
G1 X173.043 Y83.509 E.07268
G1 X175.361 Y83.509 E.07268
G1 X175.361 Y81.191 E.07268
G1 X183.258 Y81.191 E.2476
G1 X183.258 Y83.771 E.08089
G1 X181.652 Y83.771 E.05036
G1 X181.652 Y83.353 E.01311
G1 X180.82 Y83.241 E.02632
G1 X180.677 Y83.771 E.01721
G1 X180.258 Y83.771 E.01314
G1 X180.258 Y86.827 E.09582
G1 X183.314 Y86.827 E.09582
G1 X183.314 Y83.827 E.09406
G1 X185.894 Y83.827 E.08089
G1 X185.894 Y88.088 E.1336
M204 S1000
G1 X185.894 Y88.088 F10800
G1 X187.847 Y124.004
M204 S800
G1 F1200
G1 X187.847 Y88.484 E1.1137
G1 X187.428 Y88.484 E.01314
G1 X187.428 Y123.834 E1.10837
G1 X187.009 Y123.834 E.01314
G1 X187.009 Y88.484 E1.10837
G1 X186.59 Y88.484 E.01314
G1 X186.59 Y123.834 E1.10837
G1 X186.171 Y123.834 E.01314
G1 X186.171 Y88.484 E1.10837
G1 X185.752 Y88.484 E.01314
M73 Q0 S168
G1 X185.752 Y123.834 E1.10837
G1 X185.555 Y123.834 E.00618
G1 X185.555 Y130.788 E.21804
G1 X185.333 Y130.788 E.00696
G1 X185.333 Y84.166 E1.4618
G1 X184.914 Y84.166 E.01314
G1 X184.914 Y130.788 E1.4618
G1 X184.495 Y130.788 E.01314
M73 P0 R164
G1 X184.495 Y84.166 E1.4618
G1 X184.076 Y84.166 E.01314
G1 X184.076 Y130.788 E1.4618
G1 X183.657 Y130.788 E.01314
G1 X183.654 Y84.166 E1.4618
G1 X183.654 Y87.166 E.09406
G1 X183.238 Y87.166 E.01304
G1 X183.238 Y130.788 E1.36774
G1 X182.819 Y130.788 E.01314
G1 X182.819 Y87.166 E1.36774
G1 X182.4 Y87.166 E.01314
G1 X182.4 Y130.788 E1.36774
G1 X181.981 Y130.788 E.01314
G1 X181.981 Y87.166 E1.36774
G1 X181.562 Y87.166 E.01314
G1 X181.562 Y130.788 E1.36774
G1 X181.143 Y130.788 E.01314
G1 X181.143 Y87.166 E1.36774
G1 X180.724 Y87.166 E.01314
G1 X180.724 Y130.788 E1.36774
G1 X180.305 Y130.788 E.01314
G1 X180.305 Y87.166 E1.36774
G1 X179.919 Y87.166 E.0121
G1 X179.919 Y83.431 E.11711
G1 X180.305 Y83.431 E.0121
G1 X180.305 Y81.53 E.0596
G1 X180.724 Y81.53 E.01314
G1 X180.724 Y82.886 E.04252
G1 X181.143 Y82.942 E.01325
G1 X181.143 Y81.53 E.04427
G1 X181.562 Y81.53 E.01314
G1 X181.562 Y82.999 E.04606
G1 X181.981 Y83.055 E.01325
G1 X181.981 Y81.53 E.04782
G1 X182.4 Y81.53 E.01314
G1 X182.4 Y83.431 E.0596
G1 X182.819 Y83.431 E.01314
G1 X182.819 Y81.361 E.0649
M204 S1000
;WIPE_START
G1 F8640
G1 X182.819 Y83.431 E-.47797
G1 X182.4 Y83.431 E-.09675
G1 X182.4 Y82.456 E-.22528
;WIPE_END
G1 Z.6 F720
G1 X179.886 Y130.957 F10800
G1 Z.2 F720
G1 E.8 F2100
M204 S800
G1 F1200
G1 X179.886 Y81.53 E1.54975
G1 X179.467 Y81.53 E.01314
G1 X179.467 Y130.788 E1.54445
G1 X179.048 Y130.788 E.01314
G1 X179.048 Y81.53 E1.54445
G1 X178.629 Y81.53 E.01314
M73 P1 R164
M73 Q1 S168
G1 X178.629 Y130.788 E1.54445
G1 X178.21 Y130.788 E.01314
G1 X178.21 Y81.53 E1.54445
G1 X177.791 Y81.53 E.01314
G1 X177.791 Y128.47 E1.47177
G1 X177.372 Y128.47 E.01314
G1 X177.372 Y81.53 E1.47177
G1 X176.953 Y81.53 E.01314
G1 X176.953 Y128.47 E1.47177
G1 X176.534 Y128.47 E.01314
G1 X176.534 Y81.53 E1.47177
G1 X176.115 Y81.53 E.01314
G1 X176.115 Y128.47 E1.47177
G1 X175.7 Y128.47 E.01301
G1 X175.696 Y83.848 E1.39909
G1 X175.277 Y83.848 E.01314
M73 Q1 S167
G1 X175.277 Y126.152 E1.32641
G1 X174.858 Y126.152 E.01314
G1 X174.858 Y83.848 E1.32641
G1 X174.439 Y83.848 E.01314
G1 X174.439 Y126.152 E1.32641
G1 X174.02 Y126.152 E.01314
M73 P1 R163
G1 X174.02 Y83.848 E1.32641
G1 X173.601 Y83.848 E.01314
G1 X173.601 Y126.152 E1.32641
G1 X173.382 Y126.152 E.00687
G1 X173.382 Y123.834 E.07268
G1 X173.182 Y123.834 E.00627
G1 X173.182 Y86.166 E1.18105
G1 X172.763 Y86.166 E.01314
G1 X172.763 Y123.834 E1.18105
G1 X172.344 Y123.834 E.01314
G1 X172.344 Y86.166 E1.18105
G1 X171.925 Y86.166 E.01314
G1 X171.925 Y123.834 E1.18105
G1 X171.506 Y123.834 E.01314
G1 X171.506 Y86.166 E1.18105
G1 X171.087 Y86.166 E.01314
G1 X171.087 Y123.834 E1.18105
G1 X170.668 Y123.834 E.01314
G1 X170.668 Y88.484 E1.10837
G1 X170.25 Y88.484 E.01311
G1 X170.25 Y123.834 E1.10837
G1 X169.831 Y123.834 E.01314
G1 X169.831 Y88.484 E1.10837
G1 X169.412 Y88.484 E.01314
G1 X169.412 Y123.834 E1.10837
G1 X168.993 Y123.834 E.01314
G1 X168.993 Y88.484 E1.10837
G1 X168.574 Y88.484 E.01314
G1 X168.574 Y123.834 E1.10837
G1 X168.155 Y123.834 E.01314
G1 X168.155 Y88.484 E1.10837
G1 X167.736 Y88.484 E.01314
G1 X167.736 Y123.834 E1.10837
G1 X167.317 Y123.834 E.01314
G1 X167.317 Y88.484 E1.10837
G1 X166.898 Y88.484 E.01314
G1 X166.898 Y123.834 E1.10837
G1 X166.479 Y123.834 E.01314
G1 X166.479 Y88.484 E1.10837
G1 X166.06 Y88.484 E.01314
G1 X166.06 Y123.834 E1.10837
G1 X165.641 Y123.834 E.01314
G1 X165.641 Y88.484 E1.10837
G1 X165.222 Y88.484 E.01314
G1 X165.222 Y123.834 E1.10837
G1 X164.803 Y123.834 E.01314
G1 X164.803 Y88.484 E1.10837
G1 X164.384 Y88.484 E.01314
G1 X164.384 Y123.834 E1.10837
G1 X163.965 Y123.834 E.01314
G1 X163.965 Y88.484 E1.10837
G1 X163.546 Y88.484 E.01314
G1 X163.546 Y123.834 E1.10837
G1 X163.127 Y123.834 E.01314
G1 X163.127 Y88.484 E1.10837
G1 X162.708 Y88.484 E.01314
G1 X162.708 Y123.834 E1.10837
G1 X162.289 Y123.834 E.01314
M73 Q1 S166
G1 X162.289 Y88.484 E1.10837
G1 X161.87 Y88.484 E.01314
G1 X161.87 Y123.834 E1.10837
G1 X161.451 Y123.834 E.01314
G1 X161.451 Y88.484 E1.10837
G1 X161.032 Y88.484 E.01314
G1 X161.032 Y123.834 E1.10837
G1 X160.613 Y123.834 E.01314
M73 P1 R162
G1 X160.613 Y88.484 E1.10837
G1 X160.194 Y88.484 E.01314
G1 X160.194 Y123.834 E1.10837
G1 X159.775 Y123.834 E.01314
G1 X159.775 Y88.484 E1.10837
G1 X159.356 Y88.484 E.01314
G1 X159.356 Y123.834 E1.10837
G1 X158.937 Y123.834 E.01314
G1 X158.937 Y88.484 E1.10837
G1 X158.518 Y88.484 E.01314
G1 X158.518 Y123.834 E1.10837
G1 X158.099 Y123.834 E.01314
G1 X158.099 Y88.484 E1.10837
G1 X157.68 Y88.484 E.01314
G1 X157.68 Y123.834 E1.10837
G1 X157.261 Y123.834 E.01314
M73 P2 R162
G1 X157.261 Y88.484 E1.10837
G1 X156.842 Y88.484 E.01314
G1 X156.842 Y123.834 E1.10837
G1 X156.423 Y123.834 E.01314
M73 Q2 S166
G1 X156.423 Y88.484 E1.10837
G1 X156.004 Y88.484 E.01314
G1 X156.004 Y123.834 E1.10837
G1 X155.585 Y123.834 E.01314
G1 X155.585 Y88.484 E1.10837
G1 X155.166 Y88.484 E.01314
G1 X155.166 Y123.834 E1.10837
G1 X154.747 Y123.834 E.01314
G1 X154.747 Y88.484 E1.10837
G1 X154.328 Y88.484 E.01314
G1 X154.328 Y123.834 E1.10837
G1 X153.909 Y123.834 E.01314
G1 X153.909 Y88.484 E1.10837
G1 X153.49 Y88.484 E.01314
G1 X153.49 Y123.834 E1.10837
G1 X153.071 Y123.834 E.01314
G1 X153.071 Y88.484 E1.10837
G1 X152.652 Y88.484 E.01314
G1 X152.652 Y123.834 E1.10837
G1 X152.234 Y123.834 E.01311
G1 X152.234 Y88.484 E1.10837
G1 X151.815 Y88.484 E.01314
G1 X151.815 Y123.834 E1.10837
G1 X151.396 Y123.834 E.01314
G1 X151.396 Y88.484 E1.10837
G1 X150.977 Y88.484 E.01314
G1 X150.977 Y123.834 E1.10837
G1 X150.558 Y123.834 E.01314
G1 X150.558 Y88.484 E1.10837
G1 X150.139 Y88.484 E.01314
G1 X150.139 Y123.834 E1.10837
G1 X149.72 Y123.834 E.01314
G1 X149.72 Y88.484 E1.10837
G1 X149.301 Y88.484 E.01314
G1 X149.301 Y123.834 E1.10837
G1 X148.882 Y123.834 E.01314
G1 X148.882 Y88.484 E1.10837
G1 X148.463 Y88.484 E.01314
M73 Q2 S165
G1 X148.463 Y123.834 E1.10837
G1 X148.044 Y123.834 E.01314
G1 X148.044 Y88.484 E1.10837
G1 X147.625 Y88.484 E.01314
G1 X147.625 Y123.834 E1.10837
G1 X147.206 Y123.834 E.01314
G1 X147.206 Y88.484 E1.10837
G1 X146.787 Y88.484 E.01314
G1 X146.787 Y123.834 E1.10837
G1 X146.368 Y123.834 E.01314
M73 P2 R161
G1 X146.368 Y88.484 E1.10837
G1 X145.949 Y88.484 E.01314
G1 X145.949 Y123.834 E1.10837
G1 X145.53 Y123.834 E.01314
G1 X145.53 Y88.484 E1.10837
G1 X145.111 Y88.484 E.01314
G1 X145.111 Y123.834 E1.10837
G1 X144.692 Y123.834 E.01314
G1 X144.692 Y88.484 E1.10837
G1 X144.273 Y88.484 E.01314
G1 X144.273 Y123.834 E1.10837
G1 X143.854 Y123.834 E.01314
G1 X143.854 Y88.484 E1.10837
G1 X143.435 Y88.484 E.01314
G1 X143.435 Y123.834 E1.10837
G1 X143.016 Y123.834 E.01314
G1 X143.016 Y88.484 E1.10837
G1 X142.597 Y88.484 E.01314
G1 X142.597 Y123.834 E1.10837
G1 X142.178 Y123.834 E.01314
G1 X142.178 Y88.484 E1.10837
G1 X141.759 Y88.484 E.01314
G1 X141.759 Y123.834 E1.10837
G1 X141.34 Y123.834 E.01314
G1 X141.34 Y88.484 E1.10837
G1 X140.921 Y88.484 E.01314
G1 X140.921 Y123.834 E1.10837
G1 X140.502 Y123.834 E.01314
G1 X140.502 Y88.484 E1.10837
G1 X140.083 Y88.484 E.01314
G1 X140.083 Y123.834 E1.10837
G1 X139.664 Y123.834 E.01314
G1 X139.664 Y88.484 E1.10837
G1 X139.245 Y88.484 E.01314
G1 X139.245 Y123.834 E1.10837
G1 X138.826 Y123.834 E.01314
G1 X138.826 Y88.484 E1.10837
G1 X138.407 Y88.484 E.01314
G1 X138.407 Y123.834 E1.10837
G1 X137.988 Y123.834 E.01314
G1 X137.988 Y88.484 E1.10837
G1 X137.569 Y88.484 E.01314
G1 X137.569 Y123.834 E1.10837
G1 X137.15 Y123.834 E.01314
G1 X137.15 Y88.484 E1.10837
G1 X136.731 Y88.484 E.01314
G1 X136.731 Y123.834 E1.10837
G1 X136.312 Y123.834 E.01314
G1 X136.312 Y88.484 E1.10837
G1 X135.893 Y88.484 E.01314
G1 X135.893 Y123.834 E1.10837
G1 X135.474 Y123.834 E.01314
G1 X135.474 Y88.484 E1.10837
G1 X135.055 Y88.484 E.01314
G1 X135.055 Y123.834 E1.10837
G1 X134.636 Y123.834 E.01314
G1 X134.636 Y88.484 E1.10837
G1 X134.217 Y88.484 E.01314
M73 P3 R161
M73 Q2 S164
G1 X134.217 Y123.834 E1.10837
G1 X133.799 Y123.834 E.01311
G1 X133.799 Y88.484 E1.10837
G1 X133.38 Y88.484 E.01314
G1 X133.38 Y123.834 E1.10837
G1 X132.961 Y123.834 E.01314
M73 Q3 S164
G1 X132.961 Y88.484 E1.10837
G1 X132.542 Y88.484 E.01314
M73 P3 R160
G1 X132.542 Y123.834 E1.10837
G1 X132.123 Y123.834 E.01314
G1 X132.123 Y88.484 E1.10837
G1 X131.704 Y88.484 E.01314
G1 X131.704 Y123.834 E1.10837
G1 X131.285 Y123.834 E.01314
G1 X131.285 Y88.484 E1.10837
G1 X130.866 Y88.484 E.01314
G1 X130.866 Y123.834 E1.10837
G1 X130.447 Y123.834 E.01314
G1 X130.447 Y88.484 E1.10837
G1 X130.028 Y88.484 E.01314
G1 X130.028 Y123.834 E1.10837
G1 X129.609 Y123.834 E.01314
G1 X129.609 Y88.484 E1.10837
G1 X129.19 Y88.484 E.01314
G1 X129.19 Y123.834 E1.10837
G1 X128.771 Y123.834 E.01314
G1 X128.771 Y88.484 E1.10837
G1 X128.352 Y88.484 E.01314
G1 X128.352 Y123.834 E1.10837
G1 X127.933 Y123.834 E.01314
G1 X127.933 Y88.484 E1.10837
G1 X127.514 Y88.484 E.01314
G1 X127.514 Y123.834 E1.10837
G1 X127.095 Y123.834 E.01314
G1 X127.095 Y88.484 E1.10837
G1 X126.676 Y88.484 E.01314
G1 X126.676 Y123.834 E1.10837
G1 X126.257 Y123.834 E.01314
