; generated by PrusaSlicer 2.7.4+win64 on 2024-05-12 at 12:41:10 UTC


;
;
; 

; external perimeters extrusion width = 0.68mm
; perimeters extrusion width = 0.68mm
; infill extrusion width = 0.68mm
; solid infill extrusion width = 0.68mm
; top infill extrusion width = 0.60mm
; support material extrusion width = 0.55mm
; first layer extrusion width = 0.65mm

M73 P0 R73
M73 Q0 S74
M201 X1000 Y1000 Z200 E5000 ; sets maximum accelerations, mm/sec^2
M203 X200 Y200 Z12 E120 ; sets maximum feedrates, mm / sec
M204 S1250 T1250 ; sets acceleration (S) and retract acceleration (R), mm/sec^2
M205 X8.00 Y8.00 Z0.40 E4.50 ; sets the jerk limits, mm/sec
M205 S0 T0 ; sets the minimum extruding and travel feed rate, mm/sec

; printing object SGPV Trigger.stl id:0 copy 0
; stop printing object SGPV Trigger.stl id:0 copy 0

;TYPE:Custom
M862.3 P "MK3S" ; printer model check
M862.1 P0.6 ; nozzle diameter check
M115 U3.13.3 ; tell printer latest fw version
G90 ; use absolute coordinates
M83 ; extruder relative mode
M104 S220 ; set extruder temp
M140 S64 ; set bed temp
M190 S64 ; wait for bed temp
M109 S220 ; wait for extruder temp
G28 W ; home all without mesh bed level
G80 X63.6717 Y55.9966 W122.644 H88.3086 ; mesh bed levelling

G1 Z0.2 F720
G1 Y-3 F1000 ; go outside print area
G92 E0
G1 X60 E9 F1000 ; intro line
G1 X100 E12.5 F1000 ; intro line

G92 E0
M221 S95

; Don't change E values below. Excessive value can damage the printer.

G21 ; set units to millimeters
G90 ; use absolute coordinates
M83 ; use relative distances for extrusion

M900 K0.04 ; Filament gcode LA 1.5
M900 K18 ; Filament gcode LA 1.0




M107
;LAYER_CHANGE
;Z:0.2
;HEIGHT:0.2
G1 E-.8 F2100
G1 Z.6 F720
G1 X66.656 Y58.962 F10800
G1 Z.2 F720
G1 E.8 F2100
M204 S800
;TYPE:Skirt/Brim
;WIDTH:0.65
G1 F1200
G1 X67.912 Y57.947 E.08152
G1 X69.331 Y57.177 E.0815
G1 X70.867 Y56.677 E.08154
G1 X72.365 Y56.468 E.07635
G1 X114.637 Y56.3 E2.13386
G1 X153.865 Y56.3 E1.98019
G1 X173.652 Y56.481 E.99887
G1 X174.793 Y56.507 E.05761
G1 X176.382 Y56.795 E.08152
G1 X177.892 Y57.365 E.08147
G1 X179.648 Y58.492 E.10533
G1 X180.48 Y59.271 E.05753
G1 X181.472 Y60.543 E.08143
G1 X182.386 Y62.418 E.10529
G1 X182.776 Y63.983 E.08142
M73 P0 R72
G1 X182.885 Y65.234 E.06339
G1 X186.01 Y136.284 E3.58999
G1 X185.997 Y137.671 E.07002
G1 X185.881 Y138.408 E.03766
G1 X185.564 Y139.435 E.05426
G1 X184.967 Y140.646 E.06815
G1 X184.199 Y141.683 E.06514
G1 X183.081 Y142.669 E.07525
G1 X182.134 Y143.251 E.05611
G1 X181.492 Y143.535 E.03544
G1 X180.58 Y143.799 E.04793
G1 X179.12 Y144.002 E.07441
G1 X72.847 Y144.002 E5.36454
G1 X71.342 Y143.861 E.0763
G1 X69.933 Y143.433 E.07433
G1 X68.752 Y142.787 E.06795
G1 X67.661 Y141.895 E.07114
G1 X66.73 Y140.709 E.07611
G1 X66.205 Y139.737 E.05577
G1 X65.761 Y138.268 E.07747
G1 X65.628 Y136.846 E.07209
G1 X63.977 Y65.674 E3.59365
G1 X64.068 Y64.015 E.08387
G1 X64.226 Y63.209 E.04146
G1 X64.649 Y61.92 E.06848
G1 X65.422 Y60.456 E.08357
G1 X66.598 Y59.031 E.09326
M204 S1000
;WIPE_START
G1 F8640
G1 X66.656 Y58.962 E-.02081
G1 X67.912 Y57.947 E-.37287
G1 X69.331 Y57.177 E-.37278
G1 X69.469 Y57.132 E-.03354
;WIPE_END
G1 Z.6 F720
; printing object SGPV Trigger.stl id:0 copy 0
G1 X181.539 Y132.758 F10800
G1 Z.2 F720
G1 E.8 F2100
M204 S800
;TYPE:Support material
G1 F1200
G1 X182.627 Y133.883 E.079
G1 X182.974 Y135.042 E.06107
G1 X183.175 Y135.464 E.0236
G1 X183.405 Y136.399 E.0486
G1 X183.39 Y137.639 E.0626
G1 X183.073 Y138.666 E.05426
G1 X182.797 Y139.201 E.03039
G1 X182.402 Y139.794 E.03597
G1 X181.715 Y140.448 E.04788
G1 X180.768 Y141.031 E.05614
G1 X179.856 Y141.294 E.04791
G1 X179.12 Y141.395 E.0375
G1 X178.256 Y141.333 E.04373
G1 X177.404 Y141.117 E.04437
G1 X176.571 Y140.687 E.04732
G1 X175.925 Y140.211 E.04051
G1 X175.297 Y139.469 E.04907
G1 X174.772 Y138.498 E.05572
G1 X174.57 Y137.658 E.04361
G1 X174.502 Y136.669 E.05004
G1 X174.736 Y135.596 E.05544
G1 X174.774 Y134.739 E.0433
G1 X175.553 Y133.168 E.08852
G1 X175.553 Y134.18 E.05108
G1 X176.062 Y134.689 E.03634
G1 X180.211 Y134.689 E.20944
G1 X180.72 Y134.18 E.03634
G1 X180.72 Y132.506 E.0845
G1 X181.452 Y132.731 E.03866
M204 S1000
G1 X181.452 Y132.731 F10800
G1 X182.335 Y139.402
M204 S800
G1 F1200
G1 X182.335 Y134.813 E.23165
G1 X182.142 Y134.167 E.03403
G1 X181.661 Y133.67 E.03491
G1 X181.661 Y139.746 E.30671
G1 X180.986 Y140.255 E.04267
G1 X180.986 Y134.686 E.28112
G1 X180.438 Y135.235 E.03916
G1 X180.312 Y135.235 E.00636
G1 X180.312 Y140.594 E.27052
G1 X179.743 Y140.758 E.02989
G1 X179.637 Y140.773 E.0054
G1 X179.637 Y135.235 E.27955
G1 X178.963 Y135.235 E.03402
G1 X178.963 Y140.836 E.28273
G1 X178.343 Y140.792 E.03138
G1 X178.288 Y140.778 E.00286
G1 X178.288 Y135.235 E.2798
G1 X177.613 Y135.235 E.03407
G1 X177.613 Y140.607 E.27117
G1 X176.939 Y140.262 E.03822
G1 X176.939 Y135.235 E.25376
G1 X176.264 Y135.235 E.03407
G1 X176.264 Y139.767 E.22877
G1 X175.59 Y138.862 E.05696
G1 X175.59 Y134.602 E.21504
M204 S1000
;WIPE_START
G1 F8640
G1 X175.59 Y138.067 E-.8
;WIPE_END
G1 Z.6 F720
G1 X175.553 Y78.701 F10800
G1 Z.2 F720
G1 E.8 F2100
M204 S800
G1 F1200
G1 X174.769 Y78.591 E.03996
G1 X173.797 Y78.737 E.04962
G1 X172.902 Y78.559 E.04606
G1 X172.008 Y78.737 E.04601
G1 X170.919 Y78.574 E.05558
G1 X169.83 Y78.737 E.05558
G1 X168.978 Y78.567 E.04386
G1 X167.762 Y78.75 E.06207
G1 X166.952 Y78.535 E.0423
G1 X166.143 Y78.75 E.04225
G1 X164.969 Y78.574 E.05992
G1 X163.88 Y78.737 E.05558
G1 X162.986 Y78.559 E.04601
G1 X162.091 Y78.737 E.04606
G1 X161.002 Y78.574 E.05558
G1 X159.914 Y78.737 E.05553
G1 X159.062 Y78.567 E.04386
G1 X157.93 Y78.737 E.05778
G1 X157.036 Y78.559 E.04601
G1 X156.141 Y78.737 E.04606
G1 X155.01 Y78.567 E.05773
G1 X154.158 Y78.737 E.04386
G1 X153.069 Y78.574 E.05558
G1 X151.98 Y78.737 E.05558
G1 X151.086 Y78.559 E.04601
G1 X150.191 Y78.737 E.04606
G1 X149.102 Y78.574 E.05558
G1 X147.928 Y78.75 E.05992
G1 X147.169 Y78.549 E.03963
G1 X146.225 Y78.737 E.04859
G1 X145.093 Y78.567 E.05778
G1 X144.241 Y78.737 E.04386
G1 X143.11 Y78.567 E.05773
G1 X142.258 Y78.737 E.04386
G1 X141.126 Y78.567 E.05778
G1 X140.275 Y78.737 E.04381
G1 X139.186 Y78.574 E.05558
G1 X138.097 Y78.737 E.05558
G1 X137.202 Y78.559 E.04606
G1 X136.308 Y78.737 E.04601
G1 X135.176 Y78.567 E.05778
G1 X134.325 Y78.737 E.04381
G1 X133.193 Y78.567 E.05778
G1 X132.341 Y78.737 E.04386
G1 X131.252 Y78.574 E.05558
G1 X130.078 Y78.749 E.05992
G1 X129.361 Y78.56 E.03743
G1 X128.18 Y78.737 E.06028
G1 X127.286 Y78.559 E.04601
G1 X126.391 Y78.737 E.04606
G1 X125.26 Y78.567 E.05773
G1 X124.408 Y78.737 E.04386
G1 X123.276 Y78.567 E.05778
G1 X122.425 Y78.737 E.04381
G1 X121.293 Y78.567 E.05778
G1 X120.441 Y78.737 E.04386
G1 X119.31 Y78.567 E.05773
G1 X118.458 Y78.737 E.04386
G1 X117.326 Y78.567 E.05778
G1 X116.475 Y78.737 E.04381
G1 X115.343 Y78.567 E.05778
G1 X114.491 Y78.737 E.04386
G1 X113.403 Y78.574 E.05553
G1 X112.229 Y78.749 E.05992
G1 X111.469 Y78.549 E.03967
G1 X110.525 Y78.737 E.04859
G1 X109.344 Y78.56 E.06028
G1 X108.626 Y78.749 E.03748
G1 X107.41 Y78.567 E.06207
G1 X106.558 Y78.737 E.04386
G1 X105.426 Y78.567 E.05778
G1 X104.575 Y78.737 E.04381
G1 X103.443 Y78.567 E.05778
G1 X102.591 Y78.737 E.04386
G1 X101.46 Y78.567 E.05773
G1 X100.608 Y78.737 E.04386
G1 X99.519 Y78.574 E.05558
G1 X98.43 Y78.737 E.05558
G1 X97.536 Y78.559 E.04601
G1 X96.641 Y78.737 E.04606
G1 X95.51 Y78.567 E.05773
G1 X94.658 Y78.737 E.04386
G1 X93.526 Y78.567 E.05778
G1 X92.675 Y78.737 E.04381
G1 X91.586 Y78.574 E.05558
G1 X90.412 Y78.749 E.05992
G1 X89.695 Y78.56 E.03743
G1 X88.514 Y78.737 E.06028
G1 X87.619 Y78.559 E.04606
G1 X86.725 Y78.737 E.04601
G1 X85.636 Y78.574 E.05558
G1 X84.547 Y78.737 E.05558
G1 X83.695 Y78.567 E.04386
G1 X82.564 Y78.737 E.05773
G1 X81.669 Y78.559 E.04606
G1 X80.775 Y78.737 E.04601
G1 X79.643 Y78.567 E.05778
G1 X78.791 Y78.737 E.04386
G1 X77.61 Y78.56 E.06028
G1 X76.893 Y78.749 E.03743
G1 X75.677 Y78.567 E.06207
G1 X74.825 Y78.737 E.04386
G1 X74.447 Y78.68 E.0193
G1 X74.447 Y73.832 E.24472
G1 X175.553 Y73.832 E5.10372
G1 X175.553 Y78.609 E.24114
M73 P1 R72
M73 Q1 S74
M204 S1000
G1 X175.553 Y78.609 F10800
G1 X174.915 Y78.336
M204 S800
G1 F1200
G1 X174.915 Y74.378 E.1998
G1 X174.241 Y74.378 E.03402
G1 X174.241 Y78.118 E.18879
G1 X173.81 Y78.182 E.02199
G1 X173.566 Y78.134 E.01255
G1 X173.566 Y74.378 E.1896
G1 X172.892 Y74.378 E.03402
G1 X172.892 Y78.004 E.18304
G1 X172.217 Y78.138 E.03474
G1 X172.217 Y74.378 E.1898
G1 X171.543 Y74.378 E.03402
G1 X171.543 Y78.115 E.18864
G1 X170.868 Y78.029 E.03435
G1 X170.868 Y74.378 E.1843
G1 X170.194 Y74.378 E.03402
G1 X170.194 Y78.13 E.1894
G1 X169.844 Y78.182 E.01786
G1 X169.519 Y78.118 E.01672
G1 X169.519 Y74.378 E.18879
G1 X168.845 Y74.378 E.03402
G1 X168.845 Y78.035 E.1846
G1 X168.17 Y78.136 E.03445
G1 X168.17 Y74.378 E.1897
G1 X167.496 Y74.378 E.03402
G1 X167.496 Y78.114 E.18859
G1 X166.952 Y77.97 E.02841
G1 X166.821 Y78.005 E.00684
G1 X166.821 Y74.378 E.18309
G1 X166.146 Y74.378 E.03407
G1 X166.112 Y78.192 E.19253
G1 X165.472 Y78.097 E.03266
G1 X165.472 Y74.378 E.18773
G1 X164.797 Y74.378 E.03407
G1 X164.797 Y78.047 E.18521
G1 X164.123 Y78.148 E.0344
G1 X164.123 Y74.378 E.19031
G1 X163.448 Y74.378 E.03407
G1 X163.448 Y78.094 E.18758
G1 X162.986 Y78.002 E.02378
G1 X162.774 Y78.044 E.01091
G1 X162.774 Y74.378 E.18506
G1 X162.099 Y74.378 E.03407
G1 X162.078 Y78.182 E.19202
G1 X161.425 Y78.084 E.03333
G1 X161.425 Y74.378 E.18707
G1 X160.75 Y74.378 E.03407
G1 X160.75 Y78.059 E.18581
G1 X160.076 Y78.16 E.0344
G1 X160.076 Y74.378 E.19091
G1 X159.401 Y74.378 E.03407
G1 X159.401 Y78.078 E.18677
G1 X159.075 Y78.013 E.01678
G1 X158.727 Y78.065 E.01776
G1 X158.727 Y74.378 E.18612
G1 X158.052 Y74.378 E.03407
G1 X158.052 Y78.166 E.19121
G1 X157.944 Y78.182 E.00551
G1 X157.378 Y78.07 E.02913
G1 X157.378 Y74.378 E.18637
G1 X156.703 Y74.378 E.03407
G1 X156.703 Y78.068 E.18627
G1 X156.128 Y78.182 E.02959
G1 X156.028 Y78.167 E.0051
G1 X156.028 Y74.378 E.19126
G1 X155.354 Y74.378 E.03402
G1 X155.354 Y78.066 E.18617
G1 X154.997 Y78.013 E.01822
G1 X154.679 Y78.076 E.01636
G1 X154.679 Y74.378 E.18667
G1 X154.005 Y74.378 E.03402
G1 X154.005 Y78.161 E.19096
G1 X153.33 Y78.06 E.03445
G1 X153.33 Y74.378 E.18586
G1 X152.656 Y74.378 E.03402
G1 X152.656 Y78.083 E.18702
G1 X151.994 Y78.182 E.03379
G1 X151.981 Y74.378 E.19202
G1 X151.307 Y74.378 E.03402
G1 X151.307 Y78.046 E.18516
G1 X151.086 Y78.002 E.01137
G1 X150.632 Y78.092 E.02336
G1 X150.632 Y74.378 E.18748
G1 X149.958 Y74.378 E.03402
G1 X149.958 Y78.149 E.19036
G1 X149.283 Y78.048 E.03445
G1 X149.283 Y74.378 E.18526
G1 X148.609 Y74.378 E.03402
G1 X148.609 Y78.095 E.18763
G1 X147.959 Y78.192 E.03317
G1 X147.934 Y74.378 E.19253
G1 X147.26 Y74.378 E.03402
M73 Q1 S73
G1 X147.26 Y78.007 E.18319
G1 X146.585 Y78.108 E.03445
G1 X146.585 Y74.378 E.18829
G1 X145.91 Y74.378 E.03407
G1 X145.91 Y78.137 E.18975
G1 X145.236 Y78.036 E.0344
G1 X145.236 Y74.378 E.18465
G1 X144.561 Y74.378 E.03407
G1 X144.561 Y78.116 E.18869
G1 X144.228 Y78.182 E.01714
G1 X143.887 Y78.131 E.0174
G1 X143.887 Y74.378 E.18945
G1 X143.212 Y74.378 E.03407
G1 X143.212 Y78.03 E.18435
G1 X142.538 Y78.124 E.03435
G1 X142.538 Y74.378 E.18909
G1 X141.863 Y74.378 E.03407
G1 X141.863 Y78.125 E.18914
G1 X141.189 Y78.024 E.0344
G1 X141.189 Y74.378 E.18405
G1 X140.514 Y74.378 E.03407
G1 X140.514 Y78.132 E.1895
G1 X140.261 Y78.182 E.01302
G1 X139.84 Y78.119 E.02149
G1 X139.84 Y74.378 E.18884
G1 X139.165 Y74.378 E.03407
G1 X139.165 Y78.024 E.18405
G1 X138.491 Y78.125 E.0344
G1 X138.491 Y74.378 E.18914
G1 X137.816 Y74.378 E.03407
G1 X137.816 Y78.124 E.18909
G1 X137.142 Y78.014 E.03447
G1 X137.142 Y74.378 E.18354
G1 X136.467 Y74.378 E.03407
G1 X136.467 Y78.148 E.19031
G1 X136.295 Y78.182 E.00885
G1 X135.793 Y78.107 E.02562
G1 X135.793 Y74.378 E.18824
G1 X135.118 Y74.378 E.03407
G1 X135.118 Y78.022 E.18395
G1 X134.443 Y78.156 E.03474
G1 X134.443 Y74.378 E.19071
G1 X133.769 Y74.378 E.03402
G1 X133.769 Y78.101 E.18793
G1 X133.094 Y78.03 E.03426
G1 X133.094 Y74.378 E.18435
G1 X132.42 Y74.378 E.03402
G1 X132.42 Y78.164 E.19111
G1 X132.328 Y78.182 E.00473
G1 X131.745 Y78.095 E.02976
G1 X131.745 Y74.378 E.18763
G1 X131.071 Y74.378 E.03402
G1 X131.071 Y78.048 E.18526
G1 X130.396 Y78.149 E.03445
G1 X130.396 Y74.378 E.19036
G1 X129.722 Y74.378 E.03402
G1 X129.722 Y78.09 E.18738
G1 X129.392 Y78.003 E.01723
G1 X129.047 Y78.054 E.0176
G1 X129.047 Y74.378 E.18556
G1 X128.373 Y74.378 E.03402
G1 X128.373 Y78.155 E.19066
G1 X128.194 Y78.182 E.00914
G1 X127.698 Y78.084 E.02552
G1 X127.698 Y74.378 E.18707
G1 X127.024 Y74.378 E.03402
G1 X127.024 Y78.054 E.18556
G1 X126.378 Y78.182 E.03324
G1 X126.349 Y74.378 E.19203
G1 X125.675 Y74.378 E.03402
G1 X125.675 Y78.077 E.18672
G1 X125.247 Y78.013 E.02185
G1 X125 Y78.062 E.01271
G1 X125 Y74.378 E.18596
G1 X124.325 Y74.378 E.03407
G1 X124.325 Y78.172 E.19152
G1 X123.651 Y78.071 E.0344
G1 X123.651 Y74.378 E.18642
G1 X122.976 Y74.378 E.03407
G1 X122.976 Y78.07 E.18637
G1 X122.411 Y78.182 E.02908
G1 X122.302 Y78.166 E.00556
G1 X122.302 Y74.378 E.19121
G1 X121.627 Y74.378 E.03407
G1 X121.627 Y78.065 E.18612
G1 X121.28 Y78.013 E.01771
G1 X120.953 Y78.078 E.01683
G1 X120.953 Y74.378 E.18677
G1 X120.278 Y74.378 E.03407
G1 X120.278 Y78.16 E.19091
G1 X119.604 Y78.059 E.0344
G1 X119.604 Y74.378 E.18581
G1 X118.929 Y74.378 E.03407
G1 X118.929 Y78.086 E.18718
G1 X118.445 Y78.182 E.02491
G1 X118.255 Y78.154 E.00969
G1 X118.255 Y74.378 E.19061
G1 X117.58 Y74.378 E.03407
G1 X117.58 Y78.053 E.18551
G1 X117.313 Y78.013 E.01363
G1 X116.906 Y78.094 E.02095
G1 X116.906 Y74.378 E.18758
G1 X116.231 Y74.378 E.03407
G1 X116.231 Y78.148 E.19031
G1 X115.557 Y78.047 E.0344
G1 X115.557 Y74.378 E.18521
G1 X114.882 Y74.378 E.03407
G1 X114.882 Y78.102 E.18798
G1 X114.478 Y78.182 E.02079
G1 X114.207 Y78.142 E.01383
G1 X114.207 Y74.378 E.19
G1 X113.533 Y74.378 E.03402
G1 X113.533 Y78.041 E.1849
G1 X112.858 Y78.103 E.03422
G1 X112.858 Y74.378 E.18803
G1 X112.184 Y74.378 E.03402
G1 X112.184 Y78.173 E.19157
G1 X111.509 Y77.994 E.03525
G1 X111.509 Y74.378 E.18253
G1 X110.835 Y74.378 E.03402
G1 X110.835 Y78.118 E.18879
G1 X110.511 Y78.182 E.01667
G1 X110.16 Y78.13 E.01791
G1 X110.16 Y74.378 E.1894
G1 X109.486 Y74.378 E.03402
G1 X109.486 Y78.029 E.1843
G1 X109.313 Y78.003 E.00883
G1 X108.811 Y78.135 E.0262
G1 X108.811 Y74.378 E.18965
G1 X108.137 Y74.378 E.03402
G1 X108.137 Y78.124 E.18909
G1 X107.462 Y78.023 E.03445
G1 X107.462 Y74.378 E.184
G1 X106.788 Y74.378 E.03402
G1 X106.788 Y78.134 E.1896
G1 X106.545 Y78.182 E.0125
G1 X106.113 Y78.118 E.02204
G1 X106.113 Y74.378 E.18879
G1 X105.439 Y74.378 E.03402
G1 X105.439 Y78.017 E.18369
G1 X104.764 Y78.142 E.03465
G1 X104.764 Y74.378 E.19
G1 X104.09 Y74.378 E.03402
G1 X104.09 Y78.112 E.18849
G1 X103.415 Y78.016 E.03442
G1 X103.415 Y74.378 E.18364
G1 X102.74 Y74.378 E.03407
G1 X102.74 Y78.15 E.19041
G1 X102.578 Y78.182 E.00834
G1 X102.066 Y78.106 E.02613
G1 X102.066 Y74.378 E.18819
G1 X101.391 Y74.378 E.03407
G1 X101.391 Y78.024 E.18405
G1 X100.717 Y78.158 E.03469
G1 X100.717 Y74.378 E.19081
G1 X100.042 Y74.378 E.03407
G1 X100.042 Y78.1 E.18788
G1 X99.368 Y78.044 E.03414
G1 X99.368 Y74.378 E.18506
G1 X98.693 Y74.378 E.03407
G1 X98.693 Y78.145 E.19015
G1 X98.444 Y78.182 E.01271
G1 X98.019 Y78.098 E.02187
G1 X98.019 Y74.378 E.18778
G1 X97.344 Y74.378 E.03407
G1 X97.344 Y78.04 E.18485
G1 X96.67 Y78.174 E.03469
G1 X96.67 Y74.378 E.19162
G1 X95.995 Y74.378 E.03407
G1 X95.995 Y78.087 E.18723
G1 X95.321 Y78.048 E.03408
M73 P1 R71
G1 X95.321 Y74.378 E.18526
G1 X94.646 Y74.378 E.03407
G1 X94.645 Y78.182 E.19202
G1 X93.972 Y78.081 E.03435
G1 X93.972 Y74.378 E.18692
G1 X93.297 Y74.378 E.03407
G1 X93.297 Y78.056 E.18566
G1 X92.661 Y78.182 E.03273
G1 X92.622 Y74.378 E.19203
G1 X91.948 Y74.378 E.03402
G1 X91.948 Y78.075 E.18662
G1 X91.586 Y78.021 E.01848
G1 X91.273 Y78.068 E.01598
G1 X91.273 Y74.378 E.18627
G1 X90.599 Y74.378 E.03402
G1 X90.599 Y78.169 E.19137
G1 X90.443 Y78.192 E.00796
G1 X89.924 Y78.055 E.0271
G1 X89.924 Y74.378 E.18561
G1 X89.25 Y74.378 E.03402
G1 X89.25 Y78.074 E.18657
G1 X88.575 Y78.175 E.03445
G1 X88.575 Y74.378 E.19167
G1 X87.901 Y74.378 E.03402
G1 X87.901 Y78.058 E.18576
