; generated by PrusaSlicer 2.7.4+win64 on 2024-05-12 at 12:32:51 UTC


;
;
; 

; external perimeters extrusion width = 0.68mm
; perimeters extrusion width = 0.68mm
; infill extrusion width = 0.68mm
; solid infill extrusion width = 0.68mm
; top infill extrusion width = 0.60mm
; first layer extrusion width = 0.65mm

M73 P0 R257
M73 Q0 S260
M201 X1000 Y1000 Z200 E5000 ; sets maximum accelerations, mm/sec^2
M203 X200 Y200 Z12 E120 ; sets maximum feedrates, mm / sec
M204 S1250 T1250 ; sets acceleration (S) and retract acceleration (R), mm/sec^2
M205 X8.00 Y8.00 Z0.40 E4.50 ; sets the jerk limits, mm/sec
M205 S0 T0 ; sets the minimum extruding and travel feed rate, mm/sec

; printing object SGPV Middle Frame.stl id:0 copy 0
; stop printing object SGPV Middle Frame.stl id:0 copy 0

;TYPE:Custom
M862.3 P "MK3S" ; printer model check
M862.1 P0.6 ; nozzle diameter check
M115 U3.13.3 ; tell printer latest fw version
G90 ; use absolute coordinates
M83 ; extruder relative mode
M104 S220 ; set extruder temp
M140 S65 ; set bed temp
M190 S65 ; wait for bed temp
M109 S220 ; wait for extruder temp
G28 W ; home all without mesh bed level
G80 X65.5628 Y63.9938 W118.579 H92.3126 ; mesh bed levelling

G1 Z0.2 F720
G1 Y-3 F1000 ; go outside print area
G92 E0
G1 X60 E9 F1000 ; intro line
G1 X100 E12.5 F1000 ; intro line
M73 P0 R256

G92 E0
M221 S95

; Don't change E values below. Excessive value can damage the printer.

G21 ; set units to millimeters
G90 ; use absolute coordinates
M83 ; use relative distances for extrusion

M900 K0.04 ; Filament gcode LA 1.5
M900 K18 ; Filament gcode LA 1.0




M107
;LAYER_CHANGE
;Z:0.2
;HEIGHT:0.2
G1 E-.8 F2100
G1 Z.6 F720
G1 X67.937 Y66.608 F10800
G1 Z.2 F720
G1 E.8 F2100
M204 S800
;TYPE:Skirt/Brim
;WIDTH:0.65
G1 F1200
G1 X68.821 Y65.771 E.06145
G1 X69.647 Y65.209 E.05043
G1 X70.889 Y64.652 E.06871
G1 X72.129 Y64.366 E.06424
G1 X73.085 Y64.297 E.04838
G1 X177.046 Y64.785 E5.24789
G1 X178.439 Y64.941 E.07076
G1 X179.356 Y65.199 E.04809
G1 X180.474 Y65.727 E.06241
G1 X181.571 Y66.538 E.06886
G1 X182.163 Y67.131 E.0423
G1 X182.777 Y67.965 E.05228
G1 X183.32 Y69.016 E.05972
G1 X183.673 Y70.144 E.05966
G1 X183.828 Y71.395 E.06363
G1 X183.474 Y149.211 E3.9281
G1 X183.296 Y150.703 E.07585
G1 X183.091 Y151.42 E.03764
G1 X182.631 Y152.449 E.0569
G1 X181.788 Y153.67 E.0749
G1 X180.901 Y154.516 E.06187
G1 X180.034 Y155.105 E.05291
G1 X178.924 Y155.613 E.06162
G1 X177.576 Y155.934 E.06995
G1 X176.619 Y156.003 E.04843
G1 X72.658 Y155.515 E5.24789
G1 X71.265 Y155.359 E.07076
G1 X70.535 Y155.161 E.03818
G1 X69.449 Y154.692 E.05971
G1 X68.238 Y153.861 E.07414
G1 X67.39 Y152.986 E.06151
G1 X66.815 Y152.162 E.05072
G1 X66.253 Y150.948 E.06753
G1 X65.948 Y149.695 E.0651
G1 X65.866 Y148.66 E.05241
G1 X66.23 Y71.091 E3.91564
G1 X66.409 Y69.596 E.076
G1 X66.609 Y68.898 E.03665
G1 X67.074 Y67.849 E.05792
G1 X67.885 Y66.682 E.07174
M204 S1000
;WIPE_START
G1 F8640
G1 X67.937 Y66.608 E-.02088
G1 X68.821 Y65.771 E-.2811
G1 X69.647 Y65.209 E-.23069
G1 X70.704 Y64.736 E-.26733
;WIPE_END
G1 Z.6 F720
; printing object SGPV Middle Frame.stl id:0 copy 0
G1 X178.496 Y68.921 F10800
G1 Z.2 F720
G1 E.8 F2100
M204 S800
;TYPE:Perimeter
;WIDTH:0.649999
G1 F1200
G1 X178.595 Y68.969 E.00555
G1 X179.026 Y69.28 E.02683
G1 X179.396 Y69.661 E.02681
G1 X179.695 Y70.1 E.02681
G1 X179.915 Y70.583 E.02679
G1 X180.047 Y71.096 E.02674
G1 X180.099 Y71.676 E.0294
G1 X179.735 Y149.141 E3.91039
G1 X179.673 Y149.773 E.03206
G1 X179.527 Y150.281 E.02668
G1 X179.295 Y150.759 E.02682
G1 X178.984 Y151.19 E.02683
G1 X178.604 Y151.561 E.02681
G1 X178.165 Y151.862 E.02687
G1 X177.681 Y152.082 E.02684
G1 X177.167 Y152.216 E.02681
G1 X176.587 Y152.263 E.02937
G1 X72.724 Y151.776 E5.24294
G1 X72.145 Y151.724 E.02934
G1 X71.632 Y151.585 E.02683
G1 X71.15 Y151.36 E.02685
G1 X70.714 Y151.055 E.02686
G1 X70.338 Y150.681 E.02677
G1 X70.031 Y150.246 E.02688
G1 X69.803 Y149.766 E.02682
G1 X69.662 Y149.257 E.02666
G1 X69.606 Y148.624 E.03208
G1 X69.969 Y71.16 E3.91033
G1 X70.032 Y70.527 E.03211
M73 Q0 S259
G1 X70.177 Y70.02 E.02662
G1 X70.409 Y69.542 E.02682
G1 X70.72 Y69.11 E.02687
G1 X71.1 Y68.739 E.02681
G1 X71.539 Y68.439 E.02684
G1 X72.023 Y68.218 E.02686
G1 X72.537 Y68.084 E.02681
G1 X73.117 Y68.037 E.02937
G1 X176.955 Y68.524 E5.24168
G1 X177.608 Y68.59 E.03313
G1 X178.118 Y68.737 E.02679
G1 X178.415 Y68.881 E.01666
M204 S1000
G1 X178.415 Y68.881 F10800
G1 X178.765 Y68.369
M204 S800
;TYPE:External perimeter
G1 F1200
G1 X179.249 Y68.685 E.02918
G1 X179.612 Y69.007 E.02449
G1 X179.947 Y69.388 E.02561
G1 X180.269 Y69.893 E.03023
G1 X180.526 Y70.514 E.03393
G1 X180.651 Y71.042 E.02739
G1 X180.706 Y71.65 E.03082
G1 X180.342 Y149.172 E3.91326
G1 X180.271 Y149.888 E.03632
G1 X180.096 Y150.498 E.03203
G1 X179.818 Y151.071 E.03215
G1 X179.446 Y151.588 E.03215
G1 X178.99 Y152.033 E.03216
G1 X178.465 Y152.392 E.0321
G1 X177.885 Y152.656 E.03217
G1 X177.269 Y152.817 E.03214
G1 X176.611 Y152.871 E.03333
G1 X72.695 Y152.383 E5.24562
G1 X72.038 Y152.323 E.0333
G1 X71.423 Y152.157 E.03216
G1 X70.846 Y151.888 E.03214
G1 X70.324 Y151.523 E.03215
G1 X69.872 Y151.074 E.03216
G1 X69.504 Y150.554 E.03216
G1 X69.232 Y149.978 E.03215
G1 X69.063 Y149.366 E.03205
G1 X68.998 Y148.65 E.03629
G1 X69.362 Y71.128 E3.91326
G1 X69.433 Y70.413 E.03627
G1 X69.608 Y69.802 E.03208
G1 X69.886 Y69.229 E.03215
G1 X70.258 Y68.713 E.03211
G1 X70.714 Y68.268 E.03216
G1 X71.24 Y67.908 E.03218
G1 X71.819 Y67.644 E.03212
G1 X72.435 Y67.483 E.03214
G1 X73.093 Y67.43 E.03332
G1 X177.009 Y67.917 E5.24561
G1 X177.667 Y67.977 E.03335
M73 P0 R255
G1 X178.281 Y68.143 E.03211
G1 X178.683 Y68.331 E.0224
M204 S1000
;WIPE_START
G1 F8640
G1 X178.765 Y68.369 E-.02087
G1 X179.249 Y68.685 E-.13347
G1 X179.612 Y69.007 E-.11204
G1 X179.947 Y69.388 E-.11714
G1 X180.269 Y69.893 E-.13829
G1 X180.526 Y70.514 E-.15518
G1 X180.649 Y71.032 E-.12301
;WIPE_END
G1 Z.6 F720
G1 X71.292 Y70.398 F10800
G1 Z.2 F720
G1 E.8 F2100
M204 S800
;TYPE:Perimeter
G1 F1200
G1 X71.368 Y70.22 E.00977
G1 X71.707 Y69.752 E.02917
G1 X72.151 Y69.438 E.02745
G1 X72.492 Y69.293 E.0187
G1 X73.035 Y69.203 E.02778
G1 X84.506 Y69.255 E.57905
G1 X84.807 Y69.308 E.01543
G1 X84.831 Y69.343 E.00214
G1 X85.898 Y69.348 E.05386
G1 X86.068 Y69.276 E.00932
G1 X86.225 Y69.263 E.00795
G1 X88.693 Y69.275 E.12458
G1 X88.995 Y69.328 E.01548
G1 X89.02 Y69.363 E.00217
G1 X90.085 Y69.368 E.05376
G1 X90.255 Y69.296 E.00932
G1 X90.413 Y69.283 E.008
G1 X177.034 Y69.689 E4.37257
G1 X177.59 Y69.785 E.02848
G1 X177.933 Y69.934 E.01888
G1 X178.374 Y70.252 E.02745
G1 X178.676 Y70.675 E.02624
G1 X178.827 Y70.984 E.01736
G1 X178.93 Y71.518 E.02745
G1 X178.934 Y71.698 E.00909
G1 X178.57 Y149.199 E3.9122
G1 X178.474 Y149.755 E.02848
G1 X178.337 Y150.08 E.0178
G1 X177.998 Y150.549 E.02921
G1 X177.553 Y150.862 E.02746
G1 X177.21 Y151.008 E.01882
G1 X176.656 Y151.099 E.02834
G1 X90.031 Y150.693 E4.37278
G1 X89.722 Y150.637 E.01585
G1 X89.696 Y150.6 E.00228
G1 X88.647 Y150.595 E.05295
G1 X88.469 Y150.672 E.00979
G1 X88.311 Y150.685 E.008
G1 X85.843 Y150.673 E.12458
G1 X85.535 Y150.618 E.01579
G1 X85.509 Y150.581 E.00228
G1 X84.459 Y150.576 E.053
G1 X84.281 Y150.652 E.00977
G1 X84.124 Y150.665 E.00795
G1 X72.67 Y150.611 E.57819
G1 X72.115 Y150.515 E.02843
G1 X71.772 Y150.366 E.01888
G1 X71.33 Y150.048 E.02749
G1 X71.028 Y149.626 E.02619
G1 X70.877 Y149.317 E.01736
G1 X70.774 Y148.783 E.02745
G1 X70.771 Y148.602 E.00914
G1 X71.134 Y71.101 E3.9122
G1 X71.23 Y70.546 E.02843
G1 X71.257 Y70.481 E.00355
M204 S1000
G1 X71.257 Y70.481 F10800
G1 X71.849 Y70.597
M204 S800
;TYPE:External perimeter
G1 F1200
G1 X72.166 Y70.157 E.02737
G1 X72.611 Y69.888 E.02625
G1 X73.134 Y69.81 E.02669
G1 X84.503 Y69.862 E.5739
G1 X84.603 Y69.88 E.00513
G1 X84.652 Y69.949 E.00427
G1 X86.072 Y69.956 E.07168
G1 X86.17 Y69.874 E.00645
G1 X86.222 Y69.87 E.00263
G1 X88.69 Y69.882 E.12458
G1 X88.791 Y69.899 E.00517
G1 X88.84 Y69.969 E.00431
G1 X90.259 Y69.976 E.07163
G1 X90.357 Y69.894 E.00645
G1 X90.41 Y69.89 E.00268
G1 X177.032 Y70.296 E4.37262
G1 X177.534 Y70.402 E.0259
G1 X177.974 Y70.714 E.02723
G1 X178.242 Y71.145 E.02562
G1 X178.326 Y71.695 E.02809
G1 X177.963 Y149.196 E3.9122
G1 X177.855 Y149.703 E.02617
G1 X177.539 Y150.143 E.02735
G1 X177.109 Y150.408 E.0255
G1 X176.57 Y150.492 E.02754
G1 X90.034 Y150.086 E4.36828
G1 X89.931 Y150.067 E.00529
G1 X89.879 Y149.993 E.00457
G1 X88.469 Y149.987 E.07118
G1 X88.367 Y150.073 E.00673
G1 X88.314 Y150.078 E.00269
G1 X85.846 Y150.066 E.12458
G1 X85.744 Y150.048 E.00523
G1 X85.693 Y149.974 E.00454
G1 X84.281 Y149.968 E.07128
G1 X84.179 Y150.054 E.00673
G1 X84.127 Y150.058 E.00263
G1 X72.673 Y150.004 E.57819
G1 X72.17 Y149.898 E.02595
M73 Q0 S258
G1 X71.73 Y149.586 E.02723
G1 X71.462 Y149.155 E.02562
G1 X71.378 Y148.605 E.02809
G1 X71.741 Y71.104 E3.9122
G1 X71.83 Y70.685 E.02162
M204 S1000
;WIPE_START
G1 F8640
G1 X71.849 Y70.597 E-.02079
G1 X72.166 Y70.157 E-.12522
G1 X72.611 Y69.888 E-.12007
G1 X73.134 Y69.81 E-.1221
G1 X74.917 Y69.818 E-.41182
;WIPE_END
G1 Z.6 F720
G1 X70.74 Y70.228 F10800
G1 Z.2 F720
G1 E.8 F2100
M204 S800
;TYPE:Perimeter
;WIDTH:0.61126
G1 F1200
G1 X70.786 Y70.081 E.00728
;WIDTH:0.597722
G1 X71.133 Y69.531 E.03
;WIDTH:0.60055
G1 X71.519 Y69.158 E.02489
G1 X72.056 Y68.834 E.02908
;WIDTH:0.610026
G1 X72.636 Y68.665 E.02849
G1 X73.139 Y68.62 E.02381
;WIDTH:0.602422
G1 X84.508 Y68.673 E.52892
;WIDTH:0.643892
G1 X84.762 Y68.695 E.01274
;WIDTH:0.68715
G1 X85.016 Y68.718 E.01366
;WIDTH:0.687254
G1 X85.719 Y68.722 E.03766
G1 X85.974 Y68.701 E.01371
;WIDTH:0.643946
G1 X86.228 Y68.681 E.01273
;WIDTH:0.60064
G1 X88.696 Y68.692 E.11445
;WIDTH:0.644201
G1 X88.951 Y68.715 E.0128
;WIDTH:0.687762
G1 X89.206 Y68.738 E.01373
;WIDTH:0.687864
G1 X89.905 Y68.741 E.03749
G1 X90.16 Y68.721 E.01372
;WIDTH:0.644253
G1 X90.415 Y68.7 E.01279
;WIDTH:0.600642
G1 X176.952 Y69.106 E4.01318
;WIDTH:0.611128
G1 X177.455 Y69.157 E.02389
G1 X178.034 Y69.331 E.02856
;WIDTH:0.600782
G1 X178.615 Y69.693 E.03175
G1 X178.976 Y70.074 E.02435
;WIDTH:0.598424
G1 X179.292 Y70.59 E.02795
;WIDTH:0.611032
G1 X179.461 Y71.148 E.02754
G1 X179.516 Y71.701 E.02625
;WIDTH:0.600762
G1 X179.153 Y149.111 E3.59068
;WIDTH:0.611398
G1 X179.093 Y149.662 E.0262
G1 X178.918 Y150.219 E.0276
;WIDTH:0.597734
G1 X178.571 Y150.769 E.03
;WIDTH:0.600572
G1 X178.186 Y151.142 E.02486
G1 X177.649 Y151.466 E.02908
;WIDTH:0.610694
G1 X177.068 Y151.635 E.02857
G1 X176.565 Y151.681 E.02385
;WIDTH:0.600642
G1 X90.028 Y151.275 E4.01318
;WIDTH:0.646426
G1 X89.767 Y151.251 E.01315
;WIDTH:0.69221
G1 X89.505 Y151.227 E.0142
G1 X88.831 Y151.224 E.03639
;WIDTH:0.69211
G1 X88.57 Y151.245 E.01413
;WIDTH:0.646375
G1 X88.308 Y151.267 E.01319
;WIDTH:0.600642
G1 X85.841 Y151.256 E.11441
;WIDTH:0.646123
G1 X85.58 Y151.232 E.01315
;WIDTH:0.691506
G1 X85.32 Y151.208 E.01408
G1 X84.642 Y151.205 E.03656
G1 X84.382 Y151.226 E.01407
;WIDTH:0.646074
G1 X84.121 Y151.248 E.01314
;WIDTH:0.600642
G1 X72.752 Y151.194 E.52724
;WIDTH:0.611158
G1 X72.249 Y151.143 E.02389
G1 X71.67 Y150.969 E.02857
;WIDTH:0.600772
G1 X71.089 Y150.607 E.03175
G1 X70.728 Y150.226 E.02435
;WIDTH:0.598434
G1 X70.413 Y149.71 E.02792
;WIDTH:0.610902
G1 X70.243 Y149.152 E.02755
G1 X70.188 Y148.6 E.0262
;WIDTH:0.600638
G1 X70.551 Y71.19 E3.58988
;WIDTH:0.61126
G1 X70.611 Y70.638 E.02624
M73 P0 R254
G1 X70.713 Y70.314 E.01605
M204 S1000
M106 S84.15
;LAYER_CHANGE
;Z:0.6
;HEIGHT:0.4
;BEFORE_LAYER_CHANGE
G92 E0.0
;0.6


;WIPE_START
G1 F8640
G1 X70.74 Y70.228 E-.02081
G1 X70.786 Y70.081 E-.03557
G1 X71.133 Y69.531 E-.15016
G1 X71.519 Y69.158 E-.12394
G1 X72.056 Y68.834 E-.14482
G1 X72.636 Y68.665 E-.13949
G1 X73.139 Y68.62 E-.11661
G1 X73.436 Y68.621 E-.0686
;WIPE_END
G1 Z.6 F720
;AFTER_LAYER_CHANGE
;0.6
M104 S215 ; set temperature
; stop printing object SGPV Middle Frame.stl id:0 copy 0
G1 Z1
G1 X73.456 Y64.299 F10800
G1 Z.6 F720
G1 E.8 F2100
;TYPE:Skirt/Brim
;WIDTH:0.65
G1 F3000
G1 X177.046 Y64.785 E9.71893
G1 X178.439 Y64.941 E.13151
G1 X179.356 Y65.199 E.08937
G1 X180.474 Y65.727 E.116
G1 X181.571 Y66.538 E.12799
G1 X182.163 Y67.131 E.07861
G1 X182.777 Y67.965 E.09716
G1 X183.32 Y69.016 E.11099
G1 X183.673 Y70.144 E.11089
G1 X183.828 Y71.395 E.11827
G1 X183.474 Y149.211 E7.30078
G1 X183.296 Y150.703 E.14097
G1 X183.091 Y151.42 E.06996
G1 X182.631 Y152.449 E.10575
G1 X181.788 Y153.67 E.1392
G1 X180.901 Y154.516 E.115
G1 X180.034 Y155.105 E.09834
G1 X178.924 Y155.613 E.11453
G1 X177.576 Y155.934 E.13001
G1 X176.619 Y156.003 E.09002
G1 X72.658 Y155.515 E9.75374
G1 X71.265 Y155.359 E.13151
G1 X70.535 Y155.161 E.07096
G1 X69.449 Y154.692 E.11098
G1 X68.238 Y153.861 E.13779
G1 X67.39 Y152.986 E.11432
G1 X66.815 Y152.162 E.09427
G1 X66.253 Y150.948 E.12551
G1 X65.948 Y149.695 E.12099
G1 X65.866 Y148.66 E.09741
G1 X66.23 Y71.091 E7.27761
G1 X66.409 Y69.596 E.14126
G1 X66.609 Y68.898 E.06812
G1 X67.074 Y67.849 E.10765
G1 X67.937 Y66.608 E.14182
G1 X68.821 Y65.771 E.11422
G1 X69.647 Y65.209 E.09373
G1 X70.889 Y64.652 E.12771
G1 X72.129 Y64.366 E.11939
G1 X73.085 Y64.297 E.08993
G1 X73.366 Y64.299 E.02636
;WIPE_START
G1 F8640
G1 X73.456 Y64.299 E-.02078
G1 X76.831 Y64.315 E-.77922
;WIPE_END
G1 Z1 F720
; printing object SGPV Middle Frame.stl id:0 copy 0
G1 X70.526 Y70.119 F10800
G1 Z.6 F720
G1 E.8 F2100
M204 S800
;TYPE:Perimeter
;WIDTH:0.573067
G1 F2700
G1 X70.574 Y69.975 E.0123
;WIDTH:0.567154
G1 X70.884 Y69.465 E.04777
G1 X71.141 Y69.17 E.03132
;WIDTH:0.569822
G1 X71.666 Y68.765 E.05337
G1 X72.131 Y68.544 E.04144
;WIDTH:0.573611
G1 X72.614 Y68.422 E.04041
G1 X73.13 Y68.378 E.04201
;WIDTH:0.569311
G1 X84.331 Y68.43 E.90059
;WIDTH:0.609389
G1 F2430.914
G1 X84.59 Y68.451 E.02262
;WIDTH:0.6497
G1 F2410.9
G1 X84.85 Y68.473 E.02447
;WIDTH:0.690011
G1 F2393.5
G1 X85.109 Y68.494 E.02611
;WIDTH:0.730322
G1 F2377.595
G1 X85.369 Y68.516 E.02797
G1 X85.629 Y68.497 E.02794
;WIDTH:0.690012
G1 F2393.515
G1 X85.888 Y68.478 E.02609
;WIDTH:0.649701
G1 F2410.924
G1 X86.148 Y68.459 E.02445
;WIDTH:0.609391
G1 F2430.941
G1 X86.408 Y68.44 E.0227
;WIDTH:0.569081
G1 F2502.689
G1 X88.518 Y68.45 E.16957
;WIDTH:0.609395
G1 F2430.987
G1 X88.778 Y68.471 E.02271
;WIDTH:0.649711
G1 F2410.97
G1 X89.037 Y68.492 E.02437
;WIDTH:0.690026
G1 F2393.566
G1 X89.297 Y68.514 E.02622
;WIDTH:0.730342
G1 F2377.657
G1 X89.556 Y68.535 E.02785
G1 X89.816 Y68.516 E.02794
;WIDTH:0.690027
G1 F2393.581
G1 X90.076 Y68.497 E.02619
;WIDTH:0.649712
G1 F2410.994
G1 X90.335 Y68.478 E.02435
;WIDTH:0.609397
G1 F2431.015
G1 X90.595 Y68.459 E.0227
;WIDTH:0.569082
G1 F2700
G1 X176.953 Y68.864 E6.94009
G1 X177.194 Y68.882 E.01942
;WIDTH:0.564564
G1 X177.825 Y68.999 E.05109
;WIDTH:0.570661
G1 X178.355 Y69.226 E.04649
G1 X178.702 Y69.46 E.03374
;WIDTH:0.567499
G1 X179.087 Y69.821 E.04227
;WIDTH:0.5729
G1 X179.363 Y70.208 E.0385
G1 X179.572 Y70.633 E.03836
;WIDTH:0.573107
G1 X179.705 Y71.126 E.04138
G1 X179.758 Y71.69 E.0459
;WIDTH:0.569141
G1 X179.395 Y149.112 E6.22272
G1 X179.387 Y149.217 E.00846
;WIDTH:0.573119
G1 X179.329 Y149.73 E.04184
G1 X179.131 Y150.325 E.05082
;WIDTH:0.566499
G1 X178.782 Y150.889 E.05302
;WIDTH:0.568228
G1 X178.408 Y151.277 E.04323
;WIDTH:0.571794
G1 X178.02 Y151.546 E.03815
G1 X177.573 Y151.756 E.03991
;WIDTH:0.57315
G1 X177.09 Y151.878 E.04037
G1 X176.564 Y151.923 E.04278
;WIDTH:0.569082
G1 X90.206 Y151.518 E6.94009
;WIDTH:0.609397
G1 F2431.614
G1 X89.946 Y151.496 E.02272
;WIDTH:0.649712
G1 F2411.582
G1 X89.687 Y151.475 E.02437
;WIDTH:0.690027
G1 F2394.154
G1 X89.427 Y151.454 E.02621
;WIDTH:0.730342
G1 F2378.221
G1 X89.168 Y151.432 E.02786
G1 X88.908 Y151.451 E.02794
;WIDTH:0.690027
G1 F2394.14
G1 X88.648 Y151.47 E.02619
;WIDTH:0.649711
G1 F2411.558
G1 X88.389 Y151.489 E.02435
;WIDTH:0.609396
G1 F2431.586
G1 X88.129 Y151.508 E.0227
;WIDTH:0.569082
G1 F2503.144
G1 X86.018 Y151.498 E.16965
;WIDTH:0.609392
G1 F2431.539
G1 X85.759 Y151.477 E.02262
;WIDTH:0.649702
G1 F2411.511
G1 X85.499 Y151.455 E.02447
;WIDTH:0.690012
G1 F2394.087
G1 X85.24 Y151.434 E.02611
;WIDTH:0.730323
G1 F2378.157
G1 X84.98 Y151.413 E.02796
G1 X84.721 Y151.431 E.02783
;WIDTH:0.690012
G1 F2394.073
G1 X84.461 Y151.45 E.02619
;WIDTH:0.649702
G1 F2411.487
