; generated by PrusaSlicer 2.7.4+win64 on 2024-05-12 at 12:42:53 UTC


;
;
; 

; external perimeters extrusion width = 0.68mm
; perimeters extrusion width = 0.68mm
; infill extrusion width = 0.68mm
; solid infill extrusion width = 0.68mm
; top infill extrusion width = 0.60mm
; support material extrusion width = 0.55mm
; first layer extrusion width = 0.65mm

M73 P0 R100
M73 Q0 S100
M201 X1000 Y1000 Z200 E5000 ; sets maximum accelerations, mm/sec^2
M203 X200 Y200 Z12 E120 ; sets maximum feedrates, mm / sec
M204 S1250 T1250 ; sets acceleration (S) and retract acceleration (R), mm/sec^2
M205 X8.00 Y8.00 Z0.40 E4.50 ; sets the jerk limits, mm/sec
M205 S0 T0 ; sets the minimum extruding and travel feed rate, mm/sec

; printing object SGPV Left Hook.stl id:0 copy 0
; stop printing object SGPV Left Hook.stl id:0 copy 0

;TYPE:Custom
M862.3 P "MK3S" ; printer model check
M862.1 P0.6 ; nozzle diameter check
M115 U3.13.3 ; tell printer latest fw version
G90 ; use absolute coordinates
M83 ; extruder relative mode
M104 S220 ; set extruder temp
M140 S64 ; set bed temp
M190 S64 ; wait for bed temp
M109 S220 ; wait for extruder temp
G28 W ; home all without mesh bed level
G80 X8.23228 Y41.6179 W233.434 H126.765 ; mesh bed levelling

G1 Z0.2 F720
G1 Y-3 F1000 ; go outside print area
G92 E0
G1 X60 E9 F1000 ; intro line
G1 X100 E12.5 F1000 ; intro line

G92 E0
M221 S95

; Don't change E values below. Excessive value can damage the printer.

G21 ; set units to millimeters
G90 ; use absolute coordinates
M83 ; use relative distances for extrusion

M900 K0.04 ; Filament gcode LA 1.5
M900 K18 ; Filament gcode LA 1.0




M107
;LAYER_CHANGE
;Z:0.2
;HEIGHT:0.2
G1 E-.8 F2100
G1 Z.6 F720
G1 X29.772 Y72.032 F10800
G1 Z.2 F720
G1 E.8 F2100
M204 S800
;TYPE:Skirt/Brim
;WIDTH:0.65
G1 F1200
G1 X158.659 Y43.776 E6.66058
G1 X162.684 Y43.002 E.2069
M73 P0 R99
G1 X166.678 Y42.44 E.2036
G1 X170.696 Y42.08 E.20364
G1 X174.596 Y41.923 E.19703
G1 X176.849 Y41.943 E.11373
G1 X178.792 Y41.967 E.09809
G1 X182.694 Y42.205 E.19733
G1 X189.679 Y42.872 E.3542
G1 X193.026 Y43.327 E.17051
G1 X196.242 Y43.96 E.16545
G1 X199.267 Y44.738 E.15767
G1 X202.389 Y45.735 E.16544
G1 X205.447 Y46.913 E.16542
G1 X208.568 Y48.336 E.17315
G1 X211.329 Y49.796 E.15766
G1 X214.134 Y51.492 E.16546
G1 X216.852 Y53.363 E.16657
G1 X219.554 Y55.472 E.17302
G1 X221.898 Y57.535 E.15762
G1 X224.228 Y59.835 E.16527
G1 X226.519 Y62.385 E.17304
G1 X228.466 Y64.826 E.15761
G1 X230.358 Y67.499 E.16531
G1 X232.166 Y70.41 E.17298
G1 X233.656 Y73.154 E.15762
G1 X235.05 Y76.117 E.1653
G1 X236.318 Y79.291 E.17253
G1 X237.355 Y82.382 E.16458
G1 X238.485 Y86.493 E.21522
G1 X239.483 Y90.867 E.22647
G1 X240.236 Y95.052 E.21465
G1 X240.555 Y97.443 E.12176
G1 X240.825 Y99.507 E.10508
G1 X241.188 Y103.744 E.21466
G1 X241.361 Y108.114 E.22077
G1 X241.331 Y112.487 E.22075
G1 X240.976 Y120.322 E.39591
G1 X240.63 Y124.109 E.19196
G1 X240.087 Y127.778 E.18722
G1 X239.378 Y131.244 E.17858
G1 X238.447 Y134.805 E.1858
G1 X237.273 Y138.446 E.19311
G1 X236.002 Y141.747 E.17856
G1 X234.496 Y145.106 E.18582
G1 X232.737 Y148.503 E.1931
G1 X230.862 Y151.671 E.18583
G1 X228.899 Y154.614 E.17857
G1 X227.278 Y156.72 E.13415
G1 X225.609 Y158.559 E.12536
G1 X223.802 Y160.262 E.12534
G1 X222.03 Y161.697 E.1151
G1 X219.988 Y163.111 E.12538
G1 X217.841 Y164.36 E.12538
G1 X215.604 Y165.438 E.12535
G1 X213.289 Y166.337 E.12536
G1 X210.91 Y167.052 E.1254
G1 X208.483 Y167.579 E.12537
G1 X206.022 Y167.915 E.12538
G1 X203.187 Y168.079 E.14335
G1 X114.464 Y167.807 E4.47866
G1 X31.103 Y162.958 E4.21508
G1 X29.572 Y162.347 E.08321
G1 X27.966 Y160.917 E.10855
G1 X25.051 Y158.103 E.20452
G1 X22.674 Y155.48 E.17869
G1 X20.646 Y152.965 E.16309
G1 X18.675 Y150.221 E.17054
G1 X16.863 Y147.368 E.17061
G1 X15.218 Y144.417 E.17054
G1 X13.682 Y141.241 E.17809
G1 X12.391 Y138.118 E.17058
G1 X11.325 Y135.069 E.16305
G1 X10.353 Y131.676 E.17816
G1 X9.614 Y128.381 E.17046
G1 X9.063 Y125.047 E.17058
G1 X8.715 Y121.836 E.16304
G1 X8.539 Y118.463 E.1705
G1 X8.561 Y114.936 E.17804
G1 X8.779 Y111.564 E.17057
G1 X9.166 Y108.358 E.16301
G1 X9.789 Y104.886 E.17806
G1 X10.539 Y101.745 E.16301
G1 X11.433 Y98.726 E.15894
G1 X12.384 Y96.027 E.14445
G1 X13.508 Y93.28 E.14982
G1 X14.766 Y90.597 E.14958
G1 X16.018 Y88.246 E.13445
G1 X18.179 Y84.656 E.21152
G1 X19.982 Y82.052 E.15988
G1 X22.033 Y79.415 E.16864
G1 X24.18 Y76.952 E.16494
G1 X25.913 Y75.148 E.12627
G1 X28.608 Y72.621 E.18649
G1 X29.692 Y72.072 E.06134
M204 S1000
;WIPE_START
G1 F8640
G1 X29.772 Y72.032 E-.02065
G1 X33.069 Y71.309 E-.77935
;WIPE_END
G1 Z.6 F720
; printing object SGPV Left Hook.stl id:0 copy 0
G1 X201.741 Y134.511 F10800
G1 Z.2 F720
G1 E.8 F2100
M204 S800
;TYPE:Perimeter
;WIDTH:0.649999
G1 F1200
G1 X202.108 Y134.416 E.01914
G1 X202.574 Y134.232 E.02529
G1 X203.027 Y134.013 E.0254
G1 X203.677 Y133.633 E.03801
G1 X204.923 Y132.829 E.07485
G1 X206.15 Y131.877 E.07839
G1 X206.395 Y131.668 E.01626
G1 X207.525 Y130.602 E.07842
G1 X207.749 Y130.37 E.01628
G1 X208.971 Y128.948 E.09464
G1 X210.051 Y127.415 E.09466
G1 X210.977 Y125.785 E.09463
G1 X211.742 Y124.076 E.09452
G1 X212.242 Y122.629 E.07728
G1 X212.332 Y122.324 E.01605
G1 X212.751 Y120.535 E.09275
G1 X213 Y118.693 E.09383
G1 X213.073 Y117.162 E.07737
G1 X213.073 Y116.834 E.01656
G1 X212.989 Y115.194 E.08289
G1 X212.952 Y114.843 E.01782
G1 X212.62 Y112.84 E.10249
G1 X212.226 Y111.33 E.07878
G1 X212.118 Y110.986 E.0182
G1 X211.544 Y109.448 E.08287
G1 X211.409 Y109.135 E.01721
G1 X210.681 Y107.663 E.0829
G1 X210.515 Y107.366 E.01718
G1 X209.641 Y105.976 E.08288
G1 X209.445 Y105.697 E.01721
G1 X208.435 Y104.403 E.08286
G1 X208.211 Y104.146 E.01721
G1 X207.074 Y102.962 E.08286
G1 X206.826 Y102.729 E.01718
G1 X205.574 Y101.667 E.08287
G1 X205.292 Y101.452 E.0179
G1 X203.938 Y100.531 E.08266
G1 X203.124 Y100.065 E.04735
G1 X202.422 Y99.82 E.03753
G1 X201.971 Y99.764 E.02294
G1 X201.706 Y99.344 E.02507
G1 X200.217 Y97.296 E.12782
G1 X198.75 Y95.576 E.11411
G1 X196.761 Y93.597 E.14163
G1 X194.818 Y91.972 E.12786
G1 X192.978 Y90.66 E.11407
G1 X190.808 Y89.353 E.12787
G1 X188.289 Y88.118 E.14162
G1 X185.927 Y87.203 E.12786
G1 X183.763 Y86.552 E.11407
G1 X181.288 Y86.012 E.12787
G1 X178.506 Y85.652 E.1416
G1 X175.975 Y85.545 E.12788
G1 X173.716 Y85.624 E.1141
G1 X170.93 Y85.95 E.14159
G1 X168.714 Y86.396 E.1141
G1 X166.018 Y87.172 E.14162
G1 X163.904 Y87.972 E.1141
G1 X161.612 Y89.05 E.12786
G1 X159.185 Y90.457 E.14161
G1 X157.111 Y91.912 E.12789
G1 X155.164 Y93.531 E.12782
G1 X153.542 Y95.106 E.11413
G1 X151.867 Y97.006 E.12786
G1 X150.353 Y99.038 E.12791
G1 X150.178 Y99.298 E.01582
G1 X148.902 Y101.432 E.12551
G1 X120.276 Y157.682 E3.18597
G1 X119.838 Y158.423 E.04345
M73 Q0 S99
G1 X119.379 Y159.009 E.03757
G1 X118.849 Y159.532 E.03759
G1 X118.256 Y159.983 E.03761
G1 X117.611 Y160.354 E.03756
G1 X116.922 Y160.638 E.03762
G1 X116.204 Y160.832 E.03754
G1 X115.466 Y160.933 E.0376
G1 X114.606 Y160.938 E.04341
G1 X31.889 Y156.131 E4.1825
G1 X31.288 Y155.573 E.0414
G1 X30.419 Y154.716 E.06161
G1 X29.43 Y153.694 E.07179
G1 X29.245 Y153.554 E.01171
G1 X27.411 Y151.529 E.13791
G1 X25.511 Y149.173 E.15278
G1 X23.748 Y146.712 E.15282
G1 X22.128 Y144.154 E.15284
G1 X20.657 Y141.509 E.15278
G1 X19.339 Y138.783 E.15285
G1 X18.179 Y135.987 E.1528
G1 X17.211 Y133.218 E.14807
G1 X16.346 Y130.218 E.15761
G1 X15.681 Y127.268 E.15265
G1 X15.184 Y124.282 E.1528
G1 X14.858 Y121.273 E.15278
G1 X14.704 Y118.25 E.1528
G1 X14.723 Y115.224 E.15275
G1 X14.914 Y112.203 E.1528
G1 X15.277 Y109.199 E.15274
G1 X15.811 Y106.22 E.15277
G1 X16.516 Y103.269 E.15315
G1 X17.267 Y100.73 E.13365
G1 X18.147 Y98.227 E.13393
G1 X19.152 Y95.77 E.134
G1 X20.274 Y93.375 E.13351
G1 X21.69 Y90.728 E.15153
G1 X23.21 Y88.235 E.14739
G1 X24.954 Y85.704 E.15516
G1 X26.791 Y83.34 E.15113
G1 X28.769 Y81.073 E.15187
G1 X30.308 Y79.475 E.11199
G1 X31.041 Y78.772 E.05127
G1 X160.086 Y50.497 E6.66857
G1 X163.756 Y49.788 E.18868
M73 P1 R99
M73 Q1 S99
G1 X167.412 Y49.271 E.18639
G1 X171.09 Y48.939 E.18642
G1 X174.779 Y48.792 E.18636
G1 X178.481 Y48.831 E.18688
G1 X182.181 Y49.056 E.18712
G1 X186.003 Y49.454 E.19397
G1 X188.967 Y49.706 E.15016
G1 X191.831 Y50.093 E.14589
G1 X194.652 Y50.645 E.1451
G1 X197.435 Y51.36 E.14504
G1 X200.171 Y52.238 E.14505
G1 X202.852 Y53.275 E.1451
G1 X205.467 Y54.467 E.14507
G1 X208.007 Y55.811 E.14506
G1 X210.464 Y57.301 E.14505
G1 X212.835 Y58.937 E.14541
G1 X215.1 Y60.704 E.14501
G1 X217.258 Y62.602 E.14507
G1 X219.3 Y64.623 E.14503
G1 X221.22 Y66.76 E.14502
G1 X223.012 Y69.006 E.14504
G1 X224.669 Y71.353 E.14503
G1 X226.186 Y73.793 E.14503
G1 X227.557 Y76.318 E.14504
G1 X228.777 Y78.919 E.14502
G1 X229.846 Y81.597 E.14555
G1 X230.829 Y84.496 E.15452
M73 P1 R98
G1 X231.835 Y88.218 E.19462
G1 X232.74 Y92.185 E.20539
G1 X233.458 Y96.179 E.20484
G1 X233.99 Y100.201 E.20479
G1 X234.335 Y104.244 E.20483
G1 X234.49 Y108.561 E.21806
G1 X234.461 Y112.371 E.19233
G1 X234.117 Y119.917 E.38131
G1 X233.817 Y123.226 E.16772
G1 X233.335 Y126.503 E.1672
G1 X232.674 Y129.74 E.16677
G1 X231.836 Y132.935 E.16674
G1 X230.822 Y136.079 E.16676
G1 X229.636 Y139.163 E.16679
G1 X228.281 Y142.176 E.16677
G1 X226.762 Y145.109 E.16673
G1 X225.084 Y147.955 E.16677
G1 X223.261 Y150.686 E.16575
G1 X222.063 Y152.245 E.09925
G1 X220.761 Y153.69 E.09818
G1 X219.349 Y155.029 E.09823
G1 X217.837 Y156.253 E.0982
G1 X216.234 Y157.355 E.09819
G1 X214.549 Y158.329 E.09824
G1 X212.794 Y159.167 E.09817
G1 X210.978 Y159.866 E.09823
G1 X209.113 Y160.42 E.09821
G1 X207.21 Y160.827 E.09823
G1 X205.276 Y161.084 E.09848
G1 X203.107 Y161.208 E.10967
G1 X200.929 Y161.174 E.10996
G1 X198.758 Y160.983 E.11001
G1 X196.608 Y160.636 E.10993
G1 X194.488 Y160.134 E.10997
G1 X192.41 Y159.481 E.10995
G1 X190.384 Y158.678 E.11001
G1 X189.476 Y158.241 E.05087
G1 X201.464 Y134.583 E1.3388
G1 X201.654 Y134.534 E.0099
M204 S1000
G1 X201.654 Y134.534 F10800
G1 X201.688 Y133.914
M204 S800
G1 F1200
G1 X201.886 Y133.851 E.01049
G1 X202.722 Y133.488 E.04601
G1 X203.353 Y133.12 E.03687
G1 X204.551 Y132.349 E.07191
G1 X205.979 Y131.226 E.0917
G1 X207.292 Y129.971 E.09169
G1 X208.478 Y128.595 E.0917
G1 X209.525 Y127.111 E.09168
G1 X210.425 Y125.533 E.0917
G1 X211.168 Y123.877 E.09162
G1 X211.742 Y122.181 E.09038
G1 X212.15 Y120.447 E.08992
G1 X212.394 Y118.664 E.09084
G1 X212.466 Y116.865 E.09088
G1 X212.383 Y115.225 E.08289
G1 X212.353 Y114.938 E.01457
G1 X212.032 Y112.993 E.09951
G1 X211.638 Y111.483 E.07878
G1 X211.549 Y111.198 E.01507
G1 X210.975 Y109.66 E.08287
G1 X210.137 Y107.932 E.09694
G1 X210.001 Y107.689 E.01406
G1 X208.967 Y106.071 E.09693
G1 X207.774 Y104.567 E.0969
G1 X206.433 Y103.192 E.09695
G1 X205.181 Y102.13 E.08287
G1 X204.951 Y101.954 E.01462
G1 X203.537 Y100.994 E.08627
G1 X203.096 Y100.739 E.02571
G1 X202.63 Y100.514 E.02612
G1 X202.185 Y100.39 E.02332
G1 X201.62 Y100.358 E.02857
G1 X201.214 Y99.699 E.03907
G1 X199.755 Y97.69 E.12533
G1 X198.136 Y95.806 E.12539
G1 X196.37 Y94.061 E.12532
G1 X194.466 Y92.466 E.12538
G1 X192.626 Y91.154 E.11407
G1 X190.301 Y89.768 E.13663
G1 X188.067 Y88.684 E.12534
G1 X186.763 Y88.172 E.07072
G1 X185.752 Y87.785 E.05465
G1 X183.372 Y87.078 E.12533
G1 X180.941 Y86.568 E.12539
G1 X178.7 Y86.278 E.11407
G1 X175.996 Y86.152 E.13664
G1 X173.515 Y86.247 E.12533
G1 X171.049 Y86.546 E.12539
G1 X168.834 Y86.991 E.11404
G1 X166.445 Y87.669 E.12536
G1 X164.119 Y88.54 E.12538
G1 X161.873 Y89.598 E.12532
G1 X159.531 Y90.956 E.13666
G1 X157.675 Y92.246 E.1141
G1 X155.753 Y93.818 E.12534
G1 X153.812 Y95.704 E.13661
G1 X152.185 Y97.58 E.12535
G1 X150.841 Y99.398 E.11413
G1 X149.443 Y101.707 E.13625
G1 X120.809 Y157.975 E3.18697
G1 X120.34 Y158.766 E.04642
G1 X119.834 Y159.414 E.0415
G1 X119.248 Y159.992 E.04155
G1 X118.593 Y160.49 E.04153
G1 X117.879 Y160.9 E.04156
G1 X117.118 Y161.214 E.04156
G1 X116.324 Y161.429 E.04152
G1 X115.508 Y161.539 E.04156
G1 X114.59 Y161.545 E.04634
G1 X31.636 Y156.724 E4.19449
G1 X30.868 Y156.011 E.0529
G1 X29.987 Y155.143 E.06243
G1 X28.994 Y154.117 E.07208
G1 X28.825 Y153.995 E.01052
G1 X26.95 Y151.923 E.14106
G1 X25.027 Y149.54 E.15457
G1 X23.244 Y147.051 E.15455
G1 X21.606 Y144.464 E.15456
G1 X20.118 Y141.788 E.15456
G1 X18.785 Y139.032 E.15454
G1 X17.612 Y136.204 E.15455
G1 X16.633 Y133.402 E.14983
G1 X15.758 Y130.369 E.15935
G1 X15.085 Y127.385 E.15441
G1 X14.582 Y124.365 E.15455
G1 X14.252 Y121.321 E.15456
G1 X14.097 Y118.264 E.15451
G1 X14.116 Y115.203 E.15452
G1 X14.309 Y112.148 E.15452
G1 X14.676 Y109.109 E.15452
G1 X15.217 Y106.096 E.15452
G1 X15.929 Y103.113 E.15481
G1 X16.689 Y100.543 E.13528
G1 X17.579 Y98.011 E.13548
G1 X18.595 Y95.526 E.13552
G1 X19.731 Y93.102 E.13513
G1 X21.163 Y90.426 E.15321
G1 X22.701 Y87.905 E.14907
G1 X24.464 Y85.345 E.15691
G1 X26.323 Y82.954 E.15288
G1 X28.322 Y80.662 E.15352
G1 X29.879 Y79.046 E.11328
G1 X30.744 Y78.215 E.06055
G1 X159.964 Y49.902 E6.67761
G1 X163.656 Y49.189 E.18981
G1 X167.342 Y48.668 E.18791
G1 X171.05 Y48.333 E.18794
G1 X174.77 Y48.184 E.18793
G1 X178.503 Y48.224 E.18845
G1 X182.231 Y48.451 E.18853
G1 X186.054 Y48.85 E.19403
G1 X189.034 Y49.103 E.15097
G1 X191.93 Y49.494 E.14751
G1 X194.786 Y50.052 E.14689
G1 X197.603 Y50.777 E.14683
G1 X200.374 Y51.665 E.14688
G1 X203.087 Y52.715 E.14685
G1 X205.735 Y53.922 E.1469
G1 X208.306 Y55.282 E.14682
G1 X210.794 Y56.791 E.14689
G1 X213.195 Y58.447 E.14723
G1 X215.488 Y60.237 E.14684
G1 X217.672 Y62.158 E.14682
G1 X219.74 Y64.204 E.14685
G1 X221.684 Y66.367 E.1468
G1 X223.498 Y68.641 E.14684
G1 X225.176 Y71.017 E.14683
G1 X226.711 Y73.488 E.14684
G1 X228.099 Y76.044 E.14682
G1 X229.334 Y78.678 E.14685
G1 X230.416 Y81.387 E.14725
G1 X231.41 Y84.32 E.15633
G1 X232.424 Y88.071 E.19614
G1 X233.335 Y92.064 E.20674
G1 X234.058 Y96.085 E.20623
G1 X234.594 Y100.136 E.20627
G1 X234.941 Y104.206 E.20619
G1 X235.097 Y108.566 E.22023
G1 X235.068 Y112.387 E.19289
G1 X234.723 Y119.959 E.38262
G1 X234.42 Y123.298 E.16924
G1 X233.933 Y126.608 E.16888
G1 X233.266 Y129.878 E.16846
G1 X232.419 Y133.105 E.16841
G1 X231.395 Y136.282 E.1685
G1 X230.197 Y139.396 E.16842
G1 X228.828 Y142.44 E.16848
G1 X227.294 Y145.403 E.16842
G1 X225.598 Y148.278 E.1685
G1 X223.755 Y151.039 E.16757
G1 X222.53 Y152.633 E.10148
G1 X221.196 Y154.114 E.10062
G1 X219.75 Y155.486 E.10062
G1 X218.201 Y156.74 E.1006
G1 X216.558 Y157.869 E.10063
G1 X214.832 Y158.866 E.10062
G1 X213.034 Y159.725 E.10059
G1 X211.174 Y160.441 E.10061
G1 X209.263 Y161.009 E.10064
G1 X207.314 Y161.425 E.1006
G1 X205.334 Y161.689 E.10083
G1 X203.119 Y161.815 E.11199
G1 X200.897 Y161.781 E.11218
M73 Q1 S98
G1 X198.683 Y161.586 E.11219
G1 X196.489 Y161.232 E.11218
G1 X194.327 Y160.72 E.11215
G1 X192.206 Y160.053 E.11223
G1 X190.14 Y159.235 E.11217
G1 X188.655 Y158.518 E.08324
G1 X201.064 Y134.031 E1.38573
G1 X201.534 Y133.962 E.02398
G1 X201.602 Y133.941 E.00359
M204 S1000
G1 X201.602 Y133.941 F10800
G1 X201.258 Y133.385
M204 S800
G1 F1200
G1 X201.39 Y133.373 E.00669
G1 X201.663 Y133.286 E.01446
G1 X202.417 Y132.963 E.04141
G1 X203.029 Y132.606 E.03576
G1 X204.179 Y131.869 E.06895
G1 X205.562 Y130.785 E.0887
G1 X206.835 Y129.571 E.0888
G1 X207.984 Y128.241 E.08872
G1 X209 Y126.806 E.08875
G1 X209.873 Y125.28 E.08875
G1 X210.594 Y123.679 E.08863
G1 X211.152 Y122.038 E.08749
G1 X211.55 Y120.358 E.08715
G1 X211.788 Y118.635 E.0878
G1 X211.86 Y116.895 E.08791
G1 X211.753 Y115.033 E.09415
G1 X211.445 Y113.146 E.09651
G1 X211.051 Y111.636 E.07878
G1 X210.407 Y109.872 E.09479
G1 X209.593 Y108.201 E.09383
G1 X208.489 Y106.445 E.1047
G1 X207.336 Y104.987 E.09383
G1 X206.198 Y103.803 E.0829
G1 X204.788 Y102.593 E.09379
G1 X203.255 Y101.535 E.09402
G1 X202.597 Y101.159 E.03826
G1 X202.072 Y100.986 E.0279
G1 X201.488 Y100.958 E.02951
G1 X201.302 Y101.009 E.00974
G1 X200.721 Y100.054 E.05643
G1 X199.3 Y98.092 E.12229
G1 X197.708 Y96.236 E.12343
G1 X195.978 Y94.525 E.12282
G1 X194.114 Y92.96 E.12286
G1 X192.273 Y91.648 E.11412
G1 X190.034 Y90.313 E.13159
G1 X187.845 Y89.249 E.12286
G1 X186.542 Y88.737 E.07067
G1 X185.577 Y88.366 E.05219
G1 X183.245 Y87.672 E.12282
G1 X180.863 Y87.17 E.12288
G1 X178.622 Y86.88 E.11407
