; generated by PrusaSlicer 2.7.4+win64 on 2024-05-11 at 22:18:15 UTC


;
;
; 

; external perimeters extrusion width = 0.68mm
; perimeters extrusion width = 0.68mm
; infill extrusion width = 0.68mm
; solid infill extrusion width = 0.68mm
; top infill extrusion width = 0.60mm
; support material extrusion width = 0.55mm
; first layer extrusion width = 0.65mm

M73 P0 R80
M73 Q0 S82
M201 X1000 Y1000 Z200 E5000 ; sets maximum accelerations, mm/sec^2
M203 X200 Y200 Z12 E120 ; sets maximum feedrates, mm / sec
M204 S1250 T1250 ; sets acceleration (S) and retract acceleration (R), mm/sec^2
M205 X8.00 Y8.00 Z0.40 E4.50 ; sets the jerk limits, mm/sec
M205 S0 T0 ; sets the minimum extruding and travel feed rate, mm/sec

; printing object SGPV Cradle.stl id:0 copy 0
; stop printing object SGPV Cradle.stl id:0 copy 0

;TYPE:Custom
M862.3 P "MK3S" ; printer model check
M862.1 P0.6 ; nozzle diameter check
M115 U3.13.3 ; tell printer latest fw version
G90 ; use absolute coordinates
M83 ; extruder relative mode
M104 S220 ; set extruder temp
M140 S65 ; set bed temp
M190 S65 ; wait for bed temp
M109 S220 ; wait for extruder temp
G28 W ; home all without mesh bed level
G80 X57.5784 Y79.4691 W134.843 H53.5259 ; mesh bed levelling

G1 Z0.2 F720
G1 Y-3 F1000 ; go outside print area
G92 E0
G1 X60 E9 F1000 ; intro line
G1 X100 E12.5 F1000 ; intro line

G92 E0
M221 S95

; Don't change E values below. Excessive value can damage the printer.

G21 ; set units to millimeters
G90 ; use absolute coordinates
M83 ; use relative distances for extrusion

M900 K0.04 ; Filament gcode LA 1.5
M900 K18 ; Filament gcode LA 1.0




M107
;LAYER_CHANGE
;Z:0.2
;HEIGHT:0.2
G1 E-.8 F2100
G1 Z.6 F720
G1 X59.312 Y84.982 F10800
G1 Z.2 F720
G1 E.8 F2100
M204 S800
;TYPE:Skirt/Brim
;WIDTH:0.65
G1 F1200
G1 X68.376 Y80.438 E.51182
G1 X70.759 Y79.84 E.12402
G1 X71.346 Y79.773 E.02982
G1 X178.654 Y79.773 E5.41679
G1 X179.25 Y79.842 E.03029
M73 Q0 S81
G1 X181.137 Y80.284 E.09783
G1 X182.218 Y80.711 E.05867
G1 X190.686 Y84.981 E.47872
G1 X191.737 Y85.951 E.0722
G1 X192.118 Y87.308 E.07115
G1 X192.118 Y122.692 E1.78614
G1 X191.68 Y124.138 E.07627
G1 X186.752 Y131.531 E.4485
G1 X185.663 Y132.457 E.07216
G1 X184.583 Y132.692 E.05579
G1 X65.417 Y132.692 E6.01537
G1 X64.042 Y132.299 E.07219
G1 X63.248 Y131.531 E.05576
G1 X58.32 Y124.138 E.4485
G1 X57.882 Y122.692 E.07627
G1 X57.882 Y87.308 E1.78614
G1 X58.274 Y85.933 E.07217
G1 X59.245 Y85.043 E.06649
M204 S1000
;WIPE_START
G1 F8640
G1 X59.312 Y84.982 E-.02092
G1 X62.328 Y83.47 E-.77908
;WIPE_END
G1 Z.6 F720
; printing object SGPV Cradle.stl id:0 copy 0
G1 X70.745 Y82.823 F10800
G1 Z.2 F720
G1 E.8 F2100
M204 S800
;TYPE:Support material interface
;WIDTH:0.55
G1 F1200
G1 X70.745 Y87.751 E.20778
G1 X69.981 Y87.751 E.03221
G1 X69.981 Y82.823 E.20778
M73 P0 R79
G1 X69.43 Y82.823 E.02323
G1 X69.674 Y83.403 E.02653
M204 S1000
;WIPE_START
G1 F8640
G1 X69.43 Y82.823 E-.14529
G1 X69.981 Y82.823 E-.12723
G1 X69.981 Y85.107 E-.52748
;WIPE_END
G1 Z.6 F720
G1 X69.031 Y85.889 F10800
G1 Z.2 F720
G1 E.8 F2100
M204 S800
;TYPE:Support material
;WIDTH:0.65
G1 F1200
G1 X68.883 Y86.086 E.01244
G1 X68.584 Y85.986 E.01591
G1 X68.584 Y85.825 E.00813
G1 X68.941 Y85.876 E.0182
M204 S1000
G1 X68.941 Y85.876 F10800
G1 X69.609 Y86.046
M204 S800
;TYPE:Support material interface
;WIDTH:0.55
G1 F1200
G1 X69.216 Y86.569 E.02758
G1 X69.216 Y87.751 E.04984
G1 X68.452 Y87.751 E.03221
G1 X68.452 Y86.529 E.05152
M204 S1000
;WIPE_START
G1 F8640
G1 X68.452 Y87.751 E-.28216
G1 X69.216 Y87.751 E-.17641
G1 X69.216 Y86.569 E-.27293
G1 X69.394 Y86.332 E-.0685
;WIPE_END
G1 Z.6 F720
G1 X76.16 Y84.844 F10800
G1 Z.2 F720
G1 E.8 F2100
M204 S800
;TYPE:Support material
;WIDTH:0.65
G1 F1200
G1 X78.624 Y84.844 E.12438
G1 X78.624 Y87.308 E.12438
G1 X171.376 Y87.308 E4.68202
G1 X171.376 Y84.844 E.12438
G1 X173.84 Y84.844 E.12438
G1 X173.84 Y82.38 E.12438
G1 X178.654 Y82.38 E.24301
G1 X178.654 Y88.308 E.29924
G1 X182.233 Y88.308 E.18066
G1 X182.233 Y85.308 E.15144
G1 X184.583 Y85.308 E.11863
G1 X184.583 Y87.308 E.10096
G1 X189.511 Y87.308 E.24876
G1 X189.511 Y122.692 E1.78614
G1 X184.583 Y122.692 E.24876
G1 X184.583 Y130.084 E.37314
G1 X176.305 Y130.084 E.41786
G1 X176.305 Y127.62 E.12438
G1 X173.84 Y127.62 E.12443
G1 X173.84 Y125.156 E.12438
G1 X171.376 Y125.156 E.12438
G1 X171.376 Y122.692 E.12438
G1 X78.624 Y122.692 E4.68202
G1 X78.624 Y125.156 E.12438
G1 X76.16 Y125.156 E.12438
G1 X76.16 Y127.62 E.12438
G1 X73.695 Y127.62 E.12443
G1 X73.695 Y130.084 E.12438
G1 X65.417 Y130.084 E.41786
G1 X65.417 Y122.692 E.37314
G1 X60.489 Y122.692 E.24876
G1 X60.489 Y87.308 E1.78614
G1 X65.417 Y87.308 E.24876
G1 X65.417 Y85.308 E.10096
G1 X67.767 Y85.308 E.11863
G1 X67.767 Y88.308 E.15144
G1 X71.346 Y88.308 E.18066
G1 X71.346 Y82.38 E.29924
G1 X76.16 Y82.38 E.24301
G1 X76.16 Y84.753 E.11979
M204 S1000
;WIPE_START
G1 F8640
G1 X76.16 Y82.38 E-.54793
G1 X75.068 Y82.38 E-.25207
;WIPE_END
G1 Z.6 F720
G1 X188.406 Y122.419 F10800
G1 Z.2 F720
G1 E.8 F2100
M73 P1 R79
M204 S800
G1 F1200
G1 X188.406 Y87.854 E1.7448
G1 X187.731 Y87.854 E.03407
M73 Q1 S81
G1 X187.731 Y122.146 E1.73102
G1 X187.057 Y122.146 E.03402
G1 X187.057 Y87.854 E1.73102
G1 X186.382 Y87.854 E.03407
G1 X186.382 Y122.146 E1.73102
G1 X185.708 Y122.146 E.03402
G1 X185.708 Y87.854 E1.73102
G1 X185.033 Y87.854 E.03407
G1 X185.033 Y122.146 E1.73102
G1 X184.359 Y122.146 E.03402
G1 X184.359 Y87.854 E1.73102
G1 X184.036 Y87.854 E.0163
G1 X184.036 Y85.854 E.10096
G1 X183.684 Y85.854 E.01777
G1 X183.684 Y129.538 E2.20512
G1 X183.01 Y129.538 E.03402
G1 X183.01 Y85.854 E2.20512
G1 X182.779 Y85.854 E.01166
G1 X182.779 Y88.854 E.15144
G1 X182.335 Y88.854 E.02241
G1 X182.335 Y129.538 E2.05368
G1 X181.661 Y129.538 E.03402
G1 X181.661 Y88.854 E2.05368
G1 X180.986 Y88.854 E.03407
G1 X180.986 Y129.538 E2.05368
G1 X180.312 Y129.538 E.03402
M73 Q1 S80
G1 X180.312 Y88.854 E2.05368
G1 X179.637 Y88.854 E.03407
G1 X179.637 Y129.538 E2.05368
G1 X178.963 Y129.538 E.03402
G1 X178.963 Y88.854 E2.05368
G1 X178.288 Y88.854 E.03407
G1 X178.288 Y129.538 E2.05368
G1 X177.613 Y129.538 E.03407
G1 X177.613 Y82.926 E2.35292
G1 X176.939 Y82.926 E.03402
G1 X176.939 Y129.538 E2.35292
G1 X176.851 Y129.538 E.00444
G1 X176.851 Y127.074 E.12438
G1 X176.264 Y127.074 E.02963
G1 X176.264 Y82.926 E2.22854
G1 X175.59 Y82.926 E.03402
M73 P1 R78
G1 X175.59 Y127.074 E2.22854
G1 X174.915 Y127.074 E.03407
G1 X174.915 Y82.926 E2.22854
G1 X174.387 Y82.926 E.02665
G1 X174.387 Y85.39 E.12438
G1 X174.241 Y85.39 E.00737
G1 X174.241 Y124.61 E1.97978
G1 X173.566 Y124.61 E.03407
G1 X173.566 Y85.39 E1.97978
G1 X172.892 Y85.39 E.03402
G1 X172.892 Y124.61 E1.97978
G1 X172.217 Y124.61 E.03407
M73 P2 R78
G1 X172.217 Y85.39 E1.97978
G1 X171.923 Y85.39 E.01484
M73 Q2 S80
G1 X171.923 Y87.854 E.12438
G1 X171.543 Y87.854 E.01918
G1 X171.543 Y122.146 E1.73102
G1 X170.868 Y122.146 E.03407
G1 X170.868 Y87.854 E1.73102
G1 X170.194 Y87.854 E.03402
G1 X170.194 Y122.146 E1.73102
G1 X169.519 Y122.146 E.03407
G1 X169.519 Y87.854 E1.73102
G1 X168.845 Y87.854 E.03402
G1 X168.845 Y122.146 E1.73102
G1 X168.17 Y122.146 E.03407
G1 X168.17 Y87.854 E1.73102
G1 X167.496 Y87.854 E.03402
G1 X167.496 Y122.146 E1.73102
G1 X166.821 Y122.146 E.03407
G1 X166.821 Y87.854 E1.73102
G1 X166.146 Y87.854 E.03407
G1 X166.146 Y122.146 E1.73102
G1 X165.472 Y122.146 E.03402
G1 X165.472 Y87.854 E1.73102
G1 X164.797 Y87.854 E.03407
G1 X164.797 Y122.146 E1.73102
G1 X164.123 Y122.146 E.03402
G1 X164.123 Y87.854 E1.73102
G1 X163.448 Y87.854 E.03407
G1 X163.448 Y122.146 E1.73102
G1 X162.774 Y122.146 E.03402
G1 X162.774 Y87.854 E1.73102
G1 X162.099 Y87.854 E.03407
G1 X162.099 Y122.146 E1.73102
G1 X161.425 Y122.146 E.03402
G1 X161.425 Y87.854 E1.73102
G1 X160.75 Y87.854 E.03407
G1 X160.75 Y122.146 E1.73102
G1 X160.076 Y122.146 E.03402
G1 X160.076 Y87.854 E1.73102
G1 X159.401 Y87.854 E.03407
M73 Q2 S79
G1 X159.401 Y122.146 E1.73102
G1 X158.727 Y122.146 E.03402
G1 X158.727 Y87.854 E1.73102
G1 X158.052 Y87.854 E.03407
G1 X158.052 Y122.146 E1.73102
G1 X157.378 Y122.146 E.03402
G1 X157.378 Y87.854 E1.73102
G1 X156.703 Y87.854 E.03407
G1 X156.703 Y122.146 E1.73102
G1 X156.028 Y122.146 E.03407
G1 X156.028 Y87.854 E1.73102
G1 X155.354 Y87.854 E.03402
G1 X155.354 Y122.146 E1.73102
G1 X154.679 Y122.146 E.03407
G1 X154.679 Y87.854 E1.73102
G1 X154.005 Y87.854 E.03402
M73 P3 R77
G1 X154.005 Y122.146 E1.73102
G1 X153.33 Y122.146 E.03407
M73 Q3 S79
G1 X153.33 Y87.854 E1.73102
G1 X152.656 Y87.854 E.03402
G1 X152.656 Y122.146 E1.73102
G1 X151.981 Y122.146 E.03407
G1 X151.981 Y87.854 E1.73102
G1 X151.307 Y87.854 E.03402
G1 X151.307 Y122.146 E1.73102
G1 X150.632 Y122.146 E.03407
G1 X150.632 Y87.854 E1.73102
G1 X149.958 Y87.854 E.03402
G1 X149.958 Y122.146 E1.73102
G1 X149.283 Y122.146 E.03407
G1 X149.283 Y87.854 E1.73102
G1 X148.609 Y87.854 E.03402
G1 X148.609 Y122.146 E1.73102
G1 X147.934 Y122.146 E.03407
G1 X147.934 Y87.854 E1.73102
G1 X147.26 Y87.854 E.03402
G1 X147.26 Y122.146 E1.73102
G1 X146.585 Y122.146 E.03407
G1 X146.585 Y87.854 E1.73102
G1 X145.91 Y87.854 E.03407
G1 X145.91 Y122.146 E1.73102
G1 X145.236 Y122.146 E.03402
G1 X145.236 Y87.854 E1.73102
G1 X144.561 Y87.854 E.03407
G1 X144.561 Y122.146 E1.73102
G1 X143.887 Y122.146 E.03402
G1 X143.887 Y87.854 E1.73102
G1 X143.212 Y87.854 E.03407
G1 X143.212 Y122.146 E1.73102
G1 X142.538 Y122.146 E.03402
G1 X142.538 Y87.854 E1.73102
G1 X141.863 Y87.854 E.03407
G1 X141.863 Y122.146 E1.73102
G1 X141.189 Y122.146 E.03402
G1 X141.189 Y87.854 E1.73102
G1 X140.514 Y87.854 E.03407
G1 X140.514 Y122.146 E1.73102
G1 X139.84 Y122.146 E.03402
G1 X139.84 Y87.854 E1.73102
G1 X139.165 Y87.854 E.03407
G1 X139.165 Y122.146 E1.73102
G1 X138.491 Y122.146 E.03402
G1 X138.491 Y87.854 E1.73102
G1 X137.816 Y87.854 E.03407
G1 X137.816 Y122.146 E1.73102
G1 X137.142 Y122.146 E.03402
G1 X137.142 Y87.854 E1.73102
G1 X136.467 Y87.854 E.03407
M73 Q3 S78
G1 X136.467 Y122.146 E1.73102
G1 X135.793 Y122.146 E.03402
M73 P4 R77
G1 X135.793 Y87.854 E1.73102
G1 X135.118 Y87.854 E.03407
G1 X135.118 Y122.146 E1.73102
G1 X134.443 Y122.146 E.03407
M73 Q4 S78
G1 X134.443 Y87.854 E1.73102
G1 X133.769 Y87.854 E.03402
G1 X133.769 Y122.146 E1.73102
G1 X133.094 Y122.146 E.03407
G1 X133.094 Y87.854 E1.73102
G1 X132.42 Y87.854 E.03402
G1 X132.42 Y122.146 E1.73102
G1 X131.745 Y122.146 E.03407
G1 X131.745 Y87.854 E1.73102
G1 X131.071 Y87.854 E.03402
M73 P4 R76
G1 X131.071 Y122.146 E1.73102
G1 X130.396 Y122.146 E.03407
G1 X130.396 Y87.854 E1.73102
G1 X129.722 Y87.854 E.03402
G1 X129.722 Y122.146 E1.73102
G1 X129.047 Y122.146 E.03407
G1 X129.047 Y87.854 E1.73102
G1 X128.373 Y87.854 E.03402
G1 X128.373 Y122.146 E1.73102
G1 X127.698 Y122.146 E.03407
G1 X127.698 Y87.854 E1.73102
G1 X127.024 Y87.854 E.03402
G1 X127.024 Y122.146 E1.73102
G1 X126.349 Y122.146 E.03407
G1 X126.349 Y87.854 E1.73102
G1 X125.675 Y87.854 E.03402
G1 X125.675 Y122.146 E1.73102
G1 X125 Y122.146 E.03407
G1 X125 Y87.854 E1.73102
G1 X124.325 Y87.854 E.03407
G1 X124.325 Y122.146 E1.73102
G1 X123.651 Y122.146 E.03402
G1 X123.651 Y87.854 E1.73102
G1 X122.976 Y87.854 E.03407
G1 X122.976 Y122.146 E1.73102
G1 X122.302 Y122.146 E.03402
G1 X122.302 Y87.854 E1.73102
G1 X121.627 Y87.854 E.03407
G1 X121.627 Y122.146 E1.73102
G1 X120.953 Y122.146 E.03402
G1 X120.953 Y87.854 E1.73102
G1 X120.278 Y87.854 E.03407
G1 X120.278 Y122.146 E1.73102
G1 X119.604 Y122.146 E.03402
G1 X119.604 Y87.854 E1.73102
G1 X118.929 Y87.854 E.03407
G1 X118.929 Y122.146 E1.73102
G1 X118.255 Y122.146 E.03402
G1 X118.255 Y87.854 E1.73102
G1 X117.58 Y87.854 E.03407
M73 P5 R76
G1 X117.58 Y122.146 E1.73102
G1 X116.906 Y122.146 E.03402
G1 X116.906 Y87.854 E1.73102
G1 X116.231 Y87.854 E.03407
G1 X116.231 Y122.146 E1.73102
G1 X115.557 Y122.146 E.03402
M73 Q5 S78
G1 X115.557 Y87.854 E1.73102
G1 X114.882 Y87.854 E.03407
G1 X114.882 Y122.146 E1.73102
G1 X114.207 Y122.146 E.03407
G1 X114.207 Y87.854 E1.73102
G1 X113.533 Y87.854 E.03402
M73 Q5 S77
G1 X113.533 Y122.146 E1.73102
G1 X112.858 Y122.146 E.03407
G1 X112.858 Y87.854 E1.73102
G1 X112.184 Y87.854 E.03402
G1 X112.184 Y122.146 E1.73102
G1 X111.509 Y122.146 E.03407
G1 X111.509 Y87.854 E1.73102
G1 X110.835 Y87.854 E.03402
G1 X110.835 Y122.146 E1.73102
G1 X110.16 Y122.146 E.03407
G1 X110.16 Y87.854 E1.73102
G1 X109.486 Y87.854 E.03402
G1 X109.486 Y122.146 E1.73102
G1 X108.811 Y122.146 E.03407
G1 X108.811 Y87.854 E1.73102
G1 X108.137 Y87.854 E.03402
M73 P5 R75
G1 X108.137 Y122.146 E1.73102
G1 X107.462 Y122.146 E.03407
G1 X107.462 Y87.854 E1.73102
G1 X106.788 Y87.854 E.03402
G1 X106.788 Y122.146 E1.73102
G1 X106.113 Y122.146 E.03407
G1 X106.113 Y87.854 E1.73102
G1 X105.439 Y87.854 E.03402
G1 X105.439 Y122.146 E1.73102
G1 X104.764 Y122.146 E.03407
G1 X104.764 Y87.854 E1.73102
G1 X104.09 Y87.854 E.03402
G1 X104.09 Y122.146 E1.73102
G1 X103.415 Y122.146 E.03407
G1 X103.415 Y87.854 E1.73102
G1 X102.74 Y87.854 E.03407
G1 X102.74 Y122.146 E1.73102
G1 X102.066 Y122.146 E.03402
G1 X102.066 Y87.854 E1.73102
G1 X101.391 Y87.854 E.03407
G1 X101.391 Y122.146 E1.73102
G1 X100.717 Y122.146 E.03402
G1 X100.717 Y87.854 E1.73102
G1 X100.042 Y87.854 E.03407
G1 X100.042 Y122.146 E1.73102
G1 X99.368 Y122.146 E.03402
G1 X99.368 Y87.854 E1.73102
G1 X98.693 Y87.854 E.03407
M73 P6 R75
G1 X98.693 Y122.146 E1.73102
G1 X98.019 Y122.146 E.03402
G1 X98.019 Y87.854 E1.73102
G1 X97.344 Y87.854 E.03407
G1 X97.344 Y122.146 E1.73102
G1 X96.67 Y122.146 E.03402
M73 Q6 S77
G1 X96.67 Y87.854 E1.73102
G1 X95.995 Y87.854 E.03407
G1 X95.995 Y122.146 E1.73102
G1 X95.321 Y122.146 E.03402
G1 X95.321 Y87.854 E1.73102
G1 X94.646 Y87.854 E.03407
G1 X94.646 Y122.146 E1.73102
G1 X93.972 Y122.146 E.03402
G1 X93.972 Y87.854 E1.73102
G1 X93.297 Y87.854 E.03407
G1 X93.297 Y122.146 E1.73102
G1 X92.622 Y122.146 E.03407
G1 X92.622 Y87.854 E1.73102
G1 X91.948 Y87.854 E.03402
G1 X91.948 Y122.146 E1.73102
G1 X91.273 Y122.146 E.03407
G1 X91.273 Y87.854 E1.73102
M73 Q6 S76
G1 X90.599 Y87.854 E.03402
G1 X90.599 Y122.146 E1.73102
G1 X89.924 Y122.146 E.03407
G1 X89.924 Y87.854 E1.73102
G1 X89.25 Y87.854 E.03402
G1 X89.25 Y122.146 E1.73102
G1 X88.575 Y122.146 E.03407
G1 X88.575 Y87.854 E1.73102
G1 X87.901 Y87.854 E.03402
G1 X87.901 Y122.146 E1.73102
G1 X87.226 Y122.146 E.03407
G1 X87.226 Y87.854 E1.73102
G1 X86.552 Y87.854 E.03402
G1 X86.552 Y122.146 E1.73102
G1 X85.877 Y122.146 E.03407
G1 X85.877 Y87.854 E1.73102
G1 X85.203 Y87.854 E.03402
M73 P6 R74
G1 X85.203 Y122.146 E1.73102
G1 X84.528 Y122.146 E.03407
G1 X84.528 Y87.854 E1.73102
G1 X83.854 Y87.854 E.03402
G1 X83.854 Y122.146 E1.73102
G1 X83.179 Y122.146 E.03407
G1 X83.179 Y87.854 E1.73102
G1 X82.504 Y87.854 E.03407
G1 X82.504 Y122.146 E1.73102
G1 X81.83 Y122.146 E.03402
G1 X81.83 Y87.854 E1.73102
G1 X81.155 Y87.854 E.03407
G1 X81.155 Y122.146 E1.73102
G1 X80.481 Y122.146 E.03402
M73 P7 R74
G1 X80.481 Y87.854 E1.73102
G1 X79.806 Y87.854 E.03407
G1 X79.806 Y122.146 E1.73102
G1 X79.132 Y122.146 E.03402
G1 X79.132 Y87.854 E1.73102
G1 X78.457 Y87.854 E.03407
G1 X78.457 Y122.146 E1.73102
G1 X78.077 Y122.146 E.01918
M73 Q7 S76
G1 X78.077 Y124.61 E.12438
G1 X77.783 Y124.61 E.01484
G1 X77.783 Y85.39 E1.97978
G1 X77.108 Y85.39 E.03407
G1 X77.108 Y124.61 E1.97978
G1 X76.434 Y124.61 E.03402
G1 X76.434 Y85.39 E1.97978
G1 X75.759 Y85.39 E.03407
G1 X75.759 Y124.61 E1.97978
G1 X75.613 Y124.61 E.00737
G1 X75.613 Y127.074 E.12438
G1 X75.085 Y127.074 E.02665
G1 X75.085 Y82.926 E2.22854
G1 X74.41 Y82.926 E.03407
G1 X74.41 Y127.074 E2.22854
G1 X73.736 Y127.074 E.03402
G1 X73.736 Y82.926 E2.22854
G1 X73.061 Y82.926 E.03407
G1 X73.061 Y129.538 E2.35292
G1 X72.387 Y129.538 E.03402
G1 X72.387 Y82.926 E2.35292
G1 X71.892 Y82.926 E.02499
G1 X71.892 Y88.854 E.29924
G1 X71.712 Y88.854 E.00909
G1 X71.712 Y129.538 E2.05368
G1 X71.037 Y129.538 E.03407
G1 X71.037 Y88.854 E2.05368
G1 X70.363 Y88.854 E.03402
G1 X70.363 Y129.538 E2.05368
G1 X69.688 Y129.538 E.03407
M73 Q7 S75
G1 X69.688 Y88.854 E2.05368
G1 X69.014 Y88.854 E.03402
G1 X69.014 Y129.538 E2.05368
G1 X68.339 Y129.538 E.03407
G1 X68.339 Y88.854 E2.05368
G1 X67.665 Y88.854 E.03402
G1 X67.665 Y129.538 E2.05368
G1 X66.99 Y129.538 E.03407
G1 X66.99 Y85.854 E2.20512
