; generated by PrusaSlicer 2.7.4+win64 on 2024-05-12 at 12:43:40 UTC


;
;
; 

; external perimeters extrusion width = 0.68mm
; perimeters extrusion width = 0.68mm
; infill extrusion width = 0.68mm
; solid infill extrusion width = 0.68mm
; top infill extrusion width = 0.60mm
; support material extrusion width = 0.55mm
; first layer extrusion width = 0.65mm

M73 P0 R103
M73 Q0 S103
M201 X1000 Y1000 Z200 E5000 ; sets maximum accelerations, mm/sec^2
M203 X200 Y200 Z12 E120 ; sets maximum feedrates, mm / sec
M204 S1250 T1250 ; sets acceleration (S) and retract acceleration (R), mm/sec^2
M205 X8.00 Y8.00 Z0.40 E4.50 ; sets the jerk limits, mm/sec
M205 S0 T0 ; sets the minimum extruding and travel feed rate, mm/sec

; printing object SGPV Right Hook.stl id:0 copy 0
; stop printing object SGPV Right Hook.stl id:0 copy 0

;TYPE:Custom
M862.3 P "MK3S" ; printer model check
M862.1 P0.6 ; nozzle diameter check
M115 U3.13.3 ; tell printer latest fw version
G90 ; use absolute coordinates
M83 ; extruder relative mode
M104 S220 ; set extruder temp
M140 S64 ; set bed temp
M190 S64 ; wait for bed temp
M109 S220 ; wait for extruder temp
G28 W ; home all without mesh bed level
G80 X8.3427 Y41.6475 W233.423 H126.758 ; mesh bed levelling

G1 Z0.2 F720
G1 Y-3 F1000 ; go outside print area
G92 E0
G1 X60 E9 F1000 ; intro line
G1 X100 E12.5 F1000 ; intro line

G92 E0
M221 S95

; Don't change E values below. Excessive value can damage the printer.

G21 ; set units to millimeters
G90 ; use absolute coordinates
M83 ; use relative distances for extrusion

M900 K0.04 ; Filament gcode LA 1.5
M900 K18 ; Filament gcode LA 1.0




M107
;LAYER_CHANGE
;Z:0.2
;HEIGHT:0.2
G1 E-.8 F2100
M73 P0 R102
G1 Z.6 F720
G1 X35.668 Y51.656 F10800
G1 Z.2 F720
G1 E.8 F2100
M204 S800
;TYPE:Skirt/Brim
;WIDTH:0.65
G1 F1200
G1 X35.73 Y51.614 E.00378
G1 X38.529 Y49.91 E.16541
G1 X41.559 Y48.306 E.17306
G1 X44.401 Y47.01 E.15767
G1 X47.598 Y45.772 E.17306
G1 X50.572 Y44.817 E.15767
G1 X53.893 Y43.962 E.17311
G1 X56.958 Y43.362 E.15765
G1 X60.204 Y42.918 E.16538
G1 X67.199 Y42.244 E.35474
G1 X71.321 Y41.993 E.20846
G1 X75.385 Y41.953 E.20516
G1 X79.414 Y42.116 E.20355
G1 X83.431 Y42.482 E.20361
G1 X87.424 Y43.049 E.20358
G1 X91.32 Y43.8 E.20029
G1 X220.233 Y72.016 E6.66143
G1 X221.397 Y72.605 E.06585
G1 X224.021 Y75.06 E.18139
G1 X225.725 Y76.827 E.12391
G1 X227.808 Y79.202 E.15946
G1 X229.771 Y81.697 E.16025
G1 X231.675 Y84.41 E.16731
G1 X233.353 Y87.104 E.16021
G1 X234.82 Y89.761 E.15321
G1 X236.207 Y92.616 E.16022
G1 X237.404 Y95.459 E.15571
G1 X238.556 Y98.663 E.17187
G1 X239.46 Y101.712 E.16053
G1 X240.228 Y104.93 E.167
G1 X240.864 Y108.523 E.18419
G1 X241.316 Y112.64 E.20907
G1 X241.459 Y115.389 E.13895
G1 X241.452 Y118.849 E.17466
G1 X241.276 Y121.977 E.15815
G1 X240.911 Y125.253 E.16639
G1 X240.366 Y128.49 E.1657
G1 X239.655 Y131.644 E.16321
G1 X238.729 Y134.892 E.17049
G1 X237.619 Y138.084 E.17059
G1 X236.268 Y141.343 E.17809
G1 X234.794 Y144.384 E.17059
G1 X233.225 Y147.207 E.16303
G1 X231.338 Y150.189 E.17813
G1 X229.458 Y152.815 E.16303
G1 X227.341 Y155.449 E.17058
G1 X224.965 Y158.073 E.17869
G1 X222.051 Y160.887 E.20449
G1 X220.445 Y162.318 E.10858
G1 X218.914 Y162.93 E.08323
G1 X135.698 Y167.799 E4.20783
G1 X46.675 Y168.097 E4.49381
G1 X44.192 Y167.957 E.12554
G1 X41.737 Y167.638 E.12497
G1 X39.306 Y167.127 E.1254
G1 X36.923 Y166.428 E.12536
G1 X34.602 Y165.544 E.12537
G1 X32.357 Y164.482 E.12537
G1 X30.203 Y163.247 E.12534
G1 X28.151 Y161.847 E.12539
G1 X26.215 Y160.29 E.12541
G1 X24.408 Y158.587 E.12534
G1 X22.608 Y156.591 E.13567
G1 X21.117 Y154.643 E.12383
G1 X19.153 Y151.701 E.17856
G1 X17.209 Y148.407 E.19307
G1 X15.519 Y145.137 E.18581
G1 X14.068 Y141.911 E.17856
G1 X12.693 Y138.341 E.19311
G1 X11.607 Y134.975 E.17854
G1 X10.667 Y131.416 E.18581
G1 X9.901 Y127.668 E.19311
G1 X9.381 Y124.142 E.17991
G1 X9.043 Y120.473 E.18599
G1 X8.681 Y112.62 E.39683
G1 X8.648 Y108.148 E.22575
G1 X8.82 Y103.779 E.22071
G1 X9.182 Y99.542 E.21466
G1 X9.771 Y95.087 E.22684
G1 X10.523 Y90.903 E.21459
G1 X11.52 Y86.528 E.22651
G1 X12.649 Y82.418 E.21515
G1 X13.734 Y79.193 E.17176
G1 X14.952 Y76.154 E.16527
G1 X16.277 Y73.328 E.15755
G1 X17.911 Y70.316 E.17297
G1 X19.642 Y67.537 E.16527
G1 X21.441 Y64.986 E.15757
G1 X23.577 Y62.306 E.173
G1 X25.768 Y59.873 E.16527
G1 X27.986 Y57.677 E.15756
G1 X30.558 Y55.413 E.17297
G1 X33.142 Y53.401 E.16532
G1 X35.594 Y51.707 E.15044
M204 S1000
;WIPE_START
G1 F8640
G1 X35.668 Y51.656 E-.02075
G1 X35.73 Y51.614 E-.01729
G1 X38.528 Y49.91 E-.75645
G1 X38.549 Y49.899 E-.00551
;WIPE_END
G1 Z.6 F720
; printing object SGPV Right Hook.stl id:0 copy 0
G1 X47.716 Y99.838 F10800
G1 Z.2 F720
G1 E.8 F2100
M204 S800
;TYPE:Perimeter
;WIDTH:0.649999
G1 F1200
G1 X47.475 Y99.873 E.01229
G1 X46.989 Y100.042 E.02597
G1 X46.694 Y100.188 E.01662
G1 X46.066 Y100.553 E.03667
G1 X44.425 Y101.69 E.10078
G1 X43.173 Y102.753 E.08291
G1 X42.925 Y102.986 E.01718
G1 X41.788 Y104.17 E.08286
G1 X41.565 Y104.428 E.01721
G1 X40.555 Y105.722 E.08286
G1 X40.359 Y106.001 E.01721
G1 X39.486 Y107.391 E.08286
G1 X39.319 Y107.688 E.0172
G1 X38.592 Y109.16 E.08287
G1 X38.457 Y109.473 E.01721
G1 X37.884 Y111.011 E.08285
G1 X37.781 Y111.336 E.01721
G1 X37.381 Y112.874 E.08022
G1 X37.313 Y113.197 E.01666
G1 X37.05 Y114.871 E.08554
G1 X37.014 Y115.22 E.01771
G1 X36.93 Y117.188 E.09943
G1 X37.004 Y118.718 E.07732
G1 X37.034 Y119.034 E.01602
G1 X37.312 Y120.862 E.09334
G1 X37.763 Y122.654 E.09328
G1 X38.383 Y124.398 E.09343
G1 X39.177 Y126.096 E.09462
G1 X40.131 Y127.71 E.09464
G1 X41.036 Y128.973 E.07843
G1 X41.236 Y129.225 E.01624
G1 X42.259 Y130.394 E.07841
G1 X42.482 Y130.626 E.01624
G1 X43.613 Y131.692 E.07845
G1 X43.858 Y131.901 E.01626
G1 X45.086 Y132.852 E.0784
G1 X45.363 Y133.046 E.01707
G1 X46.677 Y133.865 E.07816
G1 X47.108 Y134.092 E.02459
G1 X48.23 Y134.547 E.06112
G1 X48.507 Y134.594 E.01418
G1 X60.53 Y158.258 E1.33987
G1 X59.629 Y158.693 E.0505
G1 X57.605 Y159.496 E.10992
G1 X55.527 Y160.151 E.10998
G1 X53.408 Y160.653 E.10993
G1 X51.258 Y161.001 E.10994
G1 X49.088 Y161.193 E.10997
G1 X46.91 Y161.227 E.10996
G1 X44.741 Y161.104 E.10966
G1 X42.808 Y160.847 E.09843
G1 X40.905 Y160.441 E.09822
G1 X39.041 Y159.887 E.09816
G1 X37.226 Y159.188 E.09818
G1 X35.471 Y158.35 E.09817
G1 X33.787 Y157.377 E.09818
G1 X32.184 Y156.275 E.09819
G1 X30.673 Y155.051 E.09816
G1 X29.262 Y153.712 E.09819
G1 X27.961 Y152.267 E.09815
G1 X26.764 Y150.709 E.09918
G1 X24.943 Y147.978 E.16569
G1 X23.266 Y145.133 E.16671
G1 X21.748 Y142.2 E.16671
G1 X20.395 Y139.187 E.16672
G1 X19.211 Y136.104 E.16671
G1 X18.199 Y132.961 E.16668
G1 X17.362 Y129.767 E.16667
G1 X16.703 Y126.531 E.1667
G1 X16.223 Y123.257 E.16703
G1 X15.925 Y119.959 E.16716
G1 X15.789 Y116.533 E.17308
G1 X15.583 Y112.397 E.20904
G1 X15.554 Y108.335 E.20505
G1 X15.713 Y104.282 E.20475
G1 X16.059 Y100.242 E.20468
G1 X16.593 Y96.222 E.20471
G1 X17.312 Y92.231 E.2047
G1 X18.217 Y88.274 E.2049
G1 X19.295 Y84.364 E.20474
G1 X20.205 Y81.658 E.14411
G1 X21.276 Y78.979 E.14564
G1 X22.496 Y76.381 E.14488
G1 X23.866 Y73.86 E.14483
G1 X25.381 Y71.424 E.14481
G1 X27.036 Y69.08 E.14484
G1 X28.826 Y66.838 E.14482
G1 X30.744 Y64.705 E.1448
G1 X32.784 Y62.687 E.14485
G1 X34.938 Y60.793 E.14479
G1 X37.2 Y59.029 E.1448
G1 X39.566 Y57.396 E.14512
G1 X42.019 Y55.909 E.1448
G1 X44.555 Y54.567 E.14483
G1 X47.165 Y53.377 E.1448
G1 X49.841 Y52.342 E.14483
G1 X52.573 Y51.465 E.14484
G1 X55.351 Y50.75 E.1448
G1 X58.166 Y50.2 E.14478
M73 Q0 S102
G1 X61.01 Y49.815 E.14487
G1 X64.079 Y49.579 E.15538
G1 X67.822 Y49.16 E.19012
G1 X71.505 Y48.934 E.18626
G1 X75.201 Y48.894 E.18658
G1 X78.887 Y49.04 E.18621
G1 X82.561 Y49.37 E.18621
G1 X86.213 Y49.885 E.18617
G1 X89.88 Y50.591 E.18851
G1 X218.653 Y78.758 E6.65399
G1 X219.139 Y78.839 E.02487
G1 X219.323 Y79.063 E.01463
G1 X221.223 Y81.043 E.13852
G1 X223.105 Y83.193 E.14424
G1 X224.861 Y85.43 E.14356
G1 X226.494 Y87.758 E.14354
G1 X228 Y90.17 E.14354
G1 X229.375 Y92.659 E.14354
G1 X230.614 Y95.218 E.14352
G1 X231.715 Y97.841 E.1436
G1 X232.673 Y100.517 E.14348
G1 X233.484 Y103.238 E.14332
G1 X234.209 Y106.28 E.15786
G1 X234.752 Y109.354 E.15757
G1 X235.118 Y112.492 E.15948
G1 X235.27 Y115.132 E.13348
G1 X235.292 Y115.995 E.04358
G1 X235.288 Y118.603 E.13165
G1 X235.129 Y121.467 E.14479
G1 X234.801 Y124.399 E.14893
G1 X234.311 Y127.309 E.14896
G1 X233.661 Y130.186 E.14889
G1 X232.828 Y133.097 E.15284
G1 X231.83 Y135.955 E.15281
G1 X230.671 Y138.751 E.15278
G1 X229.354 Y141.477 E.15282
G1 X227.883 Y144.123 E.15282
G1 X226.264 Y146.681 E.15281
G1 X224.502 Y149.142 E.15279
M73 P1 R102
G1 X222.603 Y151.499 E.15279
G1 X220.77 Y153.525 E.13791
M73 Q1 S102
G1 X220.585 Y153.665 E.01171
G1 X219.596 Y154.687 E.07179
G1 X218.727 Y155.544 E.06161
G1 X218.126 Y156.103 E.04143
G1 X135.411 Y160.934 E4.18247
G1 X134.551 Y160.929 E.04341
M73 P1 R101
G1 X133.814 Y160.829 E.03754
G1 X133.095 Y160.635 E.03759
G1 X132.407 Y160.351 E.03757
G1 X131.762 Y159.98 E.03756
G1 X131.169 Y159.53 E.03758
G1 X130.64 Y159.007 E.03755
G1 X130.182 Y158.421 E.03754
G1 X129.744 Y157.681 E.04341
G1 X101.15 Y101.413 E3.18605
G1 X99.85 Y99.263 E.12683
G1 X99.686 Y99.02 E.0148
G1 X98.34 Y97.198 E.11435
G1 X96.68 Y95.279 E.12808
G1 X94.868 Y93.503 E.12808
G1 X92.918 Y91.881 E.12804
G1 X90.61 Y90.276 E.14191
G1 X88.41 Y89.013 E.12805
G1 X86.113 Y87.933 E.12813
G1 X83.995 Y87.131 E.11432
G1 X81.56 Y86.419 E.12806
G1 X78.804 Y85.865 E.1419
G1 X76.555 Y85.602 E.1143
G1 X73.746 Y85.504 E.14188
G1 X71.211 Y85.635 E.12813
G1 X68.965 Y85.927 E.11433
G1 X66.217 Y86.515 E.14186
G1 X63.791 Y87.258 E.12808
G1 X61.683 Y88.086 E.11432
G1 X59.16 Y89.325 E.14189
G1 X56.987 Y90.635 E.12808
G1 X55.144 Y91.951 E.11432
G1 X53.199 Y93.58 E.12807
G1 X51.216 Y95.555 E.14128
G1 X50.054 Y96.92 E.09049
G1 X49.577 Y97.497 E.03779
G1 X48.25 Y99.341 E.11468
G1 X47.962 Y99.801 E.0274
G1 X47.805 Y99.825 E.00802
M204 S1000
G1 X47.805 Y99.825 F10800
G1 X47.745 Y100.436
M204 S800
G1 F1200
G1 X47.629 Y100.461 E.00599
G1 X46.99 Y100.718 E.03477
G1 X46.407 Y101.056 E.03402
G1 X45.46 Y101.698 E.05775
G1 X44.818 Y102.153 E.03972
G1 X43.566 Y103.215 E.08287
G1 X42.226 Y104.591 E.09695
G1 X41.033 Y106.095 E.0969
G1 X40 Y107.714 E.09694
G1 X39.864 Y107.957 E.01406
G1 X39.026 Y109.685 E.09694
G1 X38.369 Y111.489 E.09691
G1 X37.913 Y113.291 E.09383
G1 X37.65 Y114.965 E.08554
G1 X37.62 Y115.251 E.01452
G1 X37.537 Y117.159 E.0964
G1 X37.61 Y118.689 E.07732
G1 X37.902 Y120.718 E.10348
G1 X38.337 Y122.456 E.09044
G1 X38.935 Y124.145 E.09044
G1 X39.702 Y125.792 E.09171
G1 X40.624 Y127.357 E.09169
G1 X41.693 Y128.826 E.09171
G1 X42.899 Y130.185 E.09172
G1 X44.029 Y131.25 E.07838
G1 X45.457 Y132.372 E.09167
G1 X46.998 Y133.35 E.09213
G1 X47.351 Y133.536 E.02014
G1 X48.393 Y133.962 E.05682
G1 X48.912 Y134.05 E.02657
G1 X61.352 Y158.536 E1.38639
G1 X59.874 Y159.25 E.08286
G1 X57.808 Y160.069 E.11218
G1 X55.689 Y160.736 E.11214
G1 X53.527 Y161.249 E.11217
G1 X51.333 Y161.604 E.11219
G1 X49.12 Y161.8 E.11215
G1 X46.898 Y161.834 E.11218
G1 X44.684 Y161.709 E.11194
G1 X42.704 Y161.446 E.10083
G1 X40.755 Y161.029 E.10061
G1 X38.845 Y160.462 E.10057
G1 X36.985 Y159.746 E.10061
G1 X35.188 Y158.887 E.10054
G1 X33.462 Y157.89 E.10062
G1 X31.821 Y156.761 E.10055
G1 X30.272 Y155.507 E.1006
G1 X28.827 Y154.136 E.10055
G1 X27.494 Y152.656 E.10054
G1 X26.27 Y151.062 E.10145
G1 X24.429 Y148.301 E.16751
G1 X22.734 Y145.427 E.16843
G1 X21.201 Y142.464 E.1684
G1 X19.835 Y139.42 E.16842
G1 X18.638 Y136.306 E.1684
G1 X17.616 Y133.131 E.16837
G1 X16.771 Y129.904 E.16839
G1 X16.105 Y126.636 E.16836
G1 X15.62 Y123.328 E.16877
G1 X15.319 Y119.998 E.16878
G1 X15.183 Y116.563 E.17353
G1 X14.976 Y112.414 E.2097
G1 X14.947 Y108.325 E.20641
G1 X15.107 Y104.244 E.20616
G1 X15.456 Y100.176 E.2061
G1 X15.993 Y96.128 E.20613
G1 X16.717 Y92.11 E.20609
G1 X17.628 Y88.126 E.2063
G1 X18.714 Y84.189 E.20616
G1 X19.636 Y81.447 E.14603
G1 X20.719 Y78.737 E.14732
G1 X21.954 Y76.107 E.14667
G1 X23.341 Y73.555 E.14662
G1 X24.875 Y71.088 E.14664
G1 X26.55 Y68.716 E.14658
G1 X28.362 Y66.445 E.14666
G1 X30.304 Y64.286 E.14659
G1 X32.369 Y62.243 E.14663
G1 X34.551 Y60.326 E.14661
G1 X36.84 Y58.539 E.14659
G1 X39.236 Y56.887 E.14691
G1 X41.719 Y55.38 E.14662
G1 X44.287 Y54.023 E.14662
G1 X46.93 Y52.817 E.14665
G1 X49.639 Y51.769 E.14662
G1 X52.404 Y50.882 E.14658
G1 X55.217 Y50.158 E.14662
G1 X58.067 Y49.6 E.1466
G1 X60.946 Y49.211 E.14665
G1 X64.012 Y48.976 E.15522
G1 X67.769 Y48.555 E.19084
G1 X71.483 Y48.327 E.18783
G1 X75.21 Y48.287 E.18815
G1 X78.926 Y48.434 E.18773
G1 X82.63 Y48.767 E.18773
G1 X86.313 Y49.286 E.18775
G1 X90.002 Y49.996 E.18963
G1 X218.782 Y78.165 E6.65436
G1 X219.462 Y78.274 E.03476
G1 X219.761 Y78.643 E.02397
G1 X221.671 Y80.632 E.1392
G1 X223.573 Y82.805 E.14577
G1 X225.348 Y85.068 E.14518
G1 X227 Y87.422 E.14517
G1 X228.524 Y89.862 E.14522
G1 X229.914 Y92.38 E.14519
G1 X231.168 Y94.968 E.14517
G1 X232.281 Y97.621 E.14523
G1 X233.25 Y100.328 E.14514
G1 X234.071 Y103.081 E.14502
G1 X234.803 Y106.156 E.15956
G1 X235.353 Y109.266 E.15943
G1 X235.722 Y112.433 E.16095
G1 X235.876 Y115.1 E.13485
G1 X235.899 Y115.996 E.04524
G1 X235.896 Y118.621 E.13251
G1 X235.734 Y121.518 E.14647
G1 X235.403 Y124.484 E.15065
G1 X234.907 Y127.427 E.15065
G1 X234.25 Y130.336 E.15054
G1 X233.407 Y133.281 E.15463
G1 X232.397 Y136.171 E.15454
G1 X231.225 Y139 E.15457
G1 X229.893 Y141.756 E.15452
G1 X228.406 Y144.433 E.15458
G1 X226.768 Y147.02 E.15456
G1 X224.986 Y149.51 E.15456
G1 X223.064 Y151.893 E.15454
G1 X221.19 Y153.965 E.14103
G1 X221.021 Y154.087 E.01052
G1 X220.028 Y155.114 E.07211
G1 X219.147 Y155.983 E.06247
G1 X218.38 Y156.696 E.05286
G1 X135.427 Y161.542 E4.19451
G1 X134.509 Y161.536 E.04634
G1 X133.693 Y161.426 E.04156
G1 X132.899 Y161.211 E.04152
G1 X132.139 Y160.897 E.04151
G1 X131.426 Y160.487 E.04152
G1 X130.771 Y159.989 E.04153
G1 X130.185 Y159.412 E.04151
G1 X129.679 Y158.763 E.04154
G1 X129.212 Y157.973 E.04632
G1 X100.609 Y101.688 E3.18702
G1 X99.198 Y99.381 E.13651
G1 X97.852 Y97.558 E.11439
G1 X96.223 Y95.679 E.12553
G1 X94.445 Y93.938 E.12561
G1 X92.531 Y92.349 E.12557
G1 X90.305 Y90.802 E.13684
G1 X88.149 Y89.561 E.12557
G1 X85.898 Y88.501 E.1256
G1 X83.568 Y87.629 E.12558
G1 X81.392 Y87.002 E.11431
G1 X78.734 Y86.468 E.13685
G1 X76.484 Y86.205 E.11435
G1 X73.774 Y86.111 E.13688
G1 X71.29 Y86.237 E.12555
G1 X69.044 Y86.529 E.11433
G1 X66.392 Y87.096 E.1369
G1 X64.013 Y87.823 E.12557
G1 X61.905 Y88.651 E.11432
G1 X59.471 Y89.846 E.13687
G1 X57.34 Y91.129 E.12556
G1 X55.497 Y92.445 E.11432
G1 X53.591 Y94.044 E.12559
G1 X51.677 Y95.95 E.13635
G1 X50.516 Y97.313 E.09038
G1 X50.069 Y97.852 E.03535
G1 X49.286 Y98.941 E.06771
G1 X48.614 Y99.893 E.05882
G1 X48.32 Y100.386 E.02898
G1 X47.859 Y100.411 E.0233
G1 X47.833 Y100.417 E.00135
M204 S1000
G1 X47.833 Y100.417 F10800
G1 X47.971 Y101.029
M204 S800
G1 F1200
G1 X47.783 Y101.048 E.00954
G1 X47.286 Y101.248 E.02704
G1 X46.748 Y101.558 E.03134
G1 X45.211 Y102.616 E.09419
G1 X43.959 Y103.678 E.08287
G1 X42.664 Y105.011 E.09381
G1 X41.512 Y106.469 E.0938
G1 X40.408 Y108.226 E.10475
G1 X39.595 Y109.897 E.0938
G1 X38.956 Y111.642 E.09381
G1 X38.513 Y113.385 E.09078
G1 X38.25 Y115.059 E.08554
G1 X38.143 Y117.13 E.10468
G1 X38.216 Y118.66 E.07732
G1 X38.492 Y120.575 E.09767
M73 Q1 S101
G1 X38.91 Y122.257 E.08749
G1 X39.487 Y123.893 E.08757
G1 X40.227 Y125.487 E.08871
G1 X41.118 Y127.003 E.08876
G1 X42.15 Y128.426 E.08873
G1 X43.315 Y129.743 E.08876
G1 X44.445 Y130.808 E.07838
G1 X45.829 Y131.893 E.08877
G1 X47.32 Y132.835 E.08903
G1 X47.594 Y132.98 E.01565
G1 X48.556 Y133.377 E.05253
G1 X48.987 Y133.45 E.02207
G1 X49.298 Y133.448 E.0157
G1 X62.103 Y158.674 E1.42804
G1 X62.151 Y158.806 E.00709
G1 X62.079 Y158.859 E.00451
G1 X60.118 Y159.806 E.10993
G1 X58.011 Y160.641 E.11441
G1 X55.85 Y161.322 E.11437
G1 X53.645 Y161.845 E.11439
G1 X51.408 Y162.207 E.11439
G1 X49.151 Y162.406 E.11437
G1 X46.885 Y162.442 E.1144
G1 X44.626 Y162.314 E.11421
G1 X42.6 Y162.044 E.10317
G1 X40.605 Y161.618 E.10298
G1 X38.649 Y161.037 E.103
G1 X36.745 Y160.304 E.10299
G1 X34.904 Y159.425 E.10298
