; generated by PrusaSlicer 2.6.1+linux-x64-GTK3 on 2023-11-08 at 13:59:44 UTC


;
;
; 

; external perimeters extrusion width = 0.45mm
; perimeters extrusion width = 0.45mm
; infill extrusion width = 0.45mm
; solid infill extrusion width = 0.45mm
; top infill extrusion width = 0.40mm
; first layer extrusion width = 0.42mm

M73 P0 R7
M73 Q0 S7
M201 X1000 Y1000 Z200 E5000 ; sets maximum accelerations, mm/sec^2
M203 X200 Y200 Z12 E120 ; sets maximum feedrates, mm / sec
M204 S1250 T1250 ; sets acceleration (S) and retract acceleration (R), mm/sec^2
M205 X8.00 Y8.00 Z0.40 E4.50 ; sets the jerk limits, mm/sec
M205 S0 T0 ; sets the minimum extruding and travel feed rate, mm/sec
;TYPE:Custom
M862.3 P "MK3S" ; printer model check
M862.1 P0.4 ; nozzle diameter check
M115 U3.13.1 ; tell printer latest fw version
G90 ; use absolute coordinates
M83 ; extruder relative mode
M104 S240 ; set extruder temp
M140 S85 ; set bed temp
M190 S85 ; wait for bed temp
M109 S240 ; wait for extruder temp
G28 W ; home all without mesh bed level
G80 ; mesh bed leveling

G1 Z0.2 F720
G1 Y-3 F1000 ; go outside print area
G92 E0
G1 X60 E9 F1000 ; intro line
G1 X100 E12.5 F1000 ; intro line

G92 E0
M221 S95

; Don't change E values below. Excessive value can damage the printer.

M907 E538 ; set extruder motor current
G21 ; set units to millimeters
G90 ; use absolute coordinates
M83 ; use relative distances for extrusion
M900 K0.08 ; Filament gcode LA 1.5
M900 K45 ; Filament gcode LA 1.0

M107
;LAYER_CHANGE
;Z:0.2
;HEIGHT:0.2
;BEFORE_LAYER_CHANGE
G92 E0.0
;0.2


G1 E-1 F2100
M73 P1 R7
M73 Q1 S7
G1 Z.2 F720
;AFTER_LAYER_CHANGE
;0.2
G1 Z.4
G1 X108.053 Y101.553 F10800
G1 Z.2 F720
G1 E1 F2100
M204 S800
;TYPE:Skirt/Brim
;WIDTH:0.42
G1 F1200
G1 X116.053 Y93.553 E.35473
G1 X118 Y92.746 E.06608
G1 X132 Y92.746 E.43896
G1 X133.947 Y93.553 E.06608
G1 X141.947 Y101.553 E.35473
G1 X142.754 Y103.5 E.06608
M73 Q2 S7
G1 X142.754 Y114.5 E.3449
G1 X142.361 Y115.917 E.04611
M73 P2 R7
G1 X141.295 Y116.931 E.04613
G1 X140 Y117.254 E.04185
G1 X110 Y117.254 E.94063
G1 X108.583 Y116.861 E.04611
G1 X107.569 Y115.795 E.04613
G1 X107.246 Y114.5 E.04185
G1 X107.246 Y103.5 E.3449
G1 X108.03 Y101.608 E.06421
M204 S1000
G1 X108.319 Y101.819 F10800
M204 S800
G1 F1200
G1 X116.319 Y93.819 E.35473
G1 X118 Y93.123 E.05705
G1 X132 Y93.123 E.43896
G1 X133.681 Y93.819 E.05705
M73 Q3 S7
G1 X141.681 Y101.819 E.35473
G1 X142.377 Y103.5 E.05705
M73 P3 R7
G1 X142.377 Y114.5 E.3449
G1 X141.985 Y115.807 E.04278
G1 X140.94 Y116.683 E.04275
G1 X140 Y116.877 E.03009
G1 X110 Y116.877 E.94063
G1 X108.693 Y116.485 E.04278
G1 X107.817 Y115.44 E.04275
G1 X107.623 Y114.5 E.03009
G1 X107.623 Y103.5 E.3449
G1 X108.296 Y101.875 E.05515
M204 S1000
; printing object z7(1).stl id:0 copy 0
;WIPE_START
G1 F8640
G1 X111.352 Y98.806 E-1
;WIPE_END
G1 Z.4 F720
G1 X139.213 Y113.713 F10800
G1 Z.2 F720
G1 E1 F2100
M204 S800
;TYPE:Perimeter
;WIDTH:0.419999
G1 F1200
G1 X110.787 Y113.713 E.89128
G1 X110.787 Y103.826 E.31
M73 P4 R7
M73 Q4 S7
G1 X118.326 Y96.287 E.33429
G1 X131.674 Y96.287 E.41852
G1 X139.213 Y103.826 E.33429
G1 X139.213 Y113.653 E.30812
M204 S1000
G1 X139.59 Y114.09 F10800
M204 S800
;TYPE:External perimeter
G1 F1200
G1 X110.41 Y114.09 E.91492
G1 X110.41 Y103.67 E.32671
M73 P5 R7
M73 Q5 S7
G1 X118.17 Y95.91 E.34409
G1 X131.83 Y95.91 E.4283
G1 X139.59 Y103.67 E.34409
G1 X139.59 Y114.03 E.32483
M204 S1000
G1 X139.22 Y113.938 F10800
;WIPE_START
G1 F8640
G1 X135.259 Y114.039 E-1
;WIPE_END
G1 Z.4 F720
G1 X133.966 Y106.084 F10800
G1 Z.2 F720
G1 E1 F2100
M204 S800
;TYPE:Perimeter
G1 F1200
G1 X134.014 Y106.549 E.01466
G1 X133.958 Y106.974 E.01344
G1 X133.796 Y107.405 E.01444
G1 X133.456 Y107.895 E.0187
G1 X133.102 Y108.187 E.01439
G1 X132.706 Y108.383 E.01385
G1 X132.206 Y108.504 E.01613
G1 X131.666 Y108.487 E.01694
G1 X131.27 Y108.378 E.01288
G1 X130.867 Y108.162 E.01434
G1 X130.418 Y107.747 E.01917
G1 X130.19 Y107.385 E.01341
G1 X130.052 Y107.019 E.01226
G1 X129.986 Y106.558 E.0146
G1 X130.029 Y106.1 E.01442
G1 X130.191 Y105.614 E.01606
G1 X130.495 Y105.161 E.01711
G1 X130.813 Y104.873 E.01345
G1 X131.183 Y104.659 E.0134
G1 X131.588 Y104.528 E.01335
G1 X131.996 Y104.486 E.01286
G1 X132.422 Y104.53 E.01343
G1 X132.856 Y104.68 E.0144
G1 X133.286 Y104.95 E.01592
M73 Q6 S7
G1 X133.658 Y105.356 E.01727
G1 X133.885 Y105.801 E.01566
G1 X133.949 Y106.026 E.00733
M204 S1000
G1 X133.6 Y106.156 F10800
M204 S800
;TYPE:External perimeter
G1 F1200
G1 X133.639 Y106.511 E.0112
G1 X133.599 Y106.857 E.01092
G1 X133.482 Y107.196 E.01124
G1 X133.193 Y107.625 E.01622
G1 X132.919 Y107.857 E.01126
G1 X132.617 Y108.017 E.01072
G1 X132.108 Y108.136 E.01639
G1 X131.755 Y108.12 E.01108
G1 X131.433 Y108.038 E.01042
G1 X131.114 Y107.877 E.0112
G1 X130.731 Y107.537 E.01606
G1 X130.541 Y107.246 E.0109
M73 P6 R7
G1 X130.419 Y106.933 E.01053
G1 X130.363 Y106.576 E.01133
G1 X130.387 Y106.218 E.01125
G1 X130.545 Y105.744 E.01567
G1 X130.757 Y105.432 E.01183
G1 X131.011 Y105.194 E.01091
G1 X131.457 Y104.961 E.01578
G1 X131.929 Y104.863 E.01511
G1 X132.315 Y104.892 E.01214
G1 X132.656 Y105 E.01122
G1 X133.095 Y105.28 E.01633
G1 X133.332 Y105.546 E.01117
G1 X133.526 Y105.918 E.01315
G1 X133.582 Y106.099 E.00594
M204 S1000
G1 X133.94 Y106.266 F10800
;WIPE_START
G1 F8640
G1 X133.639 Y106.511 E-.09604
G1 X133.599 Y106.857 E-.08042
G1 X133.482 Y107.196 E-.08281
G1 X133.193 Y107.625 E-.11944
G1 X132.919 Y107.857 E-.0829
G1 X132.617 Y108.017 E-.07891
G1 X132.108 Y108.136 E-.1207
G1 X131.755 Y108.12 E-.08159
G1 X131.433 Y108.038 E-.07672
G1 X131.114 Y107.877 E-.08251
G1 X130.797 Y107.595 E-.09796
;WIPE_END
G1 Z.4 F720
G1 X115.998 Y106.6 F10800
G1 Z.2 F720
G1 E1 F2100
M204 S800
;TYPE:Perimeter
G1 F1200
G1 X115.989 Y106.526 E.00234
G1 X116.072 Y105.913 E.0194
G1 X116.246 Y105.509 E.01379
G1 X116.495 Y105.161 E.01342
G1 X116.718 Y104.947 E.00969
G1 X117.183 Y104.659 E.01715
G1 X117.588 Y104.528 E.01335
G1 X117.996 Y104.486 E.01286
G1 X118.452 Y104.54 E.0144
G1 X118.972 Y104.733 E.01739
G1 X119.363 Y105.017 E.01515
G1 X119.662 Y105.367 E.01443
G1 X119.896 Y105.821 E.01601
G1 X120.008 Y106.319 E.016
G1 X119.994 Y106.784 E.01459
G1 X119.889 Y107.2 E.01345
G1 X119.7 Y107.581 E.01334
G1 X119.446 Y107.902 E.01283
G1 X119.088 Y108.191 E.01443
G1 X118.513 Y108.448 E.01975
G1 X118.09 Y108.512 E.01341
G1 X117.666 Y108.487 E.01332
G1 X117.27 Y108.378 E.01288
G1 X116.867 Y108.162 E.01434
G1 X116.418 Y107.747 E.01917
G1 X116.19 Y107.385 E.01341
G1 X116.044 Y106.982 E.01344
G1 X116.005 Y106.659 E.0102
M204 S1000
G1 X116.372 Y106.502 F10800
M204 S800
;TYPE:External perimeter
G1 F1200
G1 X116.426 Y106.045 E.01443
G1 X116.559 Y105.719 E.01104
G1 X116.757 Y105.432 E.01093
G1 X116.979 Y105.218 E.00967
G1 X117.309 Y105.014 E.01216
G1 X117.638 Y104.902 E.0109
G1 X117.968 Y104.862 E.01042
G1 X118.325 Y104.895 E.01124
G1 X118.797 Y105.067 E.01575
G1 X119.088 Y105.274 E.0112
G1 X119.327 Y105.541 E.01124
G1 X119.557 Y105.985 E.01568
G1 X119.632 Y106.354 E.01181
G1 X119.626 Y106.703 E.01094
G1 X119.546 Y107.042 E.01092
G1 X119.398 Y107.356 E.01088
G1 X119.196 Y107.62 E.01042
G1 X118.923 Y107.852 E.01123
G1 X118.445 Y108.077 E.01656
G1 X118.102 Y108.135 E.01091
G1 X117.755 Y108.12 E.01089
G1 X117.433 Y108.038 E.01042
G1 X117.114 Y107.877 E.0112
G1 X116.731 Y107.537 E.01606
G1 X116.541 Y107.245 E.01092
G1 X116.416 Y106.92 E.01092
G1 X116.365 Y106.561 E.01137
M204 S1000
G1 X116.026 Y106.3 F10800
;WIPE_START
G1 F8640
G1 X116.426 Y106.045 E-.11998
G1 X116.559 Y105.719 E-.0813
G1 X116.757 Y105.432 E-.08051
G1 X116.979 Y105.218 E-.0712
G1 X117.309 Y105.014 E-.08958
G1 X117.638 Y104.902 E-.08025
G1 X117.968 Y104.862 E-.07676
G1 X118.325 Y104.895 E-.08278
G1 X118.797 Y105.067 E-.116
G1 X119.088 Y105.274 E-.08246
G1 X119.327 Y105.541 E-.08274
G1 X119.4 Y105.681 E-.03644
;WIPE_END
G1 Z.4 F720
G1 X131.36 Y96.457 F10800
G1 Z.2 F720
G1 E1 F2100
M204 S800
;TYPE:Solid infill
;WIDTH:0.424735
G1 F1200
G1 X138.874 Y103.97 E.33734
G1 X138.874 Y104.51 E.01714
G1 X130.99 Y96.626 E.35398
G1 X130.45 Y96.626 E.01714
G1 X138.874 Y105.05 E.37823
G1 X138.874 Y105.59 E.01714
M73 Q7 S7
G1 X129.91 Y96.626 E.40247
G1 X129.37 Y96.626 E.01714
M73 P7 R7
G1 X138.874 Y106.13 E.42672
G1 X138.874 Y106.67 E.01714
G1 X128.83 Y96.626 E.45096
G1 X128.29 Y96.626 E.01714
G1 X138.874 Y107.21 E.47521
G1 X138.874 Y107.75 E.01714
G1 X127.75 Y96.626 E.49945
G1 X127.21 Y96.626 E.01714
G1 X138.874 Y108.29 E.5237
G1 X138.874 Y108.83 E.01714
G1 X126.67 Y96.626 E.54794
M73 Q8 S7
G1 X126.13 Y96.626 E.01714
M73 P8 R7
G1 X138.874 Y109.37 E.57219
G1 X138.874 Y109.91 E.01714
G1 X125.59 Y96.626 E.59643
G1 X125.05 Y96.626 E.01714
G1 X132.682 Y104.259 E.34269
G1 X132.82 Y104.294 E.00452
G1 X133.028 Y104.387 E.00723
G1 X133.483 Y104.674 E.01708
G1 X133.599 Y104.771 E.0048
G1 X133.847 Y105.04 E.01162
G1 X134.112 Y105.461 E.01579
G1 X134.244 Y105.82 E.01214
G1 X138.874 Y110.45 E.20788
G1 X138.874 Y110.99 E.01714
G1 X134.348 Y106.464 E.20321
G1 X134.309 Y106.965 E.01595
G1 X138.874 Y111.53 E.20496
G1 X138.874 Y112.07 E.01714
G1 X134.183 Y107.379 E.21062
G1 X134.085 Y107.584 E.00721
M73 Q9 S7
G1 X133.99 Y107.726 E.00542
G1 X138.874 Y112.609 E.21926
G1 X138.874 Y113.149 E.01714
M73 P9 R7
G1 X133.77 Y108.046 E.22914
G1 X133.696 Y108.136 E.0037
G1 X133.495 Y108.311 E.00846
G1 X138.558 Y113.374 E.22732
G1 X138.018 Y113.374 E.01714
G1 X133.172 Y108.528 E.21758
G1 X133.004 Y108.629 E.00622
G1 X132.809 Y108.705 E.00664
G1 X137.478 Y113.374 E.20963
G1 X136.938 Y113.374 E.01714
G1 X132.377 Y108.813 E.20478
G1 X132.112 Y108.853 E.00851
G1 X131.861 Y108.836 E.00799
G1 X136.567 Y113.543 E.21131
M204 S1000
;WIPE_START
G1 F8640
G1 X133.505 Y110.48 E-1
;WIPE_END
G1 Z.4 F720
G1 X132.22 Y104.336 F10800
G1 Z.2 F720
G1 E1 F2100
M204 S800
G1 F1200
G1 X124.51 Y96.626 E.34617
G1 X123.97 Y96.626 E.01714
G1 X131.546 Y104.202 E.34015
G1 X131.37 Y104.232 E.00567
G1 X131.131 Y104.327 E.00817
G1 X123.43 Y96.626 E.34576
G1 X122.891 Y96.626 E.01711
M73 Q10 S7
G1 X130.77 Y104.506 E.35378
G1 X130.454 Y104.73 E.0123
M73 P10 R7
G1 X122.351 Y96.626 E.36384
G1 X121.811 Y96.626 E.01714
G1 X130.184 Y105 E.37596
G1 X129.97 Y105.326 E.01238
G1 X121.271 Y96.626 E.39059
G1 X120.731 Y96.626 E.01714
G1 X129.806 Y105.702 E.40748
G1 X129.682 Y106.118 E.01378
M73 P10 R6
G1 X120.191 Y96.626 E.42615
G1 X119.651 Y96.626 E.01714
M73 Q10 S6
G1 X129.849 Y106.825 E.4579
M204 S1000
;WIPE_START
G1 F8640
M73 Q11 S6
G1 X126.787 Y103.762 E-1
;WIPE_END
G1 Z.4 F720
M73 P11 R6
G1 X136.028 Y113.543 F10800
G1 Z.2 F720
G1 E1 F2100
M204 S800
G1 F1200
G1 X131.188 Y108.704 E.21729
G1 X130.837 Y108.546 E.01222
G1 X130.653 Y108.425 E.00699
G1 X130.288 Y108.11 E.01531
G1 X130.14 Y107.943 E.00708
G1 X129.879 Y107.522 E.01573
G1 X129.8 Y107.316 E.007
G1 X119.111 Y96.626 E.47994
G1 X118.571 Y96.626 E.01714
G1 X135.318 Y113.374 E.75194
G1 X134.778 Y113.374 E.01714
G1 X118.249 Y96.844 E.74215
G1 X117.979 Y97.114 E.01212
G1 X134.238 Y113.374 E.73003
G1 X133.698 Y113.374 E.01714
M73 P12 R6
M73 Q12 S6
G1 X117.709 Y97.384 E.7179
G1 X117.439 Y97.654 E.01212
G1 X133.158 Y113.374 E.70578
G1 X132.618 Y113.374 E.01714
G1 X117.169 Y97.924 E.69366
G1 X116.899 Y98.194 E.01212
G1 X132.078 Y113.374 E.68154
G1 X131.538 Y113.374 E.01714
M73 P13 R6
M73 Q13 S6
G1 X116.629 Y98.464 E.66941
G1 X116.359 Y98.734 E.01212
G1 X130.998 Y113.374 E.65729
G1 X130.458 Y113.374 E.01714
G1 X116.089 Y99.004 E.64517
G1 X115.819 Y99.274 E.01212
G1 X129.918 Y113.374 E.63305
G1 X129.378 Y113.374 E.01714
M73 Q14 S6
G1 X115.549 Y99.544 E.62092
G1 X115.279 Y99.814 E.01212
M73 P14 R6
G1 X128.838 Y113.374 E.6088
G1 X128.298 Y113.374 E.01714
G1 X115.009 Y100.084 E.59668
G1 X114.739 Y100.354 E.01212
G1 X118.629 Y104.244 E.17466
G1 X119.129 Y104.431 E.01695
G1 X119.48 Y104.669 E.01346
G1 X119.827 Y105.016 E.01558
G1 X119.958 Y105.202 E.00722
G1 X120.229 Y105.736 E.01901
G1 X120.259 Y105.874 E.00448
G1 X127.758 Y113.374 E.33672
G1 X127.218 Y113.374 E.01714
G1 X120.346 Y106.501 E.30857
G1 X120.344 Y106.738 E.00752
G1 X120.293 Y106.988 E.0081
M73 Q15 S6
G1 X126.678 Y113.374 E.2867
G1 X126.138 Y113.374 E.01714
M73 P15 R6
G1 X120.164 Y107.399 E.26825
G1 X120.064 Y107.632 E.00805
G1 X119.979 Y107.755 E.00475
G1 X125.598 Y113.374 E.25228
G1 X125.058 Y113.374 E.01714
G1 X119.751 Y108.066 E.2383
G1 X119.474 Y108.329 E.01213
G1 X124.519 Y113.374 E.22651
G1 X123.979 Y113.374 E.01714
G1 X119.146 Y108.541 E.21699
G1 X118.781 Y108.716 E.01285
G1 X123.439 Y113.374 E.20914
G1 X122.899 Y113.374 E.01714
G1 X118.343 Y108.818 E.20456
G1 X118.115 Y108.853 E.00732
G1 X117.819 Y108.834 E.00942
G1 X122.528 Y113.543 E.21143
M204 S1000
;WIPE_START
G1 F8640
G1 X119.466 Y110.481 E-1
;WIPE_END
G1 Z.4 F720
G1 X118.179 Y104.334 F10800
G1 Z.2 F720
G1 E1 F2100
M204 S800
G1 F1200
G1 X114.469 Y100.624 E.16657
G1 X114.199 Y100.894 E.01212
G1 X117.512 Y104.208 E.14877
G1 X117.37 Y104.232 E.00457
G1 X117.103 Y104.338 E.00912
G1 X113.929 Y101.164 E.14251
G1 X113.659 Y101.434 E.01212
M73 Q16 S6
G1 X116.747 Y104.522 E.13865
G1 X116.434 Y104.749 E.01228
M73 P16 R6
G1 X113.389 Y101.704 E.13672
G1 X113.119 Y101.974 E.01212
G1 X116.173 Y105.028 E.13712
G1 X115.951 Y105.346 E.01231
G1 X112.849 Y102.244 E.13928
G1 X112.579 Y102.514 E.01212
G1 X115.786 Y105.721 E.14399
G1 X115.703 Y106.006 E.00942
G1 X115.688 Y106.163 E.00501
G1 X112.309 Y102.784 E.15171
G1 X112.039 Y103.054 E.01212
G1 X115.857 Y106.872 E.17142
M204 S1000
;WIPE_START
G1 F8640
G1 X112.795 Y103.81 E-1
;WIPE_END
G1 Z.4 F720
G1 X111.649 Y103.204 F10800
G1 Z.2 F720
G1 E1 F2100
M204 S800
G1 F1200
G1 X115.83 Y107.385 E.18772
G1 X115.878 Y107.52 E.00455
G1 X116.139 Y107.941 E.01573
G1 X116.265 Y108.089 E.00617
G1 X116.653 Y108.425 E.0163
G1 X116.837 Y108.546 E.00699
G1 X117.133 Y108.688 E.01042
G1 X121.819 Y113.374 E.21039
G1 X121.279 Y113.374 E.01714
G1 X111.499 Y103.594 E.43911
G1 X111.229 Y103.864 E.01212
G1 X120.739 Y113.374 E.42698
G1 X120.199 Y113.374 E.01714
G1 X111.126 Y104.301 E.40736
G1 X111.126 Y104.841 E.01714
M73 P17 R6
M73 Q17 S6
G1 X119.659 Y113.374 E.38312
G1 X119.119 Y113.374 E.01714
G1 X111.126 Y105.381 E.35887
G1 X111.126 Y105.921 E.01714
G1 X118.579 Y113.374 E.33463
G1 X118.039 Y113.374 E.01714
G1 X111.126 Y106.461 E.31038
G1 X111.126 Y107.001 E.01714
G1 X117.499 Y113.374 E.28614
G1 X116.959 Y113.374 E.01714
G1 X111.126 Y107.541 E.26189
G1 X111.126 Y108.081 E.01714
G1 X116.419 Y113.374 E.23765
G1 X115.879 Y113.374 E.01714
G1 X111.126 Y108.621 E.2134
G1 X111.126 Y109.161 E.01714
G1 X115.339 Y113.374 E.18916
G1 X114.799 Y113.374 E.01714
M73 Q18 S6
G1 X111.126 Y109.701 E.16491
G1 X111.126 Y110.241 E.01714
M73 P18 R6
G1 X114.259 Y113.374 E.14067
G1 X113.719 Y113.374 E.01714
G1 X111.126 Y110.781 E.11642
G1 X111.126 Y111.321 E.01714
G1 X113.179 Y113.374 E.09218
G1 X112.639 Y113.374 E.01714
G1 X111.126 Y111.861 E.06793
G1 X111.126 Y112.401 E.01714
G1 X112.099 Y113.374 E.04369
G1 X111.559 Y113.374 E.01714
G1 X110.957 Y112.771 E.02705
M204 S1000
; stop printing object z7(1).stl id:0 copy 0
;LAYER_CHANGE
;Z:0.4
;HEIGHT:0.2
;BEFORE_LAYER_CHANGE
G92 E0.0
;0.4


;WIPE_START
G1 F8640
G1 X111.559 Y113.374 E-.19674
G1 X112.099 Y113.374 E-.12469
G1 X111.126 Y112.401 E-.31773
G1 X111.126 Y111.861 E-.12469
G1 X111.849 Y112.584 E-.23615
;WIPE_END
G1 Z.4 F720
;AFTER_LAYER_CHANGE
;0.4
M104 S250 ; set temperature
M140 S90 ; set bed temperature
G1 Z.6
G1 X107.246 Y112.584 F10800
G1 Z.4 F720
G1 E1 F2100
;TYPE:Skirt/Brim
;WIDTH:0.42
G1 F3000
G1 X107.246 Y103.5 E.28482
G1 X108.053 Y101.553 E.06608
G1 X116.053 Y93.553 E.35473
G1 X118 Y92.746 E.06608
G1 X132 Y92.746 E.43896
G1 X133.947 Y93.553 E.06608
G1 X141.947 Y101.553 E.35473
G1 X142.754 Y103.5 E.06608
G1 X142.754 Y114.5 E.3449
G1 X142.361 Y115.917 E.04611
G1 X141.295 Y116.931 E.04613
G1 X140 Y117.254 E.04185
G1 X110 Y117.254 E.94063
G1 X108.583 Y116.861 E.04611
G1 X107.569 Y115.795 E.04613
G1 X107.246 Y114.5 E.04185
G1 X107.246 Y112.644 E.05819
G1 X107.623 Y112.644 F10800
G1 F3000
G1 X107.623 Y103.5 E.2867
G1 X108.319 Y101.819 E.05705
G1 X116.319 Y93.819 E.35473
G1 X118 Y93.123 E.05705
M73 Q19 S6
G1 X132 Y93.123 E.43896
M73 P19 R6
G1 X133.681 Y93.819 E.05705
G1 X141.681 Y101.819 E.35473
