; generated by PrusaSlicer 2.6.0+linux-x64-GTK3 on 2023-08-18 at 20:59:50 UTC


;
;
; 

; external perimeters extrusion width = 0.45mm
; perimeters extrusion width = 0.45mm
; infill extrusion width = 0.45mm
; solid infill extrusion width = 0.45mm
; top infill extrusion width = 0.40mm
; first layer extrusion width = 0.42mm

M73 P0 R65
M73 C61
M73 Q0 S65
M73 D61
M201 X1000 Y1000 Z200 E5000 ; sets maximum accelerations, mm/sec^2
M203 X200 Y200 Z12 E120 ; sets maximum feedrates, mm / sec
M204 S1250 T1250 ; sets acceleration (S) and retract acceleration (R), mm/sec^2
M205 X8.00 Y8.00 Z0.40 E4.50 ; sets the jerk limits, mm/sec
M205 S0 T0 ; sets the minimum extruding and travel feed rate, mm/sec
;TYPE:Custom
M862.3 P "MK3S" ; printer model check
M862.1 P0.4 ; nozzle diameter check
M115 U3.12.2 ; tell printer latest fw version
G90 ; use absolute coordinates
M83 ; extruder relative mode
M104 S215 ; set extruder temp
M140 S60 ; set bed temp
M190 S60 ; wait for bed temp
M109 S215 ; wait for extruder temp
G28 W ; home all without mesh bed level
G80 ; mesh bed leveling

G1 Z0.2 F720
G1 Y-3 F1000 ; go outside print area
G92 E0
G1 X60 E9 F1000 ; intro line
G1 X100 E12.5 F1000 ; intro line

G92 E0
M221 S95

; Don't change E values below. Excessive value can damage the printer.
M907 E430 ; set extruder motor current
G21 ; set units to millimeters
G90 ; use absolute coordinates
M83 ; use relative distances for extrusion
M900 K0.05 ; Filament gcode LA 1.5
M900 K30 ; Filament gcode LA 1.0
M107
;LAYER_CHANGE
;Z:0.2
;HEIGHT:0.2
;BEFORE_LAYER_CHANGE
G92 E0.0
;0.2


G1 E-.8 F2100
G1 Z.4 F720
;AFTER_LAYER_CHANGE
;0.2
G1 X56.552 Y83.981 F10800
G1 Z.2 F720
G1 E.8 F2100
M204 S800
;TYPE:Skirt/Brim
;WIDTH:0.42
G1 F1200
G1 X57.492 Y83.787 E.03009
G1 X219.492 Y83.787 E5.0794
G1 X220.799 Y84.179 E.04278
G1 X221.675 Y85.225 E.04278
G1 X221.869 Y86.164 E.03006
G1 X221.869 Y117.664 E.98766
G1 X221.477 Y118.971 E.04278
G1 X220.432 Y119.848 E.04277
G1 X219.492 Y120.041 E.03009
G1 X57.492 Y120.041 E5.0794
G1 X56.185 Y119.65 E.04277
G1 X55.308 Y118.604 E.0428
G1 X55.115 Y117.664 E.03009
G1 X55.115 Y86.164 E.98766
G1 X55.506 Y84.857 E.04277
G1 X56.506 Y84.019 E.04091
M204 S1000
; printing object RZ_Strip.stl id:0 copy 0
;WIPE_START
G1 F8640
G1 X57.492 Y83.787 E-.23389
G1 X59.944 Y83.787 E-.56611
;WIPE_END
G1 Z.6 F720
G1 X218.705 Y116.877 F10800
G1 Z.2 F720
G1 E.8 F2100
M204 S800
;TYPE:Perimeter
;WIDTH:0.419999
G1 F1200
G1 X58.279 Y116.877 E5.03004
G1 X58.279 Y86.951 E.93831
M73 P0 R64
M73 C60
G1 X218.705 Y86.951 E5.03004
G1 X218.705 Y116.817 E.93643
M204 S1000
M73 P1 R64
M73 Q1 S65
G1 X219.082 Y117.254 F10800
M204 S800
;TYPE:External perimeter
G1 F1200
G1 X57.902 Y117.254 E5.05368
G1 X57.902 Y86.574 E.96195
M73 Q1 S64
M73 D60
G1 X219.082 Y86.574 E5.05368
G1 X219.082 Y117.194 E.96007
M204 S1000
G1 X218.683 Y117.229 F10800
;WIPE_START
G1 F8640
G1 X215.617 Y117.195 E-.8
;WIPE_END
G1 Z.6 F720
G1 X217.771 Y87.121 F10800
G1 Z.2 F720
G1 E.8 F2100
M204 S800
;TYPE:Solid infill
;WIDTH:0.42087
G1 F1200
G1 X218.365 Y87.716 E.02642
G1 X218.365 Y88.25 E.01678
G1 X217.406 Y87.291 E.04262
G1 X216.872 Y87.291 E.01678
G1 X218.365 Y88.785 E.06638
G1 X218.365 Y89.319 E.01678
G1 X216.337 Y87.291 E.09013
G1 X215.803 Y87.291 E.01678
G1 X218.365 Y89.854 E.11389
G1 X218.365 Y90.388 E.01678
G1 X215.268 Y87.291 E.13764
G1 X214.734 Y87.291 E.01678
G1 X218.365 Y90.923 E.1614
G1 X218.365 Y91.457 E.01678
G1 X214.199 Y87.291 E.18515
G1 X213.665 Y87.291 E.01678
G1 X218.365 Y91.992 E.20891
G1 X218.365 Y92.526 E.01678
G1 X213.13 Y87.291 E.23266
G1 X212.596 Y87.291 E.01678
G1 X218.365 Y93.061 E.25642
G1 X218.365 Y93.595 E.01678
G1 X212.061 Y87.291 E.28018
G1 X211.527 Y87.291 E.01678
G1 X218.365 Y94.13 E.30393
G1 X218.365 Y94.664 E.01678
G1 X210.992 Y87.291 E.32769
G1 X210.458 Y87.291 E.01678
G1 X218.365 Y95.199 E.35144
G1 X218.365 Y95.733 E.01678
G1 X209.923 Y87.291 E.3752
G1 X209.389 Y87.291 E.01678
G1 X218.365 Y96.268 E.39895
G1 X218.365 Y96.802 E.01678
G1 X208.854 Y87.291 E.42271
G1 X208.32 Y87.291 E.01678
G1 X218.365 Y97.337 E.44646
G1 X218.365 Y97.871 E.01678
G1 X207.785 Y87.291 E.47022
G1 X207.251 Y87.291 E.01678
G1 X218.365 Y98.406 E.49397
G1 X218.365 Y98.94 E.01678
G1 X206.716 Y87.291 E.51773
G1 X206.182 Y87.291 E.01678
G1 X218.365 Y99.475 E.54148
G1 X218.365 Y100.009 E.01678
M73 P2 R64
M73 Q2 S64
G1 X205.647 Y87.291 E.56524
G1 X205.113 Y87.291 E.01678
G1 X218.365 Y100.544 E.58899
G1 X218.365 Y101.078 E.01678
G1 X204.578 Y87.291 E.61275
G1 X204.044 Y87.291 E.01678
G1 X218.365 Y101.613 E.63651
G1 X218.365 Y102.147 E.01678
G1 X203.509 Y87.291 E.66026
G1 X202.975 Y87.291 E.01678
G1 X218.365 Y102.682 E.68402
G1 X218.365 Y103.216 E.01678
G1 X202.44 Y87.291 E.70777
G1 X201.906 Y87.291 E.01678
G1 X218.365 Y103.751 E.73153
G1 X218.365 Y104.285 E.01678
G1 X201.371 Y87.291 E.75528
G1 X200.837 Y87.291 E.01678
G1 X218.365 Y104.82 E.77904
G1 X218.365 Y105.354 E.01678
M73 C59
G1 X200.302 Y87.291 E.80279
G1 X199.768 Y87.291 E.01678
G1 X218.365 Y105.889 E.82655
G1 X218.365 Y106.423 E.01678
G1 X199.233 Y87.291 E.8503
G1 X198.699 Y87.291 E.01678
G1 X218.365 Y106.958 E.87406
G1 X218.365 Y107.492 E.01678
M73 P2 R63
G1 X198.164 Y87.291 E.89781
G1 X197.63 Y87.291 E.01678
G1 X218.365 Y108.027 E.92157
G1 X218.365 Y108.561 E.01678
G1 X197.095 Y87.291 E.94532
G1 X196.561 Y87.291 E.01678
G1 X218.365 Y109.096 E.96908
G1 X218.365 Y109.63 E.01678
G1 X196.026 Y87.291 E.99284
G1 X195.492 Y87.291 E.01678
G1 X218.365 Y110.165 E1.01659
G1 X218.365 Y110.699 E.01678
G1 X194.957 Y87.291 E1.04035
G1 X194.423 Y87.291 E.01678
G1 X218.365 Y111.234 E1.0641
G1 X218.365 Y111.768 E.01678
G1 X193.888 Y87.291 E1.08786
G1 X193.354 Y87.291 E.01678
M73 D59
G1 X218.365 Y112.303 E1.11161
G1 X218.365 Y112.837 E.01678
G1 X192.819 Y87.291 E1.13537
G1 X192.285 Y87.291 E.01678
G1 X218.365 Y113.372 E1.15912
G1 X218.365 Y113.906 E.01678
M73 Q2 S63
G1 X191.75 Y87.291 E1.18288
G1 X191.216 Y87.291 E.01678
G1 X218.365 Y114.441 E1.20663
G1 X218.365 Y114.975 E.01678
M73 P3 R63
M73 Q3 S63
G1 X190.681 Y87.291 E1.23039
G1 X190.147 Y87.291 E.01678
G1 X218.365 Y115.51 E1.25414
G1 X218.365 Y116.044 E.01678
G1 X189.612 Y87.291 E1.2779
G1 X189.078 Y87.291 E.01678
G1 X218.325 Y116.538 E1.29985
G1 X217.79 Y116.538 E.01681
G1 X188.543 Y87.291 E1.29985
G1 X188.009 Y87.291 E.01678
G1 X217.256 Y116.538 E1.29985
G1 X216.721 Y116.538 E.01681
G1 X187.474 Y87.291 E1.29985
G1 X186.94 Y87.291 E.01678
G1 X216.187 Y116.538 E1.29985
G1 X215.652 Y116.538 E.01681
G1 X186.405 Y87.291 E1.29985
G1 X185.871 Y87.291 E.01678
G1 X215.118 Y116.538 E1.29985
G1 X214.583 Y116.538 E.01681
G1 X185.336 Y87.291 E1.29985
G1 X184.801 Y87.291 E.01681
G1 X214.049 Y116.538 E1.29988
G1 X213.514 Y116.538 E.01681
G1 X184.267 Y87.291 E1.29985
G1 X183.732 Y87.291 E.01681
G1 X212.98 Y116.538 E1.29988
G1 X212.445 Y116.538 E.01681
G1 X183.198 Y87.291 E1.29985
G1 X182.663 Y87.291 E.01681
M73 C58
G1 X211.911 Y116.538 E1.29988
G1 X211.376 Y116.538 E.01681
G1 X182.129 Y87.291 E1.29985
G1 X181.594 Y87.291 E.01681
M73 P3 R62
G1 X210.842 Y116.538 E1.29988
G1 X210.307 Y116.538 E.01681
G1 X181.06 Y87.291 E1.29985
G1 X180.525 Y87.291 E.01681
M73 P4 R62
M73 Q4 S63
G1 X209.773 Y116.538 E1.29988
G1 X209.238 Y116.538 E.01681
G1 X179.991 Y87.291 E1.29985
G1 X179.456 Y87.291 E.01681
G1 X208.704 Y116.538 E1.29988
G1 X208.169 Y116.538 E.01681
G1 X178.922 Y87.291 E1.29985
G1 X178.387 Y87.291 E.01681
G1 X207.635 Y116.538 E1.29988
G1 X207.1 Y116.538 E.01681
G1 X177.853 Y87.291 E1.29985
G1 X177.318 Y87.291 E.01681
M73 D58
G1 X206.566 Y116.538 E1.29988
G1 X206.031 Y116.538 E.01681
G1 X176.784 Y87.291 E1.29985
G1 X176.249 Y87.291 E.01681
M73 Q4 S62
G1 X205.497 Y116.538 E1.29988
G1 X204.962 Y116.538 E.01681
G1 X175.715 Y87.291 E1.29985
G1 X175.18 Y87.291 E.01681
G1 X204.428 Y116.538 E1.29988
G1 X203.893 Y116.538 E.01681
G1 X174.646 Y87.291 E1.29985
G1 X174.111 Y87.291 E.01681
G1 X203.359 Y116.538 E1.29988
G1 X202.824 Y116.538 E.01681
G1 X173.577 Y87.291 E1.29985
G1 X173.042 Y87.291 E.01681
G1 X202.29 Y116.538 E1.29988
G1 X201.755 Y116.538 E.01681
G1 X172.508 Y87.291 E1.29985
G1 X171.973 Y87.291 E.01681
G1 X201.221 Y116.538 E1.29988
G1 X200.686 Y116.538 E.01681
G1 X171.439 Y87.291 E1.29985
G1 X170.904 Y87.291 E.01681
M73 P5 R62
M73 Q5 S62
G1 X200.152 Y116.538 E1.29988
G1 X199.617 Y116.538 E.01681
G1 X170.37 Y87.291 E1.29985
G1 X169.835 Y87.291 E.01681
G1 X199.083 Y116.538 E1.29988
G1 X198.548 Y116.538 E.01681
G1 X169.301 Y87.291 E1.29985
G1 X168.766 Y87.291 E.01681
G1 X198.014 Y116.538 E1.29988
G1 X197.479 Y116.538 E.01681
G1 X168.232 Y87.291 E1.29985
G1 X167.697 Y87.291 E.01681
M73 C57
G1 X196.945 Y116.538 E1.29988
G1 X196.41 Y116.538 E.01681
G1 X167.163 Y87.291 E1.29985
G1 X166.628 Y87.291 E.01681
G1 X195.876 Y116.538 E1.29988
G1 X195.341 Y116.538 E.01681
M73 P5 R61
G1 X166.094 Y87.291 E1.29985
G1 X165.559 Y87.291 E.01681
G1 X194.807 Y116.538 E1.29988
G1 X194.272 Y116.538 E.01681
G1 X165.025 Y87.291 E1.29985
G1 X164.49 Y87.291 E.01681
G1 X193.738 Y116.538 E1.29988
G1 X193.203 Y116.538 E.01681
G1 X163.956 Y87.291 E1.29985
G1 X163.421 Y87.291 E.01681
G1 X192.669 Y116.538 E1.29988
G1 X192.134 Y116.538 E.01681
G1 X162.887 Y87.291 E1.29985
G1 X162.352 Y87.291 E.01681
M73 D57
G1 X191.6 Y116.538 E1.29988
G1 X191.065 Y116.538 E.01681
G1 X161.818 Y87.291 E1.29985
G1 X161.283 Y87.291 E.01681
G1 X190.531 Y116.538 E1.29988
G1 X189.996 Y116.538 E.01681
M73 P6 R61
M73 Q6 S61
G1 X160.749 Y87.291 E1.29985
G1 X160.214 Y87.291 E.01681
G1 X189.462 Y116.538 E1.29988
G1 X188.927 Y116.538 E.01681
G1 X159.68 Y87.291 E1.29985
G1 X159.145 Y87.291 E.01681
G1 X188.393 Y116.538 E1.29988
G1 X187.858 Y116.538 E.01681
G1 X158.611 Y87.291 E1.29985
G1 X158.076 Y87.291 E.01681
G1 X187.324 Y116.538 E1.29988
G1 X186.789 Y116.538 E.01681
G1 X157.542 Y87.291 E1.29985
G1 X157.007 Y87.291 E.01681
G1 X186.255 Y116.538 E1.29988
G1 X185.72 Y116.538 E.01681
G1 X156.473 Y87.291 E1.29985
G1 X155.938 Y87.291 E.01681
G1 X185.185 Y116.538 E1.29985
G1 X184.651 Y116.538 E.01678
G1 X155.404 Y87.291 E1.29985
G1 X154.869 Y87.291 E.01681
G1 X184.116 Y116.538 E1.29985
G1 X183.582 Y116.538 E.01678
G1 X154.335 Y87.291 E1.29985
G1 X153.8 Y87.291 E.01681
G1 X183.047 Y116.538 E1.29985
G1 X182.513 Y116.538 E.01678
G1 X153.266 Y87.291 E1.29985
G1 X152.731 Y87.291 E.01681
G1 X181.978 Y116.538 E1.29985
G1 X181.444 Y116.538 E.01678
M73 C56
G1 X152.197 Y87.291 E1.29985
G1 X151.662 Y87.291 E.01681
G1 X180.909 Y116.538 E1.29985
G1 X180.375 Y116.538 E.01678
M73 P6 R60
G1 X151.128 Y87.291 E1.29985
G1 X150.593 Y87.291 E.01681
M73 P7 R60
M73 Q7 S61
G1 X179.84 Y116.538 E1.29985
G1 X179.306 Y116.538 E.01678
G1 X150.059 Y87.291 E1.29985
G1 X149.524 Y87.291 E.01681
G1 X178.771 Y116.538 E1.29985
G1 X178.237 Y116.538 E.01678
G1 X148.99 Y87.291 E1.29985
G1 X148.455 Y87.291 E.01681
G1 X177.702 Y116.538 E1.29985
G1 X177.168 Y116.538 E.01678
G1 X147.921 Y87.291 E1.29985
G1 X147.386 Y87.291 E.01681
M73 D56
G1 X176.633 Y116.538 E1.29985
G1 X176.099 Y116.538 E.01678
G1 X146.852 Y87.291 E1.29985
G1 X146.317 Y87.291 E.01681
G1 X175.564 Y116.538 E1.29985
G1 X175.03 Y116.538 E.01678
M73 Q7 S60
G1 X145.783 Y87.291 E1.29985
G1 X145.248 Y87.291 E.01681
G1 X174.495 Y116.538 E1.29985
G1 X173.961 Y116.538 E.01678
G1 X144.714 Y87.291 E1.29985
G1 X144.179 Y87.291 E.01681
G1 X173.426 Y116.538 E1.29985
G1 X172.892 Y116.538 E.01678
G1 X143.645 Y87.291 E1.29985
G1 X143.11 Y87.291 E.01681
G1 X172.357 Y116.538 E1.29985
G1 X171.823 Y116.538 E.01678
G1 X142.576 Y87.291 E1.29985
G1 X142.041 Y87.291 E.01681
G1 X171.288 Y116.538 E1.29985
G1 X170.754 Y116.538 E.01678
G1 X141.507 Y87.291 E1.29985
G1 X140.972 Y87.291 E.01681
M73 P8 R60
G1 X170.219 Y116.538 E1.29985
G1 X169.685 Y116.538 E.01678
M73 Q8 S60
G1 X140.438 Y87.291 E1.29985
G1 X139.903 Y87.291 E.01681
G1 X169.15 Y116.538 E1.29985
G1 X168.616 Y116.538 E.01678
G1 X139.369 Y87.291 E1.29985
G1 X138.834 Y87.291 E.01681
G1 X168.081 Y116.538 E1.29985
G1 X167.547 Y116.538 E.01678
G1 X138.3 Y87.291 E1.29985
G1 X137.765 Y87.291 E.01681
G1 X167.012 Y116.538 E1.29985
G1 X166.478 Y116.538 E.01678
M73 C55
G1 X137.231 Y87.291 E1.29985
G1 X136.696 Y87.291 E.01681
G1 X165.943 Y116.538 E1.29985
G1 X165.409 Y116.538 E.01678
G1 X136.162 Y87.291 E1.29985
G1 X135.627 Y87.291 E.01681
M73 P8 R59
G1 X164.874 Y116.538 E1.29985
G1 X164.34 Y116.538 E.01678
G1 X135.093 Y87.291 E1.29985
G1 X134.558 Y87.291 E.01681
G1 X163.805 Y116.538 E1.29985
G1 X163.271 Y116.538 E.01678
G1 X134.024 Y87.291 E1.29985
G1 X133.489 Y87.291 E.01681
G1 X162.736 Y116.538 E1.29985
G1 X162.202 Y116.538 E.01678
G1 X132.955 Y87.291 E1.29985
G1 X132.42 Y87.291 E.01681
G1 X161.667 Y116.538 E1.29985
G1 X161.133 Y116.538 E.01678
M73 D55
G1 X131.886 Y87.291 E1.29985
G1 X131.351 Y87.291 E.01681
G1 X160.598 Y116.538 E1.29985
G1 X160.064 Y116.538 E.01678
M73 P9 R59
M73 Q9 S59
G1 X130.817 Y87.291 E1.29985
G1 X130.282 Y87.291 E.01681
G1 X159.529 Y116.538 E1.29985
G1 X158.995 Y116.538 E.01678
G1 X129.748 Y87.291 E1.29985
G1 X129.213 Y87.291 E.01681
G1 X158.46 Y116.538 E1.29985
G1 X157.926 Y116.538 E.01678
G1 X128.679 Y87.291 E1.29985
G1 X128.144 Y87.291 E.01681
G1 X157.391 Y116.538 E1.29985
G1 X156.857 Y116.538 E.01678
G1 X127.61 Y87.291 E1.29985
G1 X127.075 Y87.291 E.01681
G1 X156.322 Y116.538 E1.29985
G1 X155.788 Y116.538 E.01678
G1 X126.541 Y87.291 E1.29985
G1 X126.006 Y87.291 E.01681
G1 X155.253 Y116.538 E1.29985
G1 X154.719 Y116.538 E.01678
G1 X125.472 Y87.291 E1.29985
G1 X124.937 Y87.291 E.01681
G1 X154.184 Y116.538 E1.29985
G1 X153.65 Y116.538 E.01678
G1 X124.403 Y87.291 E1.29985
G1 X123.868 Y87.291 E.01681
G1 X153.115 Y116.538 E1.29985
G1 X152.581 Y116.538 E.01678
G1 X123.334 Y87.291 E1.29985
G1 X122.799 Y87.291 E.01681
G1 X152.046 Y116.538 E1.29985
G1 X151.512 Y116.538 E.01678
G1 X122.265 Y87.291 E1.29985
G1 X121.73 Y87.291 E.01681
M73 C54
G1 X150.977 Y116.538 E1.29985
G1 X150.443 Y116.538 E.01678
G1 X121.196 Y87.291 E1.29985
G1 X120.661 Y87.291 E.01681
M73 P10 R58
M73 Q10 S59
G1 X149.908 Y116.538 E1.29985
G1 X149.374 Y116.538 E.01678
G1 X120.127 Y87.291 E1.29985
G1 X119.592 Y87.291 E.01681
G1 X148.839 Y116.538 E1.29985
G1 X148.305 Y116.538 E.01678
G1 X119.058 Y87.291 E1.29985
G1 X118.523 Y87.291 E.01681
G1 X147.77 Y116.538 E1.29985
G1 X147.236 Y116.538 E.01678
G1 X117.989 Y87.291 E1.29985
G1 X117.454 Y87.291 E.01681
G1 X146.701 Y116.538 E1.29985
G1 X146.167 Y116.538 E.01678
M73 D54
G1 X116.92 Y87.291 E1.29985
G1 X116.385 Y87.291 E.01681
G1 X145.632 Y116.538 E1.29985
G1 X145.098 Y116.538 E.01678
G1 X115.851 Y87.291 E1.29985
G1 X115.316 Y87.291 E.01681
M73 Q10 S58
G1 X144.563 Y116.538 E1.29985
G1 X144.029 Y116.538 E.01678
G1 X114.782 Y87.291 E1.29985
G1 X114.247 Y87.291 E.01681
G1 X143.494 Y116.538 E1.29985
G1 X142.96 Y116.538 E.01678
G1 X113.713 Y87.291 E1.29985
G1 X113.178 Y87.291 E.01681
G1 X142.425 Y116.538 E1.29985
G1 X141.891 Y116.538 E.01678
G1 X112.644 Y87.291 E1.29985
G1 X112.109 Y87.291 E.01681
G1 X141.356 Y116.538 E1.29985
G1 X140.822 Y116.538 E.01678
G1 X111.575 Y87.291 E1.29985
G1 X111.04 Y87.291 E.01681
M73 P11 R58
G1 X140.287 Y116.538 E1.29985
G1 X139.753 Y116.538 E.01678
M73 Q11 S58
G1 X110.506 Y87.291 E1.29985
G1 X109.971 Y87.291 E.01681
G1 X139.218 Y116.538 E1.29985
G1 X138.684 Y116.538 E.01678
G1 X109.437 Y87.291 E1.29985
G1 X108.902 Y87.291 E.01681
G1 X138.149 Y116.538 E1.29985
G1 X137.615 Y116.538 E.01678
G1 X108.368 Y87.291 E1.29985
G1 X107.833 Y87.291 E.01681
G1 X137.08 Y116.538 E1.29985
G1 X136.546 Y116.538 E.01678
G1 X107.299 Y87.291 E1.29985
G1 X106.764 Y87.291 E.01681
M73 C53
G1 X136.011 Y116.538 E1.29985
G1 X135.477 Y116.538 E.01678
G1 X106.23 Y87.291 E1.29985
G1 X105.695 Y87.291 E.01681
G1 X134.942 Y116.538 E1.29985
G1 X134.408 Y116.538 E.01678
M73 P11 R57
G1 X105.161 Y87.291 E1.29985
G1 X104.626 Y87.291 E.01681
G1 X133.873 Y116.538 E1.29985
G1 X133.339 Y116.538 E.01678
G1 X104.092 Y87.291 E1.29985
G1 X103.557 Y87.291 E.01681
G1 X132.804 Y116.538 E1.29985
G1 X132.27 Y116.538 E.01678
G1 X103.023 Y87.291 E1.29985
G1 X102.488 Y87.291 E.01681
G1 X131.735 Y116.538 E1.29985
G1 X131.201 Y116.538 E.01678
G1 X101.954 Y87.291 E1.29985
G1 X101.419 Y87.291 E.01681
M73 D53
