; generated by PrusaSlicer 2.6.0+linux-x64-GTK3 on 2023-09-01 at 19:28:30 UTC


;
;
; 

; external perimeters extrusion width = 0.45mm
; perimeters extrusion width = 0.45mm
; infill extrusion width = 0.45mm
; solid infill extrusion width = 0.45mm
; top infill extrusion width = 0.40mm
; support material extrusion width = 0.35mm
; first layer extrusion width = 0.42mm

M73 P0 R66
M73 C29
M73 Q0 S66
M73 D29
M201 X1000 Y1000 Z200 E5000 ; sets maximum accelerations, mm/sec^2
M203 X200 Y200 Z12 E120 ; sets maximum feedrates, mm / sec
M204 S1250 T1250 ; sets acceleration (S) and retract acceleration (R), mm/sec^2
M205 X8.00 Y8.00 Z0.40 E4.50 ; sets the jerk limits, mm/sec
M205 S0 T0 ; sets the minimum extruding and travel feed rate, mm/sec
;TYPE:Custom
M862.3 P "MK3S" ; printer model check
M862.1 P0.4 ; nozzle diameter check
M115 U3.13.0 ; tell printer latest fw version
G90 ; use absolute coordinates
M83 ; extruder relative mode
M104 S215 ; set extruder temp
M140 S60 ; set bed temp
M190 S60 ; wait for bed temp
M109 S215 ; wait for extruder temp
G28 W ; home all without mesh bed level
G80 ; mesh bed leveling

G1 Z0.2 F720
G1 Y-3 F1000 ; go outside print area
G92 E0
G1 X60 E9 F1000 ; intro line
G1 X100 E12.5 F1000 ; intro line

G92 E0
M221 S95

; Don't change E values below. Excessive value can damage the printer.
M907 E430 ; set extruder motor current
G21 ; set units to millimeters
G90 ; use absolute coordinates
M83 ; use relative distances for extrusion
M900 K0.05 ; Filament gcode LA 1.5
M900 K30 ; Filament gcode LA 1.0
M107
;LAYER_CHANGE
;Z:0.2
;HEIGHT:0.2
;BEFORE_LAYER_CHANGE
G92 E0.0
;0.2


M73 P0 R65
G1 E-.8 F2100
G1 Z.4 F720
;AFTER_LAYER_CHANGE
;0.2
G1 X102.23 Y85.811 F10800
G1 Z.2 F720
G1 E.8 F2100
M204 S800
;TYPE:Skirt/Brim
;WIDTH:0.42
G1 F1200
G1 X104.254 Y83.639 E.09309
G1 X106.385 Y81.759 E.0891
G1 X108.791 Y80.021 E.09306
G1 X111.359 Y78.531 E.09309
G1 X114.062 Y77.305 E.09306
G1 X116.874 Y76.353 E.09308
G1 X119.767 Y75.686 E.09309
G1 X122.711 Y75.311 E.09305
G1 X125.679 Y75.231 E.09309
G1 X128.639 Y75.446 E.09305
G1 X131.564 Y75.955 E.09309
G1 X134.423 Y76.753 E.09307
G1 X137.189 Y77.832 E.09309
G1 X139.833 Y79.181 E.09307
G1 X142.331 Y80.786 E.0931
G1 X144.655 Y82.632 E.09306
G1 X146.744 Y84.657 E.09122
G1 X148.698 Y86.97 E.09494
G1 X150.344 Y89.369 E.09122
G1 X151.774 Y91.97 E.09307
G1 X152.644 Y93.95 E.06781
G1 X153.473 Y96.284 E.07766
G1 X154.199 Y99.162 E.09306
G1 X154.635 Y102.098 E.09307
G1 X154.776 Y105.123 E.09495
G1 X154.623 Y108.028 E.09121
G1 X154.174 Y110.963 E.0931
G1 X153.435 Y113.838 E.09307
G1 X152.414 Y116.625 E.09306
G1 X151.12 Y119.297 E.09309
G1 X149.567 Y121.827 E.09308
G1 X147.77 Y124.189 E.09306
G1 X145.746 Y126.361 E.09309
G1 X143.615 Y128.241 E.0891
G1 X141.209 Y129.979 E.09306
G1 X138.641 Y131.469 E.09309
G1 X135.938 Y132.695 E.09306
G1 X133.126 Y133.647 E.09308
G1 X130.233 Y134.314 E.09309
G1 X127.289 Y134.689 E.09305
G1 X124.321 Y134.769 E.09309
G1 X121.36 Y134.554 E.09308
G1 X118.436 Y134.045 E.09306
G1 X115.577 Y133.247 E.09307
G1 X112.811 Y132.168 E.09309
G1 X110.167 Y130.819 E.09307
G1 X107.669 Y129.214 E.0931
G1 X105.345 Y127.368 E.09306
G1 X103.256 Y125.343 E.09122
G1 X101.339 Y123.077 E.09306
G1 X100.328 Y121.672 E.05427
G1 X98.819 Y119.185 E.09121
G1 X97.514 Y116.453 E.09493
G1 X96.527 Y113.716 E.09123
G1 X95.801 Y110.838 E.09306
G1 X95.365 Y107.902 E.09307
M73 Q0 S65
G1 X95.224 Y104.877 E.09495
G1 X95.377 Y101.972 E.09121
G1 X95.826 Y99.037 E.0931
G1 X96.565 Y96.162 E.09307
G1 X97.586 Y93.375 E.09306
G1 X98.88 Y90.703 E.09309
G1 X100.433 Y88.173 E.09308
G1 X102.194 Y85.859 E.09117
M204 S1000
;WIPE_START
G1 F8640
G1 X104.254 Y83.639 E-.6993
G1 X104.581 Y83.35 E-.1007
;WIPE_END
G1 Z.6 F720
G1 X104.194 Y87.615 F10800
G1 Z.2 F720
G1 E.8 F2100
M204 S800
G1 F1200
G1 X105.078 Y86.608 E.04201
G1 X106.02 Y85.638 E.0424
G1 X107.009 Y84.716 E.04239
G1 X108.042 Y83.844 E.04239
G1 X109.118 Y83.025 E.0424
G1 X110.233 Y82.261 E.04238
G1 X111.385 Y81.553 E.0424
G1 X112.57 Y80.904 E.04236
G1 X113.787 Y80.314 E.04241
G1 X115.031 Y79.786 E.04237
G1 X116.3 Y79.32 E.04239
G1 X117.591 Y78.919 E.04239
G1 X119.035 Y78.551 E.04672
G1 X120.358 Y78.287 E.0423
G1 X121.673 Y78.092 E.04168
G1 X123.001 Y77.96 E.04184
G1 X124.328 Y77.895 E.04166
G1 X125.663 Y77.895 E.04186
G1 X127.01 Y77.961 E.04228
G1 X128.355 Y78.095 E.04238
G1 X129.692 Y78.296 E.04239
G1 X131.017 Y78.563 E.04238
G1 X132.327 Y78.895 E.04237
G1 X133.619 Y79.293 E.04239
G1 X134.89 Y79.755 E.0424
G1 X136.127 Y80.275 E.04207
G1 X137.345 Y80.86 E.04237
G1 X138.533 Y81.506 E.0424
G1 X139.687 Y82.209 E.04237
G1 X140.805 Y82.97 E.0424
G1 X141.878 Y83.781 E.04217
G1 X142.913 Y84.646 E.04229
G1 X143.905 Y85.565 E.0424
G1 X144.85 Y86.531 E.04237
G1 X145.746 Y87.543 E.04238
G1 X146.584 Y88.591 E.04207
G1 X147.375 Y89.687 E.04238
G1 X148.111 Y90.822 E.04241
G1 X148.789 Y91.991 E.04237
G1 X149.407 Y93.193 E.04238
G1 X149.963 Y94.417 E.04215
G1 X150.462 Y95.681 E.04261
G1 X150.892 Y96.953 E.0421
G1 X151.261 Y98.254 E.0424
G1 X151.564 Y99.571 E.04237
G1 X151.802 Y100.902 E.04239
G1 X151.972 Y102.233 E.04207
G1 X152.076 Y103.581 E.04239
G1 X152.113 Y104.932 E.04238
G1 X152.083 Y106.284 E.0424
G1 X151.985 Y107.635 E.04247
G1 X151.821 Y108.974 E.0423
G1 X151.589 Y110.306 E.04239
G1 X151.292 Y111.625 E.04239
G1 X150.929 Y112.927 E.04238
G1 X150.501 Y114.209 E.04238
G1 X150.011 Y115.469 E.04239
G1 X149.458 Y116.703 E.0424
G1 X148.843 Y117.91 E.04247
G1 X148.171 Y119.08 E.0423
G1 X147.44 Y120.217 E.04238
G1 X146.654 Y121.317 E.04239
G1 X145.814 Y122.376 E.04238
G1 X144.922 Y123.392 E.04239
G1 X143.98 Y124.362 E.0424
G1 X142.991 Y125.284 E.04239
G1 X141.958 Y126.156 E.04239
G1 X140.882 Y126.975 E.0424
G1 X139.767 Y127.739 E.04238
G1 X138.615 Y128.447 E.0424
G1 X137.43 Y129.096 E.04236
G1 X136.213 Y129.686 E.04241
G1 X134.969 Y130.214 E.04237
G1 X133.7 Y130.68 E.04239
G1 X132.411 Y131.081 E.04233
G1 X130.967 Y131.449 E.04672
G1 X129.642 Y131.713 E.04236
G1 X128.328 Y131.908 E.04165
G1 X127 Y132.04 E.04184
G1 X125.681 Y132.105 E.04141
G1 X124.347 Y132.106 E.04183
G1 X123 Y132.04 E.04228
G1 X121.655 Y131.906 E.04238
G1 X120.318 Y131.706 E.04239
G1 X118.992 Y131.439 E.04241
G1 X117.682 Y131.107 E.04237
G1 X116.39 Y130.71 E.04238
G1 X115.128 Y130.252 E.04209
G1 X113.88 Y129.728 E.04244
G1 X112.663 Y129.144 E.04232
G1 X111.473 Y128.498 E.04245
G1 X110.321 Y127.796 E.0423
G1 X109.203 Y127.036 E.04239
G1 X108.124 Y126.221 E.0424
G1 X107.087 Y125.354 E.04238
G1 X106.102 Y124.442 E.04209
G1 X105.156 Y123.476 E.04239
G1 X104.266 Y122.472 E.04207
G1 X103.422 Y121.417 E.04236
G1 X102.63 Y120.321 E.0424
G1 X101.894 Y119.187 E.04239
G1 X101.216 Y118.018 E.04237
G1 X100.597 Y116.816 E.04239
G1 X100.037 Y115.582 E.04249
G1 X99.542 Y114.327 E.0423
G1 X99.108 Y113.047 E.04238
G1 X98.739 Y111.747 E.04237
G1 X98.436 Y110.429 E.0424
G1 X98.198 Y109.099 E.04236
G1 X98.027 Y107.757 E.04242
G1 X97.923 Y106.41 E.04236
M73 C28
G1 X97.887 Y105.058 E.04241
G1 X97.917 Y103.716 E.04209
G1 X98.015 Y102.368 E.04238
G1 X98.179 Y101.026 E.04239
G1 X98.411 Y99.694 E.04239
G1 X98.708 Y98.375 E.04239
G1 X99.071 Y97.073 E.04238
G1 X99.499 Y95.791 E.04238
G1 X99.989 Y94.531 E.04239
G1 X100.542 Y93.297 E.0424
G1 X101.156 Y92.093 E.04238
G1 X101.829 Y90.92 E.0424
G1 X102.56 Y89.783 E.04238
G1 X103.346 Y88.683 E.04239
G1 X104.156 Y87.662 E.04086
M204 S1000
G1 X104.452 Y87.896 F10800
M204 S800
G1 F1200
G1 X105.359 Y86.86 E.04317
G1 X106.287 Y85.904 E.04177
G1 X107.262 Y84.995 E.0418
G1 X108.281 Y84.136 E.04179
G1 X109.342 Y83.328 E.04182
G1 X110.442 Y82.575 E.0418
G1 X111.578 Y81.877 E.0418
G1 X112.747 Y81.237 E.04179
G1 X113.947 Y80.655 E.04182
G1 X115.174 Y80.135 E.04178
G1 X116.426 Y79.676 E.04181
G1 X117.698 Y79.28 E.04177
G1 X119.113 Y78.92 E.04578
G1 X120.418 Y78.659 E.04173
G1 X121.715 Y78.466 E.04111
G1 X123.024 Y78.337 E.04124
G1 X124.342 Y78.272 E.04138
G1 X125.658 Y78.272 E.04126
G1 X126.986 Y78.338 E.04169
G1 X128.313 Y78.47 E.04181
G1 X129.631 Y78.668 E.04179
G1 X130.938 Y78.931 E.0418
G1 X132.23 Y79.26 E.0418
G1 X133.504 Y79.652 E.04179
G1 X134.757 Y80.107 E.0418
G1 X135.977 Y80.621 E.04151
G1 X137.178 Y81.198 E.04178
G1 X138.349 Y81.835 E.0418
G1 X139.479 Y82.524 E.0415
G1 X140.581 Y83.273 E.04178
G1 X141.64 Y84.073 E.04161
G1 X142.66 Y84.926 E.04169
G1 X143.639 Y85.832 E.04182
G1 X144.571 Y86.784 E.04177
G1 X145.455 Y87.783 E.04183
G1 X146.281 Y88.816 E.04147
G1 X147.062 Y89.897 E.04181
G1 X147.787 Y91.015 E.04178
G1 X148.456 Y92.168 E.0418
G1 X149.066 Y93.353 E.04179
G1 X149.614 Y94.56 E.04156
G1 X150.106 Y95.806 E.042
G1 X150.533 Y97.069 E.0418
G1 X150.897 Y98.352 E.04182
G1 X151.196 Y99.651 E.04179
G1 X151.43 Y100.963 E.04179
G1 X151.597 Y102.276 E.0415
G1 X151.7 Y103.605 E.04179
G1 X151.736 Y104.938 E.04181
G1 X151.706 Y106.27 E.04177
G1 X151.609 Y107.603 E.04191
G1 X151.447 Y108.923 E.0417
G1 X151.218 Y110.237 E.04182
G1 X150.925 Y111.537 E.04178
G1 X150.567 Y112.821 E.04179
G1 X150.145 Y114.086 E.04181
G1 X149.661 Y115.328 E.04179
G1 X149.116 Y116.544 E.04178
G1 X148.509 Y117.734 E.04189
G1 X147.846 Y118.888 E.04173
G1 X147.126 Y120.01 E.0418
G1 X146.35 Y121.094 E.0418
G1 X145.521 Y122.138 E.0418
G1 X144.641 Y123.14 E.04181
G1 X143.713 Y124.096 E.04177
G1 X142.738 Y125.005 E.0418
G1 X141.718 Y125.864 E.04181
G1 X140.658 Y126.672 E.04179
G1 X139.558 Y127.425 E.0418
G1 X138.422 Y128.123 E.0418
G1 X137.253 Y128.763 E.04179
G1 X136.053 Y129.345 E.04182
G1 X134.826 Y129.865 E.04178
G1 X133.574 Y130.324 E.04181
G1 X132.303 Y130.72 E.04174
M73 D28
G1 X130.888 Y131.08 E.04578
G1 X129.582 Y131.341 E.04176
G1 X128.286 Y131.534 E.04108
G1 X126.976 Y131.663 E.04127
G1 X125.667 Y131.728 E.04109
G1 X124.352 Y131.728 E.04123
G1 X123.023 Y131.663 E.04172
G1 X121.697 Y131.531 E.04178
G1 X120.378 Y131.334 E.04182
G1 X119.072 Y131.071 E.04177
G1 X117.779 Y130.743 E.04183
G1 X116.505 Y130.351 E.04179
G1 X115.261 Y129.9 E.04149
G1 X114.03 Y129.382 E.04188
G1 X112.831 Y128.806 E.04171
G1 X111.657 Y128.169 E.04188
G1 X110.521 Y127.476 E.04172
G1 X109.419 Y126.727 E.04178
G1 X108.355 Y125.923 E.04181
G1 X107.333 Y125.067 E.0418
G1 X106.361 Y124.168 E.04151
G1 X105.429 Y123.216 E.04177
G1 X104.552 Y122.225 E.04149
G1 X103.719 Y121.185 E.04178
G1 X102.939 Y120.104 E.0418
G1 X102.213 Y118.985 E.04182
G1 X101.545 Y117.833 E.04175
G1 X100.934 Y116.647 E.04183
G1 X100.382 Y115.431 E.04187
G1 X99.894 Y114.193 E.04172
G1 X99.467 Y112.931 E.04177
G1 X99.103 Y111.648 E.04182
G1 X98.804 Y110.349 E.04179
G1 X98.57 Y109.037 E.04179
G1 X98.402 Y107.715 E.04178
G1 X98.3 Y106.385 E.04182
G1 X98.264 Y105.053 E.04178
G1 X98.294 Y103.729 E.04152
G1 X98.39 Y102.4 E.04178
G1 X98.553 Y101.077 E.0418
G1 X98.782 Y99.763 E.04182
G1 X99.075 Y98.463 E.04178
G1 X99.433 Y97.179 E.04179
G1 X99.855 Y95.914 E.04181
G1 X100.339 Y94.672 E.04179
G1 X100.884 Y93.456 E.04178
G1 X101.49 Y92.268 E.04182
G1 X102.154 Y91.112 E.0418
G1 X102.874 Y89.99 E.0418
G1 X103.65 Y88.906 E.0418
G1 X104.415 Y87.943 E.03856
M204 S1000
G1 X104.71 Y88.177 F10800
M204 S800
G1 F1200
G1 X105.639 Y87.113 E.04429
G1 X106.554 Y86.17 E.0412
G1 X107.516 Y85.274 E.04122
G1 X108.521 Y84.427 E.04121
G1 X109.567 Y83.631 E.04121
G1 X110.651 Y82.888 E.04121
G1 X111.771 Y82.201 E.0412
G1 X112.924 Y81.57 E.04121
G1 X114.107 Y80.997 E.04121
G1 X115.317 Y80.484 E.04121
G1 X116.551 Y80.032 E.04121
G1 X117.806 Y79.642 E.04121
G1 X119.191 Y79.289 E.04481
G1 X120.478 Y79.032 E.04115
G1 X121.765 Y78.84 E.0408
G1 X123.056 Y78.713 E.04067
G1 X124.356 Y78.649 E.04081
G1 X125.653 Y78.649 E.04067
G1 X126.963 Y78.714 E.04112
G1 X128.271 Y78.844 E.04121
G1 X129.57 Y79.04 E.04119
G1 X130.859 Y79.3 E.04123
G1 X132.123 Y79.621 E.04089
G1 X133.379 Y80.008 E.04121
G1 X134.615 Y80.457 E.04123
G1 X135.826 Y80.967 E.0412
G1 X137.01 Y81.536 E.04119
G1 X138.165 Y82.164 E.04122
G1 X139.279 Y82.843 E.04091
G1 X140.365 Y83.582 E.04119
G1 X141.409 Y84.371 E.04103
G1 X142.415 Y85.213 E.04113
G1 X143.379 Y86.105 E.04118
G1 X144.298 Y87.045 E.04122
G1 X145.169 Y88.029 E.0412
G1 X145.984 Y89.048 E.04091
G1 X146.753 Y90.113 E.04119
G1 X147.468 Y91.216 E.04121
G1 X148.127 Y92.353 E.0412
G1 X148.728 Y93.521 E.04119
G1 X149.268 Y94.711 E.04097
G1 X149.753 Y95.94 E.04143
G1 X150.174 Y97.186 E.04124
G1 X150.532 Y98.45 E.04119
G1 X150.827 Y99.731 E.04122
G1 X151.058 Y101.025 E.04121
G1 X151.223 Y102.319 E.0409
G1 X151.324 Y103.629 E.0412
G1 X151.359 Y104.943 E.04121
G1 X151.329 Y106.257 E.04121
G1 X151.234 Y107.571 E.04131
G1 X151.073 Y108.873 E.04113
G1 X150.848 Y110.167 E.04118
G1 X150.558 Y111.449 E.04121
G1 X150.205 Y112.715 E.04121
G1 X149.789 Y113.962 E.04122
G1 X149.311 Y115.186 E.0412
G1 X148.773 Y116.386 E.04123
G1 X148.175 Y117.559 E.04128
G1 X147.522 Y118.696 E.04111
G1 X146.811 Y119.802 E.04123
G1 X146.046 Y120.87 E.04119
G1 X145.229 Y121.9 E.04122
G1 X144.361 Y122.887 E.04121
G1 X143.446 Y123.83 E.0412
G1 X142.484 Y124.726 E.04122
G1 X141.479 Y125.573 E.04121
G1 X140.433 Y126.369 E.04121
G1 X139.349 Y127.112 E.04121
G1 X138.229 Y127.799 E.0412
G1 X137.076 Y128.43 E.04121
G1 X135.893 Y129.003 E.04121
G1 X134.683 Y129.516 E.04121
G1 X133.449 Y129.968 E.04121
G1 X132.195 Y130.358 E.04118
G1 X130.81 Y130.711 E.04481
G1 X129.522 Y130.968 E.04118
G1 X128.244 Y131.159 E.04052
G1 X126.953 Y131.287 E.04068
G1 X125.653 Y131.351 E.04081
G1 X124.356 Y131.351 E.04067
G1 X123.046 Y131.287 E.04112
G1 X121.748 Y131.158 E.0409
G1 X120.448 Y130.963 E.04122
G1 X119.16 Y130.704 E.04119
G1 X117.886 Y130.381 E.04121
M73 Q1 S65
G1 X116.63 Y129.995 E.0412
G1 X115.394 Y129.547 E.04122
G1 X114.181 Y129.036 E.04127
M73 P1 R65
G1 X113.007 Y128.473 E.04082
G1 X111.849 Y127.844 E.04132
G1 X110.729 Y127.162 E.04112
G1 X109.642 Y126.423 E.04121
G1 X108.594 Y125.631 E.04119
G1 X107.586 Y124.788 E.0412
G1 X106.621 Y123.895 E.04122
G1 X105.702 Y122.955 E.04122
G1 X104.837 Y121.979 E.04089
G1 X104.016 Y120.953 E.0412
G1 X103.247 Y119.887 E.04121
G1 X102.532 Y118.784 E.04121
G1 X101.873 Y117.648 E.04118
G1 X101.272 Y116.479 E.04121
G1 X100.728 Y115.28 E.04128
G1 X100.246 Y114.059 E.04116
G1 X99.826 Y112.815 E.04117
G1 X99.468 Y111.55 E.04122
G1 X99.173 Y110.269 E.04122
G1 X98.942 Y108.976 E.04118
G1 X98.777 Y107.672 E.04121
G1 X98.676 Y106.361 E.04123
G1 X98.641 Y105.047 E.04121
G1 X98.671 Y103.743 E.0409
G1 X98.766 Y102.432 E.04121
G1 X98.927 Y101.128 E.0412
G1 X99.152 Y99.833 E.04121
G1 X99.442 Y98.551 E.04121
G1 X99.795 Y97.285 E.04121
G1 X100.211 Y96.038 E.04122
G1 X100.689 Y94.814 E.0412
G1 X101.227 Y93.614 E.04123
G1 X101.824 Y92.444 E.04118
G1 X102.478 Y91.304 E.04121
G1 X103.189 Y90.198 E.04123
G1 X103.954 Y89.13 E.04119
G1 X104.673 Y88.224 E.03627
M204 S1000
G1 X104.968 Y88.459 F10800
M204 S800
G1 F1200
G1 X105.919 Y87.365 E.04545
G1 X106.822 Y86.436 E.04062
G1 X107.769 Y85.553 E.0406
G1 X108.76 Y84.718 E.04063
G1 X109.791 Y83.934 E.04061
G1 X110.86 Y83.202 E.04062
G1 X111.964 Y82.525 E.04061
G1 X113.101 Y81.903 E.04064
G1 X114.267 Y81.338 E.04063
G1 X115.46 Y80.833 E.04062
G1 X116.676 Y80.387 E.04061
G1 X117.913 Y80.003 E.04061
G1 X119.27 Y79.658 E.0439
G1 X120.538 Y79.404 E.04055
G1 X121.807 Y79.215 E.04023
G1 X123.08 Y79.089 E.04011
G1 X124.361 Y79.026 E.04021
G1 X125.639 Y79.026 E.04007
G1 X126.93 Y79.09 E.04053
G1 X128.219 Y79.218 E.04061
G1 X129.501 Y79.411 E.04065
G1 X130.77 Y79.667 E.04059
G1 X132.017 Y79.983 E.04033
G1 X133.255 Y80.364 E.04061
G1 X134.473 Y80.806 E.04063
G1 X135.667 Y81.308 E.04061
G1 X136.834 Y81.869 E.0406
G1 X137.972 Y82.488 E.04062
G1 X139.07 Y83.158 E.04033
G1 X140.142 Y83.886 E.04063
G1 X141.177 Y84.669 E.04069
G1 X142.169 Y85.499 E.04055
G1 X143.12 Y86.379 E.04063
G1 X144.025 Y87.305 E.0406
G1 X144.884 Y88.275 E.04063
G1 X145.687 Y89.28 E.04033
G1 X146.444 Y90.33 E.04059
G1 X147.149 Y91.417 E.04062
G1 X147.798 Y92.538 E.04061
G1 X148.391 Y93.689 E.0406
G1 X148.923 Y94.863 E.04041
G1 X149.401 Y96.074 E.04082
G1 X149.815 Y97.302 E.04063
G1 X150.168 Y98.548 E.04061
G1 X150.459 Y99.811 E.04064
G1 X150.686 Y101.086 E.04061
G1 X150.848 Y102.362 E.04033
G1 X150.947 Y103.654 E.04063
G1 X150.982 Y104.949 E.04062
G1 X150.952 Y106.244 E.04061
G1 X150.858 Y107.538 E.04068
