; generated by PrusaSlicer 2.6.1+linux-x64-GTK3 on 2023-09-17 at 23:59:46 UTC


;
;
; 

; external perimeters extrusion width = 0.45mm
; perimeters extrusion width = 0.45mm
; infill extrusion width = 0.45mm
; solid infill extrusion width = 0.45mm
; top infill extrusion width = 0.40mm
; support material extrusion width = 0.35mm
; first layer extrusion width = 0.42mm

M73 P0 R73
M73 Q0 S74
M201 X1000 Y1000 Z200 E5000 ; sets maximum accelerations, mm/sec^2
M203 X200 Y200 Z12 E120 ; sets maximum feedrates, mm / sec
M204 S1250 T1250 ; sets acceleration (S) and retract acceleration (R), mm/sec^2
M205 X8.00 Y8.00 Z0.40 E4.50 ; sets the jerk limits, mm/sec
M205 S0 T0 ; sets the minimum extruding and travel feed rate, mm/sec
;TYPE:Custom
M862.3 P "MK3S" ; printer model check
M862.1 P0.4 ; nozzle diameter check
M115 U3.13.0 ; tell printer latest fw version
G90 ; use absolute coordinates
M83 ; extruder relative mode
M104 S215 ; set extruder temp
M140 S60 ; set bed temp
M190 S60 ; wait for bed temp
M109 S215 ; wait for extruder temp
G28 W ; home all without mesh bed level
G80 ; mesh bed leveling

G1 Z0.2 F720
G1 Y-3 F1000 ; go outside print area
G92 E0
G1 X60 E9 F1000 ; intro line
G1 X100 E12.5 F1000 ; intro line

G92 E0
M221 S95

; Don't change E values below. Excessive value can damage the printer.

G21 ; set units to millimeters
G90 ; use absolute coordinates
M83 ; use relative distances for extrusion
M900 K0.05 ; Filament gcode LA 1.5
M900 K30 ; Filament gcode LA 1.0
M107
;LAYER_CHANGE
;Z:0.2
;HEIGHT:0.2
;BEFORE_LAYER_CHANGE
G92 E0.0
;0.2


G1 E-.8 F2100
G1 Z.4 F720
;AFTER_LAYER_CHANGE
;0.2
G1 X38.827 Y38.364 F10800
G1 Z.2 F720
G1 E.8 F2100
M204 S800
;TYPE:Skirt/Brim
;WIDTH:0.42
G1 F1200
G1 X41.814 Y35.377 E.13245
G1 X43.495 Y34.681 E.05705
G1 X147.32 Y34.681 E3.25536
G1 X149.001 Y35.377 E.05705
G1 X151.989 Y38.364 E.13247
G1 X152.685 Y40.045 E.05705
G1 X152.685 Y68.87 E.90379
G1 X151.989 Y70.551 E.05705
G1 X149.001 Y73.539 E.13249
G1 X147.32 Y74.235 E.05705
G1 X43.495 Y74.235 E3.25536
G1 X41.814 Y73.539 E.05705
G1 X38.827 Y70.551 E.13247
G1 X38.131 Y68.87 E.05705
G1 X38.131 Y40.045 E.90379
G1 X38.804 Y38.42 E.05515
M204 S1000
;WIPE_START
M73 Q0 S73
G1 F8640
G1 X41.24 Y35.957 E-.8
;WIPE_END
G1 Z.6 F720
G1 X41.354 Y39.979 F10800
G1 Z.2 F720
G1 E.8 F2100
M204 S800
G1 F1200
G1 X41.925 Y39.045 E.03432
G1 X43.016 Y38.085 E.04557
G1 X44.346 Y37.496 E.04561
G1 X45.307 Y37.344 E.03051
G1 X145.597 Y37.348 E3.14452
G1 X146.617 Y37.542 E.03255
G1 X147.596 Y37.957 E.03334
G1 X148.72 Y38.853 E.04507
G1 X149.613 Y40.191 E.05044
G1 X150.021 Y41.736 E.0501
G1 X150.021 Y67.177 E.79768
G1 X149.668 Y68.598 E.04591
M73 P0 R72
G1 X148.89 Y69.87 E.04675
G1 X147.8 Y70.83 E.04554
G1 X146.469 Y71.419 E.04564
G1 X145.508 Y71.571 E.03051
G1 X45.189 Y71.571 E3.14543
G1 X43.768 Y71.218 E.04591
G1 X42.495 Y70.44 E.04678
G1 X41.535 Y69.35 E.04554
G1 X40.946 Y68.019 E.04564
G1 X40.794 Y67.058 E.03051
G1 X40.794 Y41.739 E.79386
G1 X41.147 Y40.318 E.04591
G1 X41.323 Y40.03 E.01058
M204 S1000
G1 X41.638 Y40.225 F10800
M204 S800
G1 F1200
G1 X42.23 Y39.269 E.03526
G1 X43.241 Y38.389 E.04203
G1 X44.474 Y37.852 E.04217
G1 X45.322 Y37.721 E.0269
G1 X145.579 Y37.725 E3.14349
G1 X146.525 Y37.908 E.03021
G1 X147.423 Y38.293 E.03063
G1 X148.461 Y39.129 E.04179
G1 X149.257 Y40.319 E.04489
G1 X149.644 Y41.762 E.04684
G1 X149.644 Y67.153 E.79612
G1 X149.31 Y68.476 E.04278
G1 X148.585 Y69.647 E.04318
G1 X147.575 Y70.526 E.04198
G1 X146.342 Y71.064 E.04218
G1 X145.494 Y71.194 E.0269
G1 X45.213 Y71.194 E3.14424
G1 X43.889 Y70.86 E.04281
M73 P1 R72
M73 Q1 S73
G1 X42.719 Y70.135 E.04316
G1 X41.839 Y69.125 E.042
G1 X41.302 Y67.892 E.04217
G1 X41.171 Y67.044 E.0269
G1 X41.171 Y41.763 E.79267
G1 X41.506 Y40.439 E.04282
G1 X41.606 Y40.276 E.006
M204 S1000
G1 X41.919 Y40.473 F10800
M204 S800
G1 F1200
G1 X42.534 Y39.494 E.03625
G1 X43.464 Y38.695 E.03844
G1 X44.599 Y38.208 E.03872
G1 X45.335 Y38.098 E.02333
G1 X145.56 Y38.102 E3.14248
G1 X146.432 Y38.274 E.02787
G1 X147.248 Y38.628 E.02789
G1 X148.2 Y39.402 E.03847
G1 X148.925 Y40.501 E.04128
G1 X149.267 Y41.786 E.04169
G1 X149.267 Y67.129 E.79461
G1 X148.952 Y68.353 E.03963
G1 X148.282 Y69.421 E.03953
G1 X147.352 Y70.221 E.03846
G1 X146.217 Y70.707 E.03871
G1 X145.481 Y70.817 E.02333
G1 X45.237 Y70.817 E3.14308
G1 X44.012 Y70.502 E.03966
G1 X42.944 Y69.832 E.03953
G1 X42.145 Y68.902 E.03844
G1 X41.658 Y67.766 E.03875
G1 X41.548 Y67.031 E.0233
G1 X41.548 Y41.787 E.79151
G1 X41.863 Y40.562 E.03966
G1 X41.887 Y40.524 E.00141
M204 S1000
G1 X42.208 Y40.722 F10800
M204 S800
G1 F1200
G1 X42.804 Y39.759 E.03551
G1 X43.641 Y39.028 E.03484
G1 X44.681 Y38.577 E.03554
G1 X45.35 Y38.475 E.02122
G1 X145.541 Y38.479 E3.14142
G1 X146.336 Y38.639 E.02543
G1 X147.072 Y38.963 E.02521
G1 X147.938 Y39.675 E.03515
G1 X148.592 Y40.68 E.0376
G1 X148.89 Y41.81 E.03664
G1 X148.89 Y67.105 E.79311
G1 X148.616 Y68.18 E.03478
G1 X148.012 Y69.157 E.03601
G1 X147.174 Y69.887 E.03485
G1 X146.135 Y70.338 E.03551
G1 X145.466 Y70.44 E.02122
G1 X45.26 Y70.44 E3.14189
G1 X44.185 Y70.166 E.03478
G1 X43.209 Y69.562 E.03599
G1 X42.478 Y68.724 E.03487
G1 X42.027 Y67.685 E.03551
G1 X41.926 Y67.016 E.02121
G1 X41.926 Y41.81 E.79032
G1 X42.188 Y40.778 E.03338
M204 S1000
G1 X42.553 Y40.873 F10800
M204 S800
G1 F1200
G1 X43.107 Y39.984 E.03284
G1 X43.864 Y39.334 E.03128
G1 X44.805 Y38.934 E.03206
G1 X45.363 Y38.853 E.01768
G1 X145.522 Y38.856 E3.14042
G1 X146.203 Y38.993 E.02178
M73 Q1 S72
G1 X146.895 Y39.297 E.0237
G1 X147.675 Y39.946 E.03181
G1 X148.236 Y40.808 E.03225
G1 X148.513 Y41.835 E.03335
G1 X148.513 Y67.081 E.79157
G1 X148.259 Y68.056 E.03159
G1 X147.709 Y68.931 E.0324
G1 X146.952 Y69.581 E.03128
G1 X146.011 Y69.981 E.03206
G1 X145.453 Y70.063 E.01768
G1 X45.285 Y70.063 E3.1407
G1 X44.31 Y69.809 E.03159
M73 P2 R71
M73 Q2 S72
G1 X43.435 Y69.258 E.03242
G1 X42.784 Y68.502 E.03128
G1 X42.384 Y67.561 E.03206
G1 X42.303 Y67.003 E.01768
G1 X42.303 Y41.835 E.78912
G1 X42.538 Y40.931 E.02929
M204 S1000
G1 X42.901 Y41.028 F10800
M204 S800
G1 F1200
G1 X42.913 Y40.985 E.0014
G1 X43.374 Y40.252 E.02715
G1 X44.087 Y39.639 E.02948
G1 X44.884 Y39.303 E.02712
G1 X45.377 Y39.23 E.01563
G1 X145.503 Y39.233 E3.13938
G1 X146.106 Y39.357 E.0193
G1 X146.716 Y39.63 E.02095
G1 X147.409 Y40.215 E.02844
G1 X147.903 Y40.986 E.02871
G1 X148.136 Y41.86 E.02836
G1 X148.136 Y67.056 E.79
G1 X147.903 Y67.931 E.02839
G1 X147.441 Y68.663 E.02714
G1 X146.728 Y69.276 E.02948
G1 X145.932 Y69.612 E.02709
G1 X145.439 Y69.686 E.01563
G1 X45.31 Y69.686 E3.13947
G1 X44.435 Y69.452 E.0284
G1 X43.702 Y68.991 E.02715
G1 X43.089 Y68.278 E.02948
G1 X42.753 Y67.482 E.02709
G1 X42.68 Y66.989 E.01563
G1 X42.68 Y41.86 E.7879
G1 X42.886 Y41.086 E.02511
M204 S1000
G1 X43.249 Y41.186 F10800
M204 S800
G1 F1200
G1 X43.269 Y41.113 E.00237
G1 X43.675 Y40.481 E.02355
G1 X44.307 Y39.947 E.02594
G1 X45.004 Y39.662 E.02361
G1 X45.39 Y39.607 E.01223
G1 X145.482 Y39.61 E3.13831
G1 X146.007 Y39.722 E.01683
G1 X146.535 Y39.961 E.01817
G1 X147.142 Y40.482 E.02508
G1 X147.547 Y41.113 E.02351
G1 X147.759 Y41.886 E.02513
G1 X147.759 Y67.03 E.78837
G1 X147.547 Y67.802 E.0251
G1 X147.14 Y68.435 E.0236
G1 X146.509 Y68.968 E.0259
G1 X145.812 Y69.254 E.02362
G1 X145.426 Y69.309 E.01223
G1 X45.336 Y69.309 E3.13825
G1 X44.564 Y69.097 E.0251
G1 X43.931 Y68.69 E.0236
G1 X43.397 Y68.059 E.02592
G1 X43.112 Y67.362 E.02361
G1 X43.057 Y66.976 E.01223
G1 X43.057 Y41.886 E.78668
G1 X43.233 Y41.243 E.0209
M204 S1000
G1 X43.594 Y41.346 F10800
M204 S800
G1 F1200
G1 X43.623 Y41.244 E.00332
G1 X43.943 Y40.748 E.01851
G1 X44.481 Y40.283 E.0223
G1 X45.083 Y40.031 E.02046
G1 X45.404 Y39.984 E.01017
G1 X145.461 Y39.987 E3.13722
G1 X145.904 Y40.085 E.01423
G1 X146.351 Y40.292 E.01545
G1 X146.874 Y40.748 E.02176
G1 X147.192 Y41.244 E.01847
G1 X147.382 Y41.913 E.02181
G1 X147.382 Y67.003 E.78668
G1 X147.192 Y67.672 E.02181
G1 X146.873 Y68.168 E.01849
G1 X146.334 Y68.633 E.02232
G1 X145.733 Y68.884 E.02042
G1 X145.412 Y68.932 E.01018
G1 X45.363 Y68.932 E3.13697
G1 X44.694 Y68.742 E.02181
G1 X44.198 Y68.423 E.01849
G1 X43.733 Y67.884 E.02232
G1 X43.481 Y67.282 E.02046
G1 X43.434 Y66.962 E.01014
G1 X43.434 Y41.913 E.78539
G1 X43.578 Y41.403 E.01662
M204 S1000
G1 X43.938 Y41.509 F10800
M204 S800
G1 F1200
G1 X43.977 Y41.377 E.00432
G1 X44.212 Y41.012 E.01361
G1 X44.659 Y40.617 E.0187
G1 X45.165 Y40.4 E.01726
G1 X45.419 Y40.361 E.00806
G1 X145.439 Y40.364 E3.13606
G1 X145.798 Y40.447 E.01155
M73 P3 R71
M73 Q3 S72
G1 X146.163 Y40.62 E.01266
G1 X146.603 Y41.012 E.01848
G1 X146.839 Y41.377 E.01363
G1 X147.005 Y41.941 E.01843
G1 X147.005 Y66.975 E.78492
G1 X146.839 Y67.538 E.0184
G1 X146.603 Y67.903 E.01363
G1 X146.156 Y68.299 E.01872
G1 X145.651 Y68.516 E.01723
G1 X145.397 Y68.555 E.00806
G1 X45.391 Y68.555 E3.13562
G1 X44.827 Y68.389 E.01843
M73 Q3 S71
G1 X44.462 Y68.153 E.01363
G1 X44.067 Y67.706 E.0187
G1 X43.85 Y67.2 E.01726
G1 X43.811 Y66.947 E.00803
G1 X43.811 Y41.941 E.78405
G1 X43.921 Y41.567 E.01222
M204 S1000
G1 X44.278 Y41.677 F10800
M204 S800
G1 F1200
G1 X44.329 Y41.515 E.00533
G1 X44.485 Y41.273 E.00903
G1 X44.841 Y40.948 E.01511
G1 X45.251 Y40.768 E.01404
G1 X45.435 Y40.738 E.00585
G1 X145.417 Y40.742 E3.13487
G1 X145.655 Y40.797 E.00766
G1 X145.976 Y40.948 E.01112
G1 X146.33 Y41.273 E.01507
G1 X146.487 Y41.515 E.00904
G1 X146.628 Y41.97 E.01494
G1 X146.628 Y66.945 E.78307
G1 X146.487 Y67.401 E.01497
M73 P3 R70
G1 X146.331 Y67.642 E.009
G1 X145.974 Y67.967 E.01514
G1 X145.565 Y68.148 E.01402
G1 X145.381 Y68.177 E.00584
G1 X45.42 Y68.177 E3.13421
G1 X44.965 Y68.037 E.01493
G1 X44.723 Y67.88 E.00904
G1 X44.398 Y67.524 E.01511
G1 X44.218 Y67.115 E.01401
G1 X44.188 Y66.931 E.00585
G1 X44.188 Y41.97 E.78263
G1 X44.261 Y41.735 E.00772
M204 S1000
G1 X44.615 Y41.851 F10800
M204 S800
G1 F1200
G1 X44.678 Y41.658 E.00637
G1 X44.761 Y41.53 E.00478
G1 X45.029 Y41.277 E.01156
G1 X45.341 Y41.134 E.01076
G1 X45.452 Y41.115 E.00353
G1 X145.395 Y41.119 E3.13364
G1 X145.512 Y41.146 E.00376
G1 X145.786 Y41.276 E.00951
G1 X146.054 Y41.53 E.01158
G1 X146.137 Y41.658 E.00478
G1 X146.25 Y42.002 E.01135
G1 X146.25 Y66.914 E.7811
G1 X146.137 Y67.258 E.01135
G1 X146.054 Y67.385 E.00476
G1 X145.787 Y67.639 E.01155
G1 X145.474 Y67.781 E.01078
G1 X145.364 Y67.8 E.0035
G1 X45.452 Y67.8 E3.13267
G1 X45.108 Y67.687 E.01135
G1 X44.98 Y67.604 E.00478
G1 X44.727 Y67.337 E.01153
G1 X44.584 Y67.024 E.01079
G1 X44.565 Y66.913 E.00353
G1 X44.565 Y42.002 E.78107
G1 X44.596 Y41.908 E.0031
M204 S1000
G1 X44.944 Y42.033 F10800
M204 S800
G1 F1200
G1 X45.042 Y41.782 E.00845
G1 X45.223 Y41.602 E.008
G1 X45.473 Y41.492 E.00856
G1 X145.375 Y41.498 E3.13236
G1 X145.593 Y41.602 E.00757
G1 X145.774 Y41.782 E.008
G1 X145.873 Y42.037 E.00858
G1 X145.873 Y66.879 E.7789
G1 X145.774 Y67.133 E.00855
G1 X145.593 Y67.314 E.00803
G1 X145.343 Y67.423 E.00855
G1 X45.487 Y67.423 E3.13091
G1 X45.233 Y67.324 E.00855
M73 P4 R70
M73 Q4 S71
G1 X45.052 Y67.143 E.00803
G1 X44.942 Y66.893 E.00856
G1 X44.942 Y42.092 E.77762
M204 S1000
G1 X45.319 Y42.092 F10800
M204 S800
G1 F1200
G1 X45.348 Y42.009 E.00276
G1 X45.46 Y41.898 E.00494
G1 X45.529 Y41.869 E.00235
G1 X145.287 Y41.869 E3.12784
G1 X145.356 Y41.898 E.00235
G1 X145.468 Y42.009 E.00494
G1 X145.496 Y42.079 E.00236
G1 X145.496 Y66.837 E.77627
G1 X145.468 Y66.906 E.00233
G1 X145.356 Y67.018 E.00497
G1 X145.287 Y67.046 E.00233
G1 X45.529 Y67.046 E3.12784
G1 X45.46 Y67.018 E.00233
G1 X45.348 Y66.906 E.00497
G1 X45.319 Y66.837 E.00235
G1 X45.319 Y42.152 E.77398
M204 S1000
; printing object 5xScrewdriverWallHolder-Part.stl id:0 copy 0
;WIPE_START
G1 F8640
G1 X45.348 Y42.009 E-.03369
G1 X45.46 Y41.898 E-.03641
G1 X45.529 Y41.869 E-.01728
G1 X48.615 Y41.869 E-.71262
;WIPE_END
G1 Z.6 F720
G1 X48.457 Y45.007 F10800
G1 Z.2 F720
G1 E.8 F2100
M204 S800
;TYPE:Perimeter
;WIDTH:0.419999
G1 F1200
G1 X142.358 Y45.007 E2.94419
G1 X142.358 Y63.908 E.59263
G1 X124.137 Y63.908 E.57131
G1 X124.307 Y63.707 E.00825
M73 Q4 S70
G1 X124.823 Y62.875 E.0307
G1 X125.165 Y61.957 E.03072
G1 X125.318 Y60.989 E.03073
G1 X125.318 Y60.426 E.01765
G1 X125.231 Y59.715 E.02246
G1 X125.042 Y59.06 E.02137
G1 X124.823 Y58.541 E.01766
G1 X124.426 Y57.862 E.02466
G1 X124.038 Y57.389 E.01918
G1 X123.635 Y56.996 E.01765
G1 X123.083 Y56.573 E.0218
G1 X122.464 Y56.239 E.02205
G1 X121.94 Y56.034 E.01764
G1 X121.264 Y55.858 E.0219
G1 X120.567 Y55.792 E.02195
G1 X120.004 Y55.806 E.01766
G1 X119.31 Y55.907 E.02199
G1 X118.645 Y56.116 E.02186
G1 X118.131 Y56.347 E.01767
G1 X117.529 Y56.712 E.02207
G1 X117 Y57.161 E.02176
G1 X116.616 Y57.574 E.01768
G1 X116.154 Y58.227 E.02508
G1 X115.89 Y58.764 E.01876
G1 X115.697 Y59.293 E.01766
G1 X115.544 Y59.934 E.02066
G1 X115.49 Y60.537 E.01898
G1 X115.54 Y61.417 E.02764
G1 X115.773 Y62.356 E.03033
G1 X116.192 Y63.241 E.0307
G1 X116.678 Y63.908 E.02588
G1 X74.137 Y63.908 E1.33384
G1 X74.307 Y63.707 E.00825
G1 X74.823 Y62.875 E.0307
G1 X75.165 Y61.957 E.03072
G1 X75.318 Y60.989 E.03073
G1 X75.318 Y60.426 E.01765
G1 X75.231 Y59.715 E.02246
G1 X75.042 Y59.06 E.02137
G1 X74.823 Y58.541 E.01766
G1 X74.426 Y57.862 E.02466
G1 X74.038 Y57.389 E.01918
G1 X73.635 Y56.996 E.01765
G1 X73.083 Y56.573 E.0218
G1 X72.464 Y56.239 E.02205
G1 X71.94 Y56.034 E.01764
G1 X71.264 Y55.858 E.0219
G1 X70.567 Y55.792 E.02195
G1 X70.004 Y55.806 E.01766
G1 X69.31 Y55.907 E.02199
G1 X68.645 Y56.116 E.02186
G1 X68.131 Y56.347 E.01767
G1 X67.529 Y56.712 E.02207
G1 X67 Y57.161 E.02176
G1 X66.616 Y57.574 E.01768
G1 X66.161 Y58.216 E.02467
G1 X65.89 Y58.764 E.01917
G1 X65.697 Y59.293 E.01766
G1 X65.544 Y59.934 E.02066
G1 X65.49 Y60.537 E.01898
G1 X65.54 Y61.417 E.02764
G1 X65.773 Y62.356 E.03033
G1 X66.192 Y63.241 E.0307
G1 X66.678 Y63.908 E.02588
G1 X48.457 Y63.908 E.57131
G1 X48.457 Y45.067 E.59075
M204 S1000
G1 X48.08 Y44.63 F10800
M204 S800
G1 F1200
G1 X142.735 Y44.63 E2.96784
G1 X142.735 Y64.285 E.61627
M73 P4 R69
G1 X123.199 Y64.285 E.61254
G1 X123.4 Y64.125 E.00806
G1 X124.018 Y63.464 E.02837
G1 X124.492 Y62.694 E.02835
G1 X124.805 Y61.846 E.02834
G1 X124.943 Y60.952 E.02836
G1 X124.943 Y60.464 E.0153
G1 X124.862 Y59.792 E.02122
G1 X124.682 Y59.171 E.02027
G1 X124.492 Y58.721 E.01532
G1 X124.122 Y58.084 E.0231
G1 X123.749 Y57.631 E.0184
G1 X123.4 Y57.291 E.01528
G1 X122.878 Y56.89 E.02064
G1 X122.292 Y56.575 E.02086
G1 X121.838 Y56.397 E.01529
G1 X121.199 Y56.229 E.02072
G1 X120.539 Y56.168 E.02078
G1 X120.051 Y56.18 E.01531
G1 X119.395 Y56.274 E.02078
G1 X118.765 Y56.473 E.02072
G1 X118.32 Y56.674 E.01531
G1 X117.75 Y57.018 E.02087
G1 X117.249 Y57.444 E.02062
G1 X116.917 Y57.802 E.01531
G1 X116.483 Y58.412 E.02347
G1 X116.229 Y58.927 E.018
G1 X116.062 Y59.386 E.01531
G1 X115.916 Y59.996 E.01967
G1 X115.866 Y60.563 E.01785
G1 X115.915 Y61.377 E.02557
G1 X116.134 Y62.245 E.02807
G1 X116.523 Y63.061 E.02834
G1 X117.066 Y63.784 E.02835
G1 X117.617 Y64.285 E.02335
G1 X73.199 Y64.285 E1.39269
G1 X73.4 Y64.125 E.00806
G1 X74.018 Y63.464 E.02837
G1 X74.492 Y62.694 E.02835
G1 X74.805 Y61.846 E.02834
G1 X74.943 Y60.952 E.02836
G1 X74.943 Y60.464 E.0153
G1 X74.862 Y59.792 E.02122
G1 X74.682 Y59.171 E.02027
G1 X74.492 Y58.721 E.01532
G1 X74.122 Y58.084 E.0231
G1 X73.749 Y57.631 E.0184
G1 X73.4 Y57.291 E.01528
G1 X72.878 Y56.89 E.02064
G1 X72.292 Y56.575 E.02086
G1 X71.838 Y56.397 E.01529
G1 X71.199 Y56.229 E.02072
G1 X70.539 Y56.168 E.02078
G1 X70.051 Y56.18 E.01531
G1 X69.395 Y56.274 E.02078
G1 X68.765 Y56.473 E.02072
G1 X68.32 Y56.674 E.01531
G1 X67.75 Y57.018 E.02087
G1 X67.249 Y57.444 E.02062
G1 X66.917 Y57.802 E.01531
G1 X66.488 Y58.403 E.02315
G1 X66.256 Y58.872 E.01641
G1 X66.062 Y59.386 E.01723
G1 X65.916 Y59.996 E.01967
G1 X65.866 Y60.563 E.01785
G1 X65.915 Y61.377 E.02557
G1 X66.134 Y62.245 E.02807
G1 X66.523 Y63.061 E.02834
G1 X67.066 Y63.784 E.02835
G1 X67.617 Y64.285 E.02335
G1 X48.08 Y64.285 E.61257
G1 X48.08 Y44.69 E.61439
M204 S1000
G1 X47.703 Y44.253 F10800
M204 S800
M73 P5 R69
G1 F1200
G1 X143.112 Y44.253 E2.99148
G1 X143.112 Y64.662 E.63991
M73 Q5 S70
G1 X121.7 Y64.662 E.67136
G1 X122.262 Y64.44 E.01895
G1 X122.839 Y64.09 E.02116
G1 X123.46 Y63.542 E.02597
