; generated by PrusaSlicer 2.6.1+linux-x64-GTK3 on 2023-09-16 at 22:09:30 UTC


;
;
; 

; external perimeters extrusion width = 0.45mm
; perimeters extrusion width = 0.45mm
; infill extrusion width = 0.45mm
; solid infill extrusion width = 0.45mm
; top infill extrusion width = 0.40mm
; first layer extrusion width = 0.42mm

M73 P0 R136
M73 Q0 S136
M201 X1000 Y1000 Z200 E5000 ; sets maximum accelerations, mm/sec^2
M203 X200 Y200 Z12 E120 ; sets maximum feedrates, mm / sec
M204 S1250 T1250 ; sets acceleration (S) and retract acceleration (R), mm/sec^2
M205 X8.00 Y8.00 Z0.40 E4.50 ; sets the jerk limits, mm/sec
M205 S0 T0 ; sets the minimum extruding and travel feed rate, mm/sec
;TYPE:Custom
M862.3 P "MK3S" ; printer model check
M862.1 P0.4 ; nozzle diameter check
M115 U3.13.0 ; tell printer latest fw version
G90 ; use absolute coordinates
M83 ; extruder relative mode
M104 S215 ; set extruder temp
M140 S60 ; set bed temp
M190 S60 ; wait for bed temp
M109 S215 ; wait for extruder temp
G28 W ; home all without mesh bed level
G80 ; mesh bed leveling

G1 Z0.2 F720
G1 Y-3 F1000 ; go outside print area
G92 E0
G1 X60 E9 F1000 ; intro line
G1 X100 E12.5 F1000 ; intro line

G92 E0
M221 S95

; Don't change E values below. Excessive value can damage the printer.

G21 ; set units to millimeters
G90 ; use absolute coordinates
M83 ; use relative distances for extrusion
M900 K0.05 ; Filament gcode LA 1.5
M900 K30 ; Filament gcode LA 1.0
M107
;LAYER_CHANGE
;Z:0.2
;HEIGHT:0.2
;BEFORE_LAYER_CHANGE
G92 E0.0
;0.2


G1 E-.8 F2100
M73 P0 R135
G1 Z.4 F720
;AFTER_LAYER_CHANGE
;0.2
G1 X97.075 Y78.622 F10800
G1 Z.2 F720
G1 E.8 F2100
M204 S800
;TYPE:Skirt/Brim
;WIDTH:0.42
G1 F1200
G1 X97.752 Y77.857 E.03203
G1 X98.567 Y77.119 E.03447
G1 X100.189 Y76.055 E.06082
G1 X101.074 Y75.646 E.03057
G1 X102.097 Y75.294 E.03392
G1 X103.112 Y75.057 E.03268
G1 X104.218 Y74.913 E.03497
G1 X144.924 Y74.878 E1.27631
G1 X146.77 Y75.036 E.05809
G1 X148.475 Y75.476 E.05521
G1 X150.243 Y76.295 E.06109
G1 X151.711 Y77.352 E.05672
G1 X152.926 Y78.623 E.05513
G1 X153.945 Y80.189 E.05858
G1 X154.608 Y81.775 E.0539
G1 X155.016 Y83.566 E.05759
G1 X155.123 Y85.1 E.04821
G1 X155.111 Y125.402 E1.26364
G1 X154.933 Y126.942 E.04861
G1 X154.524 Y128.475 E.04975
G1 X153.844 Y129.998 E.0523
G1 X152.925 Y131.378 E.05199
G1 X152.248 Y132.143 E.03203
G1 X151.377 Y132.926 E.03672
G1 X150.436 Y133.589 E.03609
G1 X149.494 Y134.103 E.03365
G1 X148.411 Y134.546 E.03669
G1 X147.392 Y134.839 E.03324
G1 X146.381 Y135.023 E.03222
G1 X145.245 Y135.117 E.03574
G1 X104.598 Y135.111 E1.27446
G1 X103.058 Y134.933 E.04861
G1 X101.525 Y134.524 E.04975
G1 X100.002 Y133.844 E.0523
G1 X98.622 Y132.925 E.05199
G1 X97.857 Y132.248 E.03203
G1 X97.074 Y131.377 E.03672
G1 X96.411 Y130.436 E.03609
G1 X95.897 Y129.494 E.03365
G1 X95.454 Y128.411 E.03669
G1 X95.161 Y127.392 E.03324
G1 X94.977 Y126.381 E.03222
G1 X94.883 Y125.245 E.03574
G1 X94.889 Y84.598 E1.27446
G1 X95.067 Y83.058 E.04861
G1 X95.476 Y81.525 E.04975
G1 X96.156 Y80.002 E.0523
G1 X97.041 Y78.672 E.05009
M204 S1000
;WIPE_START
G1 F8640
G1 X97.752 Y77.857 E-.24973
G1 X98.567 Y77.119 E-.25387
G1 X99.64 Y76.415 E-.2964
;WIPE_END
G1 Z.6 F720
G1 X99.215 Y80.248 F10800
G1 Z.2 F720
G1 E.8 F2100
M204 S800
G1 F1200
G1 X99.391 Y80.005 E.00941
G1 X99.985 Y79.408 E.02641
G1 X100.587 Y78.929 E.02412
G1 X101.236 Y78.517 E.0241
G1 X101.937 Y78.172 E.0245
G1 X102.69 Y77.897 E.02514
G1 X103.492 Y77.695 E.02593
G1 X104.834 Y77.544 E.04234
G1 X145.061 Y77.545 E1.26129
G1 X146.13 Y77.631 E.03363
G1 X146.922 Y77.788 E.02532
G1 X147.682 Y78.021 E.02492
G1 X148.353 Y78.304 E.02283
G1 X149 Y78.656 E.02309
G1 X149.61 Y79.074 E.02319
G1 X150.162 Y79.542 E.02269
G1 X150.747 Y80.165 E.0268
G1 X151.253 Y80.852 E.02675
G1 X151.796 Y81.868 E.03612
G1 X152.111 Y82.715 E.02833
G1 X152.305 Y83.492 E.02511
G1 X152.439 Y84.537 E.03303
G1 X152.457 Y125.008 E1.26894
G1 X152.37 Y126.125 E.03513
G1 X152.213 Y126.915 E.02525
G1 X151.986 Y127.661 E.02445
G1 X151.733 Y128.276 E.02085
G1 X151.426 Y128.868 E.02091
G1 X150.607 Y129.997 E.04373
G1 X150.011 Y130.595 E.02647
G1 X149.408 Y131.075 E.02417
G1 X148.758 Y131.486 E.02411
G1 X148.054 Y131.832 E.0246
G1 X147.307 Y132.104 E.02493
G1 X146.541 Y132.297 E.02477
G1 X145.754 Y132.415 E.02495
G1 X144.927 Y132.459 E.02597
G1 X104.991 Y132.457 E1.25217
G1 X103.875 Y132.37 E.0351
G1 X103.085 Y132.213 E.02525
G1 X102.339 Y131.986 E.02445
G1 X101.724 Y131.733 E.02085
G1 X101.132 Y131.426 E.02091
G1 X100.003 Y130.607 E.04373
G1 X99.405 Y130.011 E.02647
G1 X98.925 Y129.408 E.02417
G1 X98.514 Y128.758 E.02411
G1 X98.168 Y128.054 E.0246
G1 X97.896 Y127.307 E.02493
G1 X97.703 Y126.541 E.02477
G1 X97.585 Y125.754 E.02495
G1 X97.541 Y124.927 E.02597
G1 X97.543 Y84.991 E1.25217
G1 X97.63 Y83.875 E.0351
G1 X97.786 Y83.085 E.02525
G1 X98.014 Y82.339 E.02446
G1 X98.267 Y81.724 E.02085
G1 X98.573 Y81.132 E.02089
G1 X99.18 Y80.296 E.03239
M204 S1000
G1 X99.484 Y80.518 F10800
M204 S800
G1 F1200
G1 X99.687 Y80.239 E.01082
G1 X100.244 Y79.683 E.02468
G1 X100.813 Y79.23 E.0228
G1 X101.429 Y78.842 E.02283
G1 X102.094 Y78.515 E.02324
G1 X102.81 Y78.254 E.02389
G1 X103.572 Y78.063 E.02463
G1 X104.845 Y77.922 E.04016
G1 X145.053 Y77.922 E1.26069
G1 X146.068 Y78.003 E.03193
G1 X146.822 Y78.152 E.0241
G1 X147.544 Y78.372 E.02367
G1 X148.198 Y78.647 E.02224
G1 X148.811 Y78.982 E.0219
G1 X149.388 Y79.379 E.02196
G1 X149.909 Y79.822 E.02144
G1 X150.45 Y80.398 E.02478
G1 X150.942 Y81.065 E.02599
G1 X151.457 Y82.034 E.03441
G1 X151.753 Y82.836 E.0268
G1 X151.936 Y83.572 E.02378
G1 X152.063 Y84.572 E.03161
G1 X152.08 Y124.987 E1.26718
G1 X151.998 Y126.063 E.03384
G1 X151.85 Y126.815 E.02403
G1 X151.634 Y127.526 E.0233
G1 X151.387 Y128.124 E.02029
G1 X151.098 Y128.681 E.01968
G1 X150.311 Y129.763 E.04195
G1 X149.752 Y130.321 E.02476
G1 X149.182 Y130.773 E.02281
G1 X148.566 Y131.161 E.02283
G1 X147.897 Y131.489 E.02336
G1 X147.188 Y131.747 E.02366
G1 X146.459 Y131.929 E.02356
G1 X145.708 Y132.041 E.02381
G1 X144.922 Y132.082 E.02468
G1 X105.012 Y132.08 E1.25135
G1 X103.937 Y131.998 E.0338
G1 X103.185 Y131.85 E.02403
G1 X102.474 Y131.634 E.0233
G1 X101.876 Y131.387 E.02029
G1 X101.319 Y131.098 E.01968
G1 X100.237 Y130.311 E.04195
G1 X99.679 Y129.752 E.02476
G1 X99.227 Y129.182 E.02281
G1 X98.839 Y128.566 E.02283
G1 X98.511 Y127.897 E.02336
G1 X98.253 Y127.188 E.02366
G1 X98.071 Y126.459 E.02356
G1 X97.959 Y125.708 E.02381
G1 X97.918 Y124.922 E.02468
G1 X97.92 Y85.012 E1.25135
G1 X98.002 Y83.937 E.0338
G1 X98.15 Y83.185 E.02403
G1 X98.366 Y82.474 E.0233
G1 X98.613 Y81.876 E.02029
G1 X98.901 Y81.319 E.01966
G1 X99.449 Y80.566 E.0292
M204 S1000
G1 X99.753 Y80.788 F10800
M204 S800
G1 F1200
G1 X99.983 Y80.474 E.0122
G1 X100.502 Y79.958 E.02295
G1 X101.039 Y79.533 E.02147
G1 X101.621 Y79.166 E.02157
G1 X102.251 Y78.858 E.02199
G1 X102.929 Y78.612 E.02261
G1 X103.65 Y78.432 E.0233
G1 X104.855 Y78.299 E.03801
G1 X145.046 Y78.299 E1.26016
G1 X146.006 Y78.375 E.03019
G1 X146.721 Y78.516 E.02285
G1 X147.407 Y78.724 E.02248
G1 X148.026 Y78.983 E.02104
G1 X148.606 Y79.299 E.02071
G1 X149.151 Y79.672 E.02071
G1 X149.657 Y80.103 E.02084
G1 X150.167 Y80.647 E.02338
G1 X150.629 Y81.276 E.02447
G1 X151.118 Y82.199 E.03275
G1 X151.395 Y82.956 E.02527
G1 X151.568 Y83.652 E.02249
G1 X151.687 Y84.608 E.03021
G1 X151.704 Y124.966 E1.2654
G1 X151.626 Y126.002 E.03257
G1 X151.486 Y126.715 E.02278
G1 X151.282 Y127.391 E.02214
G1 X151.049 Y127.958 E.01922
G1 X150.77 Y128.495 E.01897
G1 X150.016 Y129.528 E.0401
G1 X149.494 Y130.045 E.02304
G1 X148.956 Y130.471 E.02152
G1 X148.374 Y130.837 E.02156
G1 X147.741 Y131.145 E.02207
G1 X147.069 Y131.389 E.02242
G1 X146.377 Y131.561 E.02236
G1 X145.662 Y131.666 E.02266
G1 X144.918 Y131.705 E.02336
G1 X105.033 Y131.704 E1.25057
G1 X103.998 Y131.626 E.03254
G1 X103.285 Y131.486 E.02278
G1 X102.609 Y131.282 E.02214
G1 X102.042 Y131.049 E.01922
G1 X101.505 Y130.77 E.01897
G1 X100.472 Y130.016 E.0401
G1 X99.955 Y129.494 E.02304
G1 X99.529 Y128.956 E.02152
G1 X99.163 Y128.374 E.02156
G1 X98.855 Y127.741 E.02207
G1 X98.611 Y127.069 E.02242
G1 X98.439 Y126.377 E.02236
G1 X98.334 Y125.662 E.02266
G1 X98.295 Y124.918 E.02336
G1 X98.296 Y85.033 E1.25057
G1 X98.374 Y83.998 E.03254
G1 X98.514 Y83.285 E.02278
G1 X98.718 Y82.609 E.02214
G1 X98.951 Y82.042 E.01922
G1 X99.23 Y81.505 E.01897
G1 X99.717 Y80.837 E.02592
M204 S1000
G1 X100.021 Y81.059 F10800
M204 S800
G1 F1200
G1 X100.278 Y80.709 E.01361
G1 X100.759 Y80.234 E.0212
G1 X101.264 Y79.835 E.02018
G1 X101.812 Y79.491 E.02029
G1 X102.406 Y79.202 E.02071
G1 X103.048 Y78.97 E.0214
G1 X103.729 Y78.801 E.022
G1 X104.865 Y78.676 E.03583
G1 X145.039 Y78.676 E1.25963
G1 X145.944 Y78.747 E.02846
G1 X146.622 Y78.879 E.02166
G1 X147.271 Y79.076 E.02127
G1 X147.855 Y79.319 E.01983
G1 X148.417 Y79.625 E.02006
G1 X148.929 Y79.977 E.01948
G1 X149.404 Y80.382 E.01957
G1 X149.883 Y80.896 E.02203
G1 X150.317 Y81.488 E.02302
G1 X150.778 Y82.363 E.03101
G1 X151.038 Y83.075 E.02377
G1 X151.199 Y83.731 E.02118
G1 X151.312 Y84.642 E.02878
G1 X151.327 Y124.945 E1.26367
G1 X151.254 Y125.941 E.03131
G1 X151.122 Y126.616 E.02157
G1 X150.93 Y127.257 E.02098
G1 X150.71 Y127.792 E.01814
G1 X150.442 Y128.308 E.01823
G1 X149.721 Y129.293 E.03827
G1 X149.238 Y129.769 E.02126
G1 X148.731 Y130.168 E.02023
G1 X148.183 Y130.512 E.02029
G1 X147.586 Y130.802 E.02081
G1 X146.95 Y131.03 E.02118
G1 X146.295 Y131.193 E.02116
G1 X145.616 Y131.292 E.02151
G1 X144.913 Y131.328 E.02207
G1 X105.054 Y131.327 E1.24975
G1 X104.059 Y131.254 E.03128
G1 X103.384 Y131.122 E.02157
M73 Q0 S135
G1 X102.743 Y130.93 E.02098
G1 X102.208 Y130.71 E.01814
G1 X101.692 Y130.442 E.01823
G1 X100.707 Y129.721 E.03827
G1 X100.231 Y129.238 E.02126
G1 X99.832 Y128.731 E.02023
G1 X99.488 Y128.183 E.02029
G1 X99.198 Y127.586 E.02081
G1 X98.97 Y126.95 E.02118
G1 X98.807 Y126.295 E.02116
G1 X98.708 Y125.616 E.02151
G1 X98.672 Y124.913 E.02207
G1 X98.673 Y85.054 E1.24975
G1 X98.746 Y84.059 E.03128
G1 X98.878 Y83.384 E.02157
G1 X99.07 Y82.743 E.02098
G1 X99.29 Y82.208 E.01814
G1 X99.557 Y81.692 E.01822
G1 X99.986 Y81.108 E.02272
M204 S1000
G1 X100.289 Y81.33 F10800
M204 S800
G1 F1200
G1 X100.572 Y80.945 E.01498
G1 X101.015 Y80.511 E.01944
G1 X101.489 Y80.138 E.01891
G1 X102.004 Y79.816 E.01904
G1 X102.562 Y79.545 E.01945
G1 X103.166 Y79.328 E.02012
G1 X103.807 Y79.171 E.02069
G1 X104.876 Y79.053 E.03372
G1 X145.031 Y79.053 E1.25903
G1 X145.883 Y79.119 E.02679
G1 X146.522 Y79.243 E.02041
G1 X147.136 Y79.428 E.02011
G1 X147.684 Y79.656 E.01861
G1 X148.212 Y79.942 E.01883
G1 X148.707 Y80.282 E.01883
G1 X149.15 Y80.661 E.01828
G1 X149.6 Y81.145 E.02072
G1 X150.004 Y81.699 E.0215
G1 X150.438 Y82.526 E.02928
G1 X150.679 Y83.193 E.02224
G1 X150.83 Y83.809 E.01989
G1 X150.936 Y84.677 E.02742
G1 X150.951 Y124.925 E1.26195
G1 X150.881 Y125.881 E.03005
G1 X150.758 Y126.517 E.02031
G1 X150.577 Y127.123 E.01983
G1 X150.365 Y127.641 E.01755
G1 X150.115 Y128.121 E.01697
G1 X149.427 Y129.057 E.03642
G1 X148.982 Y129.492 E.01951
G1 X148.506 Y129.865 E.01896
G1 X147.992 Y130.186 E.019
G1 X147.431 Y130.458 E.01955
G1 X146.832 Y130.672 E.01994
G1 X146.214 Y130.824 E.01995
G1 X145.571 Y130.917 E.02037
G1 X144.908 Y130.951 E.02082
G1 X105.075 Y130.951 E1.24894
G1 X104.119 Y130.881 E.03005
M73 P0 R134
G1 X103.483 Y130.758 E.02031
G1 X102.877 Y130.577 E.01983
G1 X102.359 Y130.365 E.01755
G1 X101.879 Y130.115 E.01697
G1 X100.943 Y129.427 E.03642
G1 X100.508 Y128.982 E.01951
G1 X100.135 Y128.506 E.01896
G1 X99.814 Y127.992 E.019
G1 X99.542 Y127.431 E.01955
G1 X99.328 Y126.832 E.01994
G1 X99.176 Y126.214 E.01995
G1 X99.083 Y125.571 E.02037
G1 X99.049 Y124.908 E.02082
G1 X99.049 Y85.075 E1.24894
G1 X99.119 Y84.119 E.03005
G1 X99.242 Y83.483 E.02031
G1 X99.423 Y82.877 E.01983
G1 X99.635 Y82.359 E.01755
G1 X99.885 Y81.879 E.01697
G1 X100.253 Y81.379 E.01947
M204 S1000
G1 X100.556 Y81.602 F10800
M204 S800
G1 F1200
G1 X100.866 Y81.182 E.01637
G1 X101.27 Y80.789 E.01767
G1 X101.714 Y80.441 E.01769
G1 X102.194 Y80.142 E.01773
G1 X102.716 Y79.889 E.01819
G1 X103.283 Y79.687 E.01887
G1 X103.884 Y79.54 E.0194
G1 X104.886 Y79.43 E.03161
G1 X145.024 Y79.43 E1.2585
G1 X145.823 Y79.491 E.02512
G1 X146.424 Y79.607 E.01919
G1 X147 Y79.78 E.01886
G1 X147.53 Y80 E.01799
G1 X148.023 Y80.268 E.01759
G1 X148.484 Y80.587 E.01758
G1 X148.896 Y80.94 E.01701
G1 X149.315 Y81.393 E.01935
G1 X149.69 Y81.909 E.02
G1 X150.098 Y82.689 E.0276
G1 X150.321 Y83.311 E.02072
G1 X150.461 Y83.887 E.01859
G1 X150.56 Y84.711 E.02602
G1 X150.574 Y124.918 E1.26066
G1 X150.509 Y125.821 E.02839
G1 X150.394 Y126.419 E.01909
G1 X150.224 Y126.989 E.01865
G1 X150.026 Y127.475 E.01645
G1 X149.787 Y127.934 E.01623
G1 X149.133 Y128.82 E.03453
G1 X148.726 Y129.214 E.01776
G1 X148.282 Y129.562 E.01769
G1 X147.802 Y129.86 E.01771
G1 X147.277 Y130.113 E.01827
G1 X146.715 Y130.314 E.01871
G1 X146.134 Y130.456 E.01875
G1 X145.527 Y130.543 E.01923
G1 X144.904 Y130.574 E.01956
G1 X105.081 Y130.574 E1.24862
G1 X104.179 Y130.509 E.02835
G1 X103.581 Y130.394 E.01909
G1 X103.011 Y130.224 E.01865
G1 X102.525 Y130.026 E.01645
G1 X102.066 Y129.787 E.01623
G1 X101.18 Y129.133 E.03453
G1 X100.786 Y128.726 E.01776
G1 X100.438 Y128.282 E.01769
G1 X100.14 Y127.802 E.01771
G1 X99.887 Y127.277 E.01827
G1 X99.686 Y126.715 E.01871
G1 X99.544 Y126.134 E.01875
G1 X99.457 Y125.527 E.01923
G1 X99.426 Y124.904 E.01956
G1 X99.426 Y85.081 E1.24862
G1 X99.491 Y84.179 E.02835
G1 X99.606 Y83.581 E.01909
G1 X99.776 Y83.011 E.01865
G1 X99.974 Y82.525 E.01645
G1 X100.213 Y82.067 E.0162
G1 X100.52 Y81.65 E.01624
M204 S1000
G1 X100.821 Y81.873 F10800
M204 S800
G1 F1200
G1 X101.14 Y81.441 E.01684
G1 X101.526 Y81.066 E.01687
G1 X101.937 Y80.745 E.01635
G1 X102.384 Y80.468 E.01649
G1 X102.871 Y80.234 E.01694
G1 X103.4 Y80.046 E.0176
G1 X103.961 Y79.909 E.01811
G1 X104.896 Y79.807 E.02949
G1 X145.003 Y79.807 E1.25753
G1 X145.763 Y79.864 E.0239
G1 X146.326 Y79.971 E.01797
G1 X146.865 Y80.132 E.01764
G1 X147.359 Y80.336 E.01676
G1 X147.818 Y80.585 E.01637
G1 X148.246 Y80.879 E.01628
G1 X148.642 Y81.219 E.01636
G1 X149.03 Y81.64 E.01795
G1 X149.376 Y82.118 E.0185
G1 X149.757 Y82.851 E.0259
G1 X149.962 Y83.428 E.0192
M73 P1 R134
G1 X150.091 Y83.964 E.01729
G1 X150.185 Y84.744 E.02463
G1 X150.196 Y124.912 E1.25944
G1 X150.136 Y125.761 E.02669
M73 Q1 S135
G1 X150.03 Y126.321 E.01787
G1 X149.872 Y126.856 E.01749
G1 X149.687 Y127.309 E.01534
G1 X149.46 Y127.746 E.01544
G1 X148.859 Y128.56 E.03173
G1 X148.471 Y128.936 E.01694
G1 X148.059 Y129.258 E.0164
G1 X147.612 Y129.534 E.01647
G1 X147.123 Y129.769 E.01701
G1 X146.599 Y129.955 E.01743
G1 X146.054 Y130.087 E.01758
G1 X145.483 Y130.168 E.01808
G1 X144.899 Y130.196 E.01833
G1 X105.088 Y130.196 E1.24825
G1 X104.239 Y130.136 E.02669
G1 X103.679 Y130.03 E.01787
G1 X103.144 Y129.872 E.01749
G1 X102.691 Y129.687 E.01534
G1 X102.254 Y129.46 E.01544
G1 X101.44 Y128.859 E.03173
G1 X101.064 Y128.471 E.01694
G1 X100.742 Y128.059 E.0164
G1 X100.466 Y127.612 E.01647
G1 X100.231 Y127.123 E.01701
G1 X100.045 Y126.599 E.01743
G1 X99.913 Y126.054 E.01758
G1 X99.832 Y125.483 E.01808
G1 X99.804 Y124.899 E.01833
G1 X99.804 Y85.088 E1.24825
G1 X99.864 Y84.239 E.02669
G1 X99.97 Y83.679 E.01787
G1 X100.128 Y83.144 E.01749
G1 X100.313 Y82.691 E.01534
G1 X100.54 Y82.254 E.01544
G1 X100.786 Y81.921 E.01298
M204 S1000
G1 X101.087 Y82.144 F10800
M204 S800
G1 F1200
G1 X101.414 Y81.7 E.01729
G1 X101.767 Y81.356 E.01545
G1 X102.145 Y81.06 E.01505
G1 X102.574 Y80.794 E.01583
G1 X103.024 Y80.578 E.01565
G1 X103.516 Y80.404 E.01636
G1 X104.038 Y80.279 E.01683
G1 X104.906 Y80.184 E.02738
G1 X144.982 Y80.183 E1.25655
G1 X145.703 Y80.236 E.02267
G1 X146.228 Y80.336 E.01676
G1 X146.731 Y80.484 E.01644
G1 X147.189 Y80.673 E.01553
G1 X147.613 Y80.901 E.01509
G1 X148.024 Y81.184 E.01565
G1 X148.387 Y81.497 E.01503
G1 X148.745 Y81.887 E.0166
G1 X149.062 Y82.327 E.017
G1 X149.416 Y83.012 E.02418
G1 X149.603 Y83.544 E.01768
G1 X149.722 Y84.04 E.01599
G1 X149.809 Y84.777 E.02327
G1 X149.819 Y124.905 E1.25819
G1 X149.764 Y125.702 E.02505
G1 X149.665 Y126.224 E.01666
G1 X149.519 Y126.723 E.0163
