; generated by PrusaSlicer 2.6.1+linux-x64-GTK3 on 2023-09-14 at 20:09:35 UTC


;
;
; 

; external perimeters extrusion width = 0.45mm
; perimeters extrusion width = 0.45mm
; infill extrusion width = 0.45mm
; solid infill extrusion width = 0.45mm
; top infill extrusion width = 0.40mm
; first layer extrusion width = 0.42mm

M73 P0 R84
M73 Q0 S86
M201 X1000 Y1000 Z200 E5000 ; sets maximum accelerations, mm/sec^2
M203 X200 Y200 Z12 E120 ; sets maximum feedrates, mm / sec
M204 S1250 T1250 ; sets acceleration (S) and retract acceleration (R), mm/sec^2
M205 X8.00 Y8.00 Z0.40 E4.50 ; sets the jerk limits, mm/sec
M205 S0 T0 ; sets the minimum extruding and travel feed rate, mm/sec
;TYPE:Custom
M862.3 P "MK3S" ; printer model check
M862.1 P0.4 ; nozzle diameter check
M115 U3.13.0 ; tell printer latest fw version
G90 ; use absolute coordinates
M83 ; extruder relative mode
M104 S215 ; set extruder temp
M140 S60 ; set bed temp
M190 S60 ; wait for bed temp
M109 S215 ; wait for extruder temp
G28 W ; home all without mesh bed level
G80 ; mesh bed leveling

G1 Z0.2 F720
G1 Y-3 F1000 ; go outside print area
G92 E0
G1 X60 E9 F1000 ; intro line
G1 X100 E12.5 F1000 ; intro line

G92 E0
M221 S95

; Don't change E values below. Excessive value can damage the printer.

M907 E538 ; set extruder motor current
G21 ; set units to millimeters
G90 ; use absolute coordinates
M83 ; use relative distances for extrusion
M900 K0.05 ; Filament gcode LA 1.5
M900 K30 ; Filament gcode LA 1.0
M107
;LAYER_CHANGE
;Z:0.2
;HEIGHT:0.2
;BEFORE_LAYER_CHANGE
G92 E0.0
;0.2


G1 E-.8 F2100
G1 Z.4 F720
;AFTER_LAYER_CHANGE
;0.2
G1 X86.407 Y86.919 F10800
G1 Z.2 F720
G1 E.8 F2100
M204 S800
;TYPE:Skirt/Brim
;WIDTH:0.42
G1 F1200
G1 X88.088 Y86.223 E.05705
G1 X161.912 Y86.223 E2.3147
G1 X163.593 Y86.919 E.05705
G1 X166.581 Y89.907 E.13249
G1 X167.277 Y91.588 E.05705
G1 X167.277 Y118.412 E.84105
G1 X166.581 Y120.093 E.05705
G1 X163.593 Y123.081 E.13249
G1 X161.912 Y123.777 E.05705
G1 X88.088 Y123.777 E2.3147
G1 X86.407 Y123.081 E.05705
G1 X83.419 Y120.093 E.13249
G1 X82.723 Y118.412 E.05705
G1 X82.723 Y91.588 E.84105
G1 X83.419 Y89.907 E.05705
G1 X86.364 Y86.962 E.13059
M204 S1000
;WIPE_START
G1 F8640
G1 X88.088 Y86.223 E-.43311
G1 X89.677 Y86.223 E-.36689
;WIPE_END
G1 Z.6 F720
G1 X87.824 Y89.552 F10800
G1 Z.2 F720
G1 E.8 F2100
M204 S800
G1 F1200
G1 X88.427 Y89.212 E.0217
G1 X89.851 Y88.887 E.0458
G1 X160.189 Y88.89 E2.2054
G1 X161.21 Y89.084 E.03259
G1 X162.188 Y89.5 E.03332
G1 X163.312 Y90.396 E.04507
G1 X164.205 Y91.734 E.05044
G1 X164.613 Y93.279 E.0501
G1 X164.613 Y116.718 E.73491
G1 X164.289 Y118.065 E.04344
G1 X163.664 Y119.189 E.04032
G1 X162.727 Y120.138 E.04182
G1 X161.573 Y120.788 E.04153
G1 X160.149 Y121.113 E.0458
G1 X89.782 Y121.113 E2.20631
G1 X88.435 Y120.789 E.04344
G1 X87.311 Y120.164 E.04032
G1 X86.362 Y119.227 E.04182
G1 X85.712 Y118.073 E.04153
G1 X85.387 Y116.649 E.0458
G1 X85.387 Y93.282 E.73266
G1 X85.711 Y91.935 E.04344
M73 P0 R83
G1 X86.336 Y90.811 E.04032
G1 X87.273 Y89.862 E.04182
G1 X87.772 Y89.581 E.01796
M204 S1000
G1 X87.957 Y89.91 F10800
M204 S800
G1 F1200
G1 X88.588 Y89.554 E.02272
G1 X89.872 Y89.264 E.04127
G1 X160.171 Y89.267 E2.20418
G1 X161.117 Y89.45 E.03021
G1 X162.015 Y89.836 E.03065
G1 X163.053 Y90.671 E.04177
G1 X163.849 Y91.862 E.04492
G1 X164.236 Y93.304 E.04681
G1 X164.236 Y116.695 E.73341
G1 X163.929 Y117.951 E.04054
G1 X163.376 Y118.944 E.03564
G1 X162.518 Y119.823 E.03851
G1 X161.412 Y120.446 E.0398
G1 X160.128 Y120.736 E.04127
G1 X89.805 Y120.736 E2.20493
G1 X88.549 Y120.429 E.04054
G1 X87.556 Y119.876 E.03564
G1 X86.677 Y119.018 E.03851
G1 X86.054 Y117.912 E.0398
G1 X85.764 Y116.628 E.04127
G1 X85.764 Y93.305 E.73128
G1 X86.071 Y92.049 E.04054
G1 X86.624 Y91.056 E.03564
G1 X87.482 Y90.177 E.03851
G1 X87.905 Y89.939 E.01522
M204 S1000
G1 X88.086 Y90.264 F10800
M204 S800
G1 F1200
G1 X88.747 Y89.897 E.02371
G1 X89.893 Y89.641 E.03682
G1 X160.152 Y89.644 E2.20292
G1 X161.024 Y89.816 E.02787
G1 X161.84 Y90.171 E.0279
G1 X162.793 Y90.945 E.03849
G1 X163.517 Y92.043 E.04124
G1 X163.859 Y93.328 E.04169
G1 X163.859 Y116.672 E.73193
G1 X163.569 Y117.834 E.03755
G1 X163.061 Y118.736 E.03246
G1 X162.269 Y119.538 E.03534
G1 X161.253 Y120.103 E.03645
M73 Q0 S85
G1 X160.107 Y120.359 E.03682
G1 X89.828 Y120.359 E2.20355
G1 X88.666 Y120.069 E.03755
G1 X87.764 Y119.561 E.03246
G1 X86.962 Y118.769 E.03534
G1 X86.397 Y117.753 E.03645
G1 X86.141 Y116.607 E.03682
G1 X86.141 Y93.328 E.7299
G1 X86.431 Y92.166 E.03755
M73 P1 R83
G1 X86.939 Y91.264 E.03246
G1 X87.731 Y90.462 E.03534
G1 X88.033 Y90.294 E.01084
M204 S1000
G1 X88.212 Y90.62 F10800
M204 S800
G1 F1200
G1 X88.903 Y90.241 E.02471
G1 X89.913 Y90.018 E.03243
G1 X160.133 Y90.021 E2.2017
G1 X160.929 Y90.181 E.02546
M73 Q1 S85
G1 X161.664 Y90.505 E.02519
G1 X162.53 Y91.217 E.03515
G1 X163.185 Y92.223 E.03764
G1 X163.482 Y93.352 E.0366
G1 X163.482 Y116.648 E.73043
G1 X163.211 Y117.715 E.03452
G1 X162.747 Y118.526 E.0293
G1 X162.022 Y119.252 E.03217
G1 X161.097 Y119.759 E.03307
G1 X160.087 Y119.982 E.03243
G1 X89.852 Y119.982 E2.20217
G1 X88.785 Y119.711 E.03452
G1 X87.974 Y119.247 E.0293
G1 X87.248 Y118.522 E.03217
G1 X86.741 Y117.597 E.03307
G1 X86.518 Y116.587 E.03243
G1 X86.518 Y93.352 E.72852
G1 X86.789 Y92.285 E.03452
G1 X87.253 Y91.474 E.0293
G1 X87.978 Y90.748 E.03217
G1 X88.159 Y90.648 E.00648
M204 S1000
G1 X88.335 Y90.975 F10800
M204 S800
G1 F1200
G1 X89.058 Y90.585 E.02576
G1 X89.933 Y90.395 E.02807
G1 X160.114 Y90.398 E2.20048
G1 X160.796 Y90.535 E.02181
G1 X161.487 Y90.839 E.02367
G1 X162.267 Y91.488 E.03181
G1 X162.829 Y92.35 E.03226
G1 X163.105 Y93.378 E.03337
G1 X163.105 Y116.623 E.72883
G1 X162.853 Y117.594 E.03145
G1 X162.434 Y118.314 E.02612
G1 X161.777 Y118.965 E.029
G1 X160.942 Y119.415 E.02974
G1 X160.067 Y119.605 E.02807
G1 X89.877 Y119.605 E2.20076
G1 X88.906 Y119.353 E.03145
G1 X88.186 Y118.934 E.02612
G1 X87.535 Y118.277 E.029
G1 X87.085 Y117.442 E.02974
G1 X86.895 Y116.567 E.02807
G1 X86.895 Y93.377 E.72711
G1 X87.147 Y92.406 E.03145
G1 X87.566 Y91.686 E.02612
G1 X88.223 Y91.035 E.029
G1 X88.282 Y91.004 E.00209
M204 S1000
G1 X88.466 Y91.325 F10800
M204 S800
G1 F1200
G1 X89.211 Y90.931 E.02642
G1 X89.953 Y90.772 E.02379
G1 X160.095 Y90.776 E2.19925
G1 X160.699 Y90.9 E.01933
G1 X161.308 Y91.172 E.02091
G1 X162.001 Y91.757 E.02844
G1 X162.495 Y92.528 E.02871
G1 X162.728 Y93.402 E.02836
G1 X162.728 Y116.598 E.72729
G1 X162.495 Y117.471 E.02833
G1 X162.123 Y118.099 E.02289
G1 X161.534 Y118.675 E.02583
G1 X160.789 Y119.069 E.02642
G1 X160.047 Y119.228 E.02379
G1 X89.902 Y119.228 E2.19935
G1 X89.029 Y118.995 E.02833
G1 X88.401 Y118.623 E.02289
G1 X87.825 Y118.034 E.02583
G1 X87.431 Y117.289 E.02642
G1 X87.272 Y116.547 E.02379
G1 X87.272 Y93.402 E.7257
G1 X87.505 Y92.529 E.02833
G1 X87.877 Y91.901 E.02289
G1 X88.423 Y91.367 E.02395
M204 S1000
G1 X88.684 Y91.638 F10800
M204 S800
G1 F1200
G1 X89.36 Y91.278 E.02401
G1 X89.972 Y91.149 E.01961
G1 X160.074 Y91.153 E2.198
G1 X160.599 Y91.264 E.01682
G1 X161.127 Y91.504 E.01819
G1 X161.734 Y92.025 E.02508
G1 X162.139 Y92.656 E.02351
G1 X162.351 Y93.428 E.0251
G1 X162.351 Y116.572 E.72566
G1 X162.139 Y117.344 E.0251
G1 X161.814 Y117.882 E.01971
G1 X161.293 Y118.384 E.02268
G1 X160.64 Y118.722 E.02305
G1 X160.028 Y118.851 E.01961
G1 X89.928 Y118.851 E2.19794
G1 X89.156 Y118.639 E.0251
M73 P1 R82
G1 X88.618 Y118.314 E.01971
G1 X88.116 Y117.793 E.02268
G1 X87.778 Y117.14 E.02305
G1 X87.649 Y116.528 E.01961
G1 X87.649 Y93.428 E.72428
G1 X87.861 Y92.656 E.0251
G1 X88.186 Y92.118 E.01971
G1 X88.641 Y91.68 E.0198
M204 S1000
G1 X88.9 Y91.953 F10800
M204 S800
G1 F1200
G1 X88.945 Y91.91 E.00195
G1 X89.507 Y91.626 E.01974
G1 X89.991 Y91.526 E.0155
G1 X160.053 Y91.53 E2.19674
G1 X160.497 Y91.627 E.01425
G1 X160.943 Y91.834 E.01542
G1 X161.466 Y92.291 E.02178
G1 X161.785 Y92.786 E.01846
G1 X161.974 Y93.455 E.0218
G1 X161.974 Y116.545 E.72397
G1 X161.784 Y117.215 E.02184
G1 X161.507 Y117.661 E.01646
G1 X161.055 Y118.09 E.01954
G1 X160.493 Y118.374 E.01974
G1 X160.009 Y118.474 E.0155
G1 X89.955 Y118.474 E2.19649
G1 X89.285 Y118.284 E.02184
G1 X88.839 Y118.007 E.01646
G1 X88.41 Y117.555 E.01954
G1 X88.126 Y116.993 E.01974
G1 X88.026 Y116.509 E.0155
G1 X88.026 Y93.455 E.72284
G1 X88.216 Y92.785 E.02184
M73 P2 R82
G1 X88.493 Y92.339 E.01646
G1 X88.856 Y91.994 E.0157
M204 S1000
G1 X89.112 Y92.269 F10800
M204 S800
G1 F1200
G1 X89.18 Y92.206 E.00291
G1 X89.649 Y91.976 E.01638
G1 X90.009 Y91.903 E.01152
G1 X160.031 Y91.907 E2.19549
G1 X160.391 Y91.99 E.01158
M73 Q2 S85
G1 X160.756 Y92.162 E.01265
G1 X161.196 Y92.554 E.01848
G1 X161.431 Y92.92 E.01364
G1 X161.597 Y93.483 E.0184
G1 X161.597 Y116.517 E.72221
G1 X161.431 Y117.081 E.01843
M73 Q2 S84
G1 X161.204 Y117.437 E.01324
G1 X160.82 Y117.794 E.01644
G1 X160.351 Y118.024 E.01638
G1 X159.991 Y118.097 E.01152
G1 X89.983 Y118.097 E2.19505
G1 X89.419 Y117.931 E.01843
G1 X89.063 Y117.704 E.01324
G1 X88.706 Y117.32 E.01644
G1 X88.476 Y116.851 E.01638
G1 X88.403 Y116.491 E.01152
G1 X88.403 Y93.483 E.7214
G1 X88.569 Y92.919 E.01843
G1 X88.796 Y92.563 E.01324
G1 X89.068 Y92.31 E.01165
M204 S1000
G1 X89.325 Y92.577 F10800
M204 S800
G1 F1200
G1 X89.373 Y92.531 E.00208
G1 X89.792 Y92.326 E.01463
G1 X90.027 Y92.28 E.00751
G1 X160.009 Y92.284 E2.19424
G1 X160.247 Y92.339 E.00766
G1 X160.568 Y92.491 E.01114
G1 X160.923 Y92.815 E.01507
G1 X161.079 Y93.057 E.00903
G1 X161.22 Y93.512 E.01494
G1 X161.22 Y116.488 E.7204
G1 X161.079 Y116.943 E.01494
G1 X160.926 Y117.181 E.00887
G1 X160.627 Y117.469 E.01302
G1 X160.208 Y117.674 E.01463
G1 X159.973 Y117.72 E.00751
G1 X90.012 Y117.72 E2.19358
G1 X89.557 Y117.579 E.01494
G1 X89.319 Y117.426 E.00887
G1 X89.031 Y117.127 E.01302
G1 X88.826 Y116.708 E.01463
G1 X88.78 Y116.473 E.00751
G1 X88.78 Y93.512 E.71993
G1 X88.921 Y93.057 E.01494
G1 X89.074 Y92.819 E.00887
G1 X89.282 Y92.619 E.00905
M204 S1000
G1 X89.544 Y92.881 F10800
M204 S800
G1 F1200
G1 X89.896 Y92.689 E.01257
G1 X90.047 Y92.657 E.00484
G1 X159.987 Y92.661 E2.19292
G1 X160.104 Y92.688 E.00376
G1 X160.378 Y92.818 E.00951
G1 X160.647 Y93.073 E.01162
G1 X160.73 Y93.2 E.00476
G1 X160.843 Y93.544 E.01135
G1 X160.843 Y116.456 E.71839
G1 X160.73 Y116.8 E.01135
G1 X160.645 Y116.929 E.00484
G1 X160.427 Y117.148 E.00969
G1 X160.104 Y117.311 E.01134
G1 X159.953 Y117.343 E.00484
G1 X90.044 Y117.343 E2.19195
G1 X89.7 Y117.23 E.01135
G1 X89.571 Y117.145 E.00484
G1 X89.352 Y116.927 E.00969
G1 X89.189 Y116.604 E.01134
G1 X89.157 Y116.453 E.00484
G1 X89.157 Y93.544 E.7183
G1 X89.27 Y93.2 E.01135
G1 X89.355 Y93.071 E.00484
G1 X89.502 Y92.924 E.00652
M204 S1000
G1 X89.768 Y93.19 F10800
M204 S800
G1 F1200
G1 X89.815 Y93.144 E.00206
G1 X90.065 Y93.034 E.00856
G1 X159.967 Y93.041 E2.19173
G1 X160.185 Y93.144 E.00756
G1 X160.366 Y93.325 E.00803
G1 X160.466 Y93.579 E.00856
G1 X160.466 Y116.421 E.71619
G1 X160.366 Y116.675 E.00856
G1 X160.185 Y116.856 E.00803
G1 X159.935 Y116.966 E.00856
G1 X90.079 Y116.966 E2.19029
G1 X89.825 Y116.866 E.00856
G1 X89.644 Y116.685 E.00803
G1 X89.534 Y116.435 E.00856
G1 X89.534 Y93.579 E.71663
G1 X89.616 Y93.352 E.00757
G1 X89.726 Y93.233 E.00508
M204 S1000
G1 X89.993 Y93.499 F10800
M204 S800
G1 F1200
G1 X90.052 Y93.44 E.00262
G1 X90.121 Y93.411 E.00235
G1 X159.879 Y93.411 E2.18721
G1 X159.948 Y93.44 E.00235
G1 X160.06 Y93.552 E.00497
G1 X160.089 Y93.621 E.00235
G1 X160.089 Y116.379 E.71356
G1 X160.06 Y116.448 E.00235
G1 X159.948 Y116.56 E.00497
G1 X159.879 Y116.589 E.00235
G1 X90.121 Y116.589 E2.18721
G1 X90.052 Y116.56 E.00235
G1 X89.94 Y116.448 E.00497
G1 X89.911 Y116.379 E.00235
G1 X89.911 Y93.621 E.71356
G1 X89.95 Y93.542 E.00276
M204 S1000
; printing object BlueGrayNeedleNose.stl id:0 copy 0
;WIPE_START
M73 P2 R81
G1 F8640
G1 X90.052 Y93.44 E-.03331
G1 X90.121 Y93.411 E-.01728
G1 X93.367 Y93.411 E-.74941
;WIPE_END
G1 Z.6 F720
G1 X91.25 Y95.779 F10800
G1 Z.2 F720
G1 E.8 F2100
M204 S800
;TYPE:Perimeter
;WIDTH:0.591684
G1 F1200
G1 X91.226 Y95.24 E.02462
;WIDTH:0.542727
G1 X91.201 Y94.701 E.02242
;WIDTH:0.49377
G1 X91.426 Y94.701 E.00843
;WIDTH:0.531604
G1 X91.651 Y94.72 E.00918
;WIDTH:0.569437
G1 X91.875 Y94.739 E.00984
;WIDTH:0.60727
G1 X92.099 Y94.758 E.01055
G1 X91.928 Y94.867 E.00952
;WIDTH:0.569437
G1 X91.757 Y94.977 E.0089
;WIDTH:0.531604
G1 X91.586 Y95.086 E.00824
;WIDTH:0.542727
G1 X91.418 Y95.432 E.01598
;WIDTH:0.591684
G1 X91.276 Y95.725 E.01486
M204 S1000
;WIPE_START
G1 F8640
G1 X91.226 Y95.24 E-.11258
G1 X91.201 Y94.701 E-.12459
G1 X91.426 Y94.701 E-.05195
G1 X91.651 Y94.72 E-.05214
G1 X91.875 Y94.739 E-.05191
G1 X92.099 Y94.758 E-.05191
G1 X91.928 Y94.867 E-.04682
G1 X91.757 Y94.977 E-.04695
G1 X91.586 Y95.086 E-.04682
G1 X91.418 Y95.432 E-.08881
G1 X91.276 Y95.725 E-.07518
;WIPE_END
G1 E-.05034 F2100
G1 Z.6 F720
G1 X91.258 Y114.401 F10800
G1 Z.2 F720
G1 E.8 F2100
M204 S800
;WIDTH:0.60727
G1 F1200
G1 X91.367 Y114.572 E.00952
;WIDTH:0.569437
G1 X91.477 Y114.743 E.0089
;WIDTH:0.531604
G1 X91.586 Y114.914 E.00824
;WIDTH:0.542727
G1 X91.932 Y115.082 E.01598
;WIDTH:0.591684
G1 X92.279 Y115.25 E.01759
G1 X91.74 Y115.274 E.02462
;WIDTH:0.542727
G1 X91.201 Y115.299 E.02242
;WIDTH:0.49377
G1 X91.201 Y115.074 E.00843
;WIDTH:0.531604
G1 X91.22 Y114.849 E.00918
;WIDTH:0.569437
G1 X91.239 Y114.625 E.00984
;WIDTH:0.60727
G1 X91.253 Y114.46 E.00777
M204 S1000
;WIPE_START
G1 F8640
G1 X91.367 Y114.572 E-.0369
G1 X91.477 Y114.743 E-.04695
G1 X91.586 Y114.914 E-.04682
G1 X91.932 Y115.082 E-.08881
G1 X92.279 Y115.25 E-.08902
G1 X91.74 Y115.274 E-.12458
G1 X91.201 Y115.299 E-.12459
G1 X91.201 Y115.074 E-.05195
G1 X91.22 Y114.849 E-.05214
G1 X91.239 Y114.625 E-.05191
G1 X91.253 Y114.46 E-.03824
;WIPE_END
G1 E-.04809 F2100
G1 Z.6 F720
G1 X157.901 Y115.242 F10800
G1 Z.2 F720
G1 E.8 F2100
M204 S800
M73 P3 R81
G1 F1200
G1 X158.072 Y115.133 E.00952
;WIDTH:0.569438
G1 X158.243 Y115.023 E.0089
;WIDTH:0.531605
G1 X158.414 Y114.914 E.00824
G1 X158.523 Y114.743 E.00824
;WIDTH:0.569438
G1 X158.633 Y114.572 E.0089
;WIDTH:0.60727
G1 X158.742 Y114.401 E.00952
G1 X158.761 Y114.7 E.01406
;WIDTH:0.569438
G1 X158.78 Y114.999 E.01312
;WIDTH:0.531605
G1 X158.799 Y115.299 E.01221
;WIDTH:0.493772
G1 X158.574 Y115.299 E.00843
;WIDTH:0.531605
G1 X158.349 Y115.28 E.00918
;WIDTH:0.569438
G1 X158.125 Y115.261 E.00984
;WIDTH:0.60727
G1 X157.96 Y115.247 E.00777
M204 S1000
;WIPE_START
G1 F8640
G1 X158.072 Y115.133 E-.0369
G1 X158.243 Y115.023 E-.04695
G1 X158.414 Y114.914 E-.04682
G1 X158.523 Y114.743 E-.04682
G1 X158.633 Y114.572 E-.04695
G1 X158.742 Y114.401 E-.04682
G1 X158.761 Y114.7 E-.06918
G1 X158.78 Y114.999 E-.06918
G1 X158.799 Y115.299 E-.06941
G1 X158.574 Y115.299 E-.05195
G1 X158.349 Y115.28 E-.05214
G1 X158.125 Y115.261 E-.05191
G1 X157.96 Y115.247 E-.03824
;WIPE_END
G1 E-.12673 F2100
G1 Z.6 F720
G1 X158.75 Y95.779 F10800
G1 Z.2 F720
G1 E.8 F2100
M204 S800
;WIDTH:0.591684
G1 F1200
G1 X158.582 Y95.432 E.01759
;WIDTH:0.542728
G1 X158.414 Y95.086 E.01598
G1 X158.068 Y94.918 E.01598
;WIDTH:0.591684
G1 X157.721 Y94.75 E.01759
G1 X158.26 Y94.726 E.02462
;WIDTH:0.542728
G1 X158.799 Y94.701 E.02242
;WIDTH:0.493772
G1 X158.799 Y94.926 E.00843
;WIDTH:0.542728
G1 X158.774 Y95.353 E.01778
;WIDTH:0.591684
G1 X158.753 Y95.719 E.01673
M204 S1000
;WIPE_START
G1 F8640
G1 X158.582 Y95.432 E-.07714
G1 X158.414 Y95.086 E-.08881
G1 X158.068 Y94.918 E-.08881
G1 X157.721 Y94.75 E-.08902
G1 X158.26 Y94.726 E-.12458
G1 X158.799 Y94.701 E-.12459
G1 X158.799 Y94.926 E-.05195
G1 X158.774 Y95.353 E-.09876
G1 X158.76 Y95.597 E-.05634
;WIPE_END
G1 Z.6 F720
G1 X159.213 Y115.713 F10800
G1 Z.2 F720
G1 E.8 F2100
M204 S800
;WIDTH:0.419999
G1 F1200
G1 X90.787 Y115.713 E2.14545
G1 X90.787 Y94.287 E.6718
M73 Q3 S84
G1 X159.213 Y94.287 E2.14545
G1 X159.213 Y115.653 E.66991
M204 S1000
G1 X159.59 Y116.09 F10800
M204 S800
;TYPE:External perimeter
G1 F1200
G1 X90.41 Y116.09 E2.16909
G1 X90.41 Y93.91 E.69544
M73 Q3 S83
G1 X159.59 Y93.91 E2.16909
G1 X159.59 Y116.03 E.69356
M204 S1000
G1 X159.192 Y116.049 F10800
;WIPE_START
G1 F8640
G1 X156.125 Y116.033 E-.8
;WIPE_END
G1 Z.6 F720
G1 X91.713 Y96.1 F10800
G1 Z.2 F720
G1 E.8 F2100
M204 S800
;TYPE:Perimeter
