; generated by PrusaSlicer 2.6.1+linux-x64-GTK3 on 2023-09-16 at 16:44:16 UTC


;
;
; 

; external perimeters extrusion width = 0.45mm
; perimeters extrusion width = 0.45mm
; infill extrusion width = 0.45mm
; solid infill extrusion width = 0.45mm
; top infill extrusion width = 0.40mm
; first layer extrusion width = 0.42mm

M73 P0 R31
M73 Q0 S31
M201 X1000 Y1000 Z200 E5000 ; sets maximum accelerations, mm/sec^2
M203 X200 Y200 Z12 E120 ; sets maximum feedrates, mm / sec
M204 S1250 T1250 ; sets acceleration (S) and retract acceleration (R), mm/sec^2
M205 X8.00 Y8.00 Z0.40 E4.50 ; sets the jerk limits, mm/sec
M205 S0 T0 ; sets the minimum extruding and travel feed rate, mm/sec
;TYPE:Custom
M862.3 P "MK3S" ; printer model check
M862.1 P0.4 ; nozzle diameter check
M115 U3.13.0 ; tell printer latest fw version
G90 ; use absolute coordinates
M83 ; extruder relative mode
M104 S215 ; set extruder temp
M140 S60 ; set bed temp
M190 S60 ; wait for bed temp
M109 S215 ; wait for extruder temp
G28 W ; home all without mesh bed level
G80 ; mesh bed leveling

G1 Z0.2 F720
G1 Y-3 F1000 ; go outside print area
G92 E0
G1 X60 E9 F1000 ; intro line
G1 X100 E12.5 F1000 ; intro line

G92 E0
M221 S95

; Don't change E values below. Excessive value can damage the printer.

G21 ; set units to millimeters
G90 ; use absolute coordinates
M83 ; use relative distances for extrusion
M900 K0.05 ; Filament gcode LA 1.5
M900 K30 ; Filament gcode LA 1.0
M107
;LAYER_CHANGE
;Z:0.2
;HEIGHT:0.2
;BEFORE_LAYER_CHANGE
G92 E0.0
;0.2


G1 E-.8 F2100
G1 Z.4 F720
;AFTER_LAYER_CHANGE
;0.2
G1 X101.483 Y91.971 F10800
G1 Z.2 F720
G1 E.8 F2100
M204 S800
;TYPE:Skirt/Brim
;WIDTH:0.42
G1 F1200
G1 X104.471 Y88.983 E.13249
G1 X106.152 Y88.287 E.05705
G1 X141.875 Y88.296 E1.12007
G1 X143.086 Y88.451 E.03828
G1 X144.1 Y88.738 E.03304
G1 X145.369 Y89.327 E.04387
G1 X146.368 Y90.017 E.03807
G1 X147.494 Y91.145 E.04997
G1 X148.349 Y92.452 E.04897
G1 X148.932 Y93.935 E.04996
G1 X149.13 Y94.878 E.03021
G1 X149.211 Y95.809 E.0293
G1 X149.198 Y114.467 E.58501
G1 X149.049 Y115.586 E.0354
G1 X148.638 Y116.924 E.04389
G1 X148.173 Y117.869 E.03302
G1 X147.483 Y118.868 E.03807
G1 X146.355 Y119.994 E.04997
G1 X145.047 Y120.849 E.049
G1 X143.565 Y121.432 E.04993
G1 X141.895 Y121.703 E.05305
M73 P0 R30
G1 X106.152 Y121.713 E1.1207
G1 X104.471 Y121.017 E.05705
G1 X101.483 Y118.029 E.13249
G1 X100.787 Y116.348 E.05705
G1 X100.787 Y93.652 E.71162
G1 X101.46 Y92.026 E.05518
M204 S1000
;WIPE_START
G1 F8640
G1 X103.897 Y89.563 E-.8
;WIPE_END
G1 Z.6 F720
G1 X104.078 Y93.347 F10800
G1 Z.2 F720
G1 E.8 F2100
M204 S800
G1 F1200
G1 X105.097 Y92.144 E.04943
G1 X105.788 Y91.613 E.02732
G1 X107.06 Y91.089 E.04313
G1 X108.52 Y90.951 E.04598
G1 X141.725 Y90.951 E1.04112
G1 X142.884 Y91.149 E.03687
G1 X143.965 Y91.588 E.03658
G1 X145.148 Y92.513 E.04708
G1 X146.129 Y93.988 E.05554
G1 X146.549 Y95.731 E.05621
G1 X146.536 Y114.366 E.58429
G1 X146.295 Y115.568 E.03844
G1 X145.763 Y116.71 E.0395
G1 X144.973 Y117.657 E.03867
G1 X143.994 Y118.406 E.03865
M73 Q1 S31
G1 X141.798 Y119.049 E.07174
G1 X107.845 Y119.049 E1.06457
G1 X106.534 Y118.733 E.04228
M73 P1 R30
G1 X105.76 Y118.369 E.02682
G1 X104.72 Y117.5 E.04249
G1 X104.083 Y116.662 E.033
G1 X103.451 Y114.683 E.06514
G1 X103.451 Y95.423 E.60388
G1 X103.641 Y94.378 E.0333
G1 X104.054 Y93.402 E.03323
M204 S1000
G1 X104.401 Y93.55 F10800
M204 S800
G1 F1200
G1 X105.37 Y92.405 E.04703
G1 X105.996 Y91.929 E.02466
G1 X107.175 Y91.449 E.03991
G1 X108.528 Y91.328 E.04259
G1 X141.709 Y91.328 E1.04037
G1 X142.799 Y91.517 E.03469
G1 X143.797 Y91.926 E.03382
G1 X144.89 Y92.789 E.04366
G1 X145.795 Y94.167 E.05169
G1 X146.172 Y95.753 E.05111
G1 X146.162 Y114.311 E.58187
G1 X145.943 Y115.431 E.03578
M73 Q1 S30
G1 X145.456 Y116.49 E.03655
G1 X144.727 Y117.371 E.03585
G1 X143.806 Y118.075 E.03635
G1 X141.771 Y118.672 E.0665
G1 X107.868 Y118.672 E1.063
G1 X106.643 Y118.371 E.03955
G1 X105.944 Y118.04 E.02425
G1 X104.979 Y117.226 E.03958
G1 X104.403 Y116.461 E.03002
G1 X103.828 Y114.654 E.05946
G1 X103.828 Y95.44 E.60244
G1 X104.008 Y94.467 E.03103
G1 X104.377 Y93.605 E.0294
M204 S1000
G1 X104.722 Y93.755 F10800
M204 S800
G1 F1200
G1 X104.747 Y93.699 E.00192
G1 X105.641 Y92.668 E.04279
G1 X106.202 Y92.246 E.02201
G1 X107.288 Y91.81 E.03669
G1 X108.535 Y91.705 E.03924
G1 X141.692 Y91.705 E1.03961
G1 X142.712 Y91.884 E.03247
G1 X143.627 Y92.264 E.03106
G1 X144.631 Y93.065 E.04027
G1 X145.436 Y94.287 E.04588
G1 X145.795 Y95.776 E.04802
G1 X145.789 Y114.258 E.57949
G1 X145.59 Y115.297 E.03317
G1 X145.15 Y116.269 E.03345
G1 X144.45 Y117.113 E.03438
G1 X143.606 Y117.753 E.03321
G1 X141.745 Y118.295 E.06077
G1 X107.892 Y118.295 E1.06144
G1 X106.754 Y118.011 E.03678
G1 X106.13 Y117.711 E.02171
G1 X105.241 Y116.953 E.03663
G1 X104.725 Y116.261 E.02707
G1 X104.205 Y114.625 E.05382
G1 X104.205 Y95.458 E.60097
G1 X104.375 Y94.559 E.02869
G1 X104.699 Y93.81 E.02559
M204 S1000
G1 X105.043 Y93.961 F10800
M204 S800
G1 F1200
G1 X105.08 Y93.878 E.00285
G1 X105.91 Y92.932 E.03946
G1 X106.406 Y92.564 E.01936
G1 X107.4 Y92.171 E.03351
G1 X108.542 Y92.082 E.03592
G1 X141.675 Y92.082 E1.03886
G1 X142.625 Y92.252 E.03026
G1 X143.456 Y92.601 E.02826
G1 X144.371 Y93.339 E.03686
G1 X145.102 Y94.464 E.04207
G1 X145.418 Y95.797 E.04295
G1 X145.415 Y114.207 E.57723
G1 X145.236 Y115.165 E.03056
M73 P2 R30
M73 Q2 S30
G1 X144.842 Y116.049 E.03035
G1 X144.174 Y116.855 E.03282
G1 X143.408 Y117.431 E.03005
G1 X141.718 Y117.918 E.05514
G1 X107.916 Y117.918 E1.05984
G1 X106.867 Y117.65 E.03395
G1 X106.318 Y117.383 E.01914
G1 X105.503 Y116.682 E.03371
G1 X105.047 Y116.063 E.02411
G1 X104.582 Y114.596 E.04825
G1 X104.582 Y95.476 E.59949
G1 X104.741 Y94.651 E.02634
G1 X105.019 Y94.016 E.02173
M204 S1000
G1 X105.363 Y94.169 F10800
M204 S800
G1 F1200
G1 X105.412 Y94.059 E.00378
G1 X106.178 Y93.198 E.03613
G1 X106.608 Y92.883 E.01671
G1 X107.509 Y92.533 E.03031
G1 X108.548 Y92.459 E.03266
G1 X141.658 Y92.459 E1.03814
G1 X142.536 Y92.619 E.02798
G1 X143.283 Y92.937 E.02546
G1 X144.108 Y93.611 E.0334
G1 X144.767 Y94.64 E.03831
G1 X145.041 Y95.818 E.03792
G1 X145.041 Y114.157 E.57501
G1 X144.882 Y115.035 E.02798
G1 X144.535 Y115.829 E.02717
G1 X143.899 Y116.597 E.03127
G1 X143.211 Y117.107 E.02685
G1 X141.692 Y117.541 E.04953
G1 X107.941 Y117.541 E1.05824
G1 X106.982 Y117.291 E.03107
G1 X106.508 Y117.056 E.01659
G1 X105.767 Y116.412 E.03078
G1 X105.37 Y115.866 E.02117
G1 X104.959 Y114.568 E.04269
G1 X104.959 Y95.495 E.59802
G1 X105.106 Y94.746 E.02393
G1 X105.338 Y94.224 E.01791
M204 S1000
G1 X105.683 Y94.377 F10800
M204 S800
G1 F1200
G1 X105.744 Y94.24 E.0047
G1 X106.443 Y93.467 E.03268
G1 X106.808 Y93.204 E.01411
G1 X107.615 Y92.896 E.02708
G1 X108.553 Y92.836 E.02947
G1 X141.64 Y92.836 E1.03742
G1 X142.446 Y92.985 E.0257
G1 X143.107 Y93.272 E.02259
G1 X143.845 Y93.883 E.03004
G1 X144.408 Y94.758 E.03262
G1 X144.664 Y95.841 E.03489
G1 X144.664 Y114.139 E.57372
G1 X144.515 Y114.944 E.02567
G1 X144.201 Y115.651 E.02426
G1 X143.626 Y116.336 E.02804
G1 X143.016 Y116.783 E.02371
G1 X141.667 Y117.164 E.04395
G1 X107.966 Y117.164 E1.05667
G1 X107.099 Y116.932 E.02814
G1 X106.7 Y116.731 E.01401
G1 X106.033 Y116.144 E.02786
G1 X105.694 Y115.671 E.01825
G1 X105.336 Y114.539 E.03723
G1 X105.336 Y95.513 E.59655
G1 X105.46 Y94.879 E.02026
G1 X105.659 Y94.432 E.01534
M204 S1000
G1 X106.001 Y94.587 F10800
M204 S800
G1 F1200
G1 X106.074 Y94.425 E.00557
G1 X106.706 Y93.738 E.02927
G1 X107.005 Y93.526 E.01149
G1 X107.719 Y93.259 E.0239
G1 X108.557 Y93.213 E.02631
G1 X141.622 Y93.214 E1.03673
G1 X142.354 Y93.352 E.02336
G1 X142.93 Y93.605 E.01973
G1 X143.579 Y94.151 E.02659
G1 X144.071 Y94.931 E.02892
G1 X144.287 Y95.862 E.02997
G1 X144.287 Y114.121 E.5725
G1 X144.149 Y114.853 E.02336
M73 P3 R30
M73 Q3 S30
G1 X143.895 Y115.429 E.01974
G1 X143.352 Y116.075 E.02646
G1 X142.824 Y116.457 E.02043
G1 X141.641 Y116.787 E.03851
G1 X107.992 Y116.787 E1.05504
G1 X107.219 Y116.574 E.02514
G1 X106.895 Y116.407 E.01143
G1 X106.301 Y115.878 E.02494
G1 X106.019 Y115.478 E.01535
G1 X105.713 Y114.51 E.03183
G1 X105.713 Y95.532 E.59504
G1 X105.825 Y94.975 E.01781
G1 X105.976 Y94.642 E.01146
M204 S1000
G1 X106.316 Y94.799 F10800
M204 S800
G1 F1200
G1 X106.403 Y94.612 E.00647
G1 X106.966 Y94.012 E.0258
G1 X107.198 Y93.85 E.00887
G1 X107.819 Y93.624 E.02072
G1 X108.561 Y93.59 E.02329
G1 X141.604 Y93.591 E1.03604
G1 X142.26 Y93.717 E.02094
G1 X142.749 Y93.937 E.01681
G1 X143.312 Y94.419 E.02324
G1 X143.712 Y95.049 E.0234
G1 X143.909 Y95.884 E.0269
G1 X143.909 Y114.103 E.57124
G1 X143.783 Y114.759 E.02094
G1 X143.563 Y115.249 E.01684
G1 X143.082 Y115.812 E.02322
G1 X142.633 Y116.13 E.01725
G1 X141.616 Y116.409 E.03307
G1 X108.019 Y116.41 E1.05341
G1 X107.343 Y116.217 E.02204
G1 X107.093 Y116.086 E.00885
G1 X106.571 Y115.614 E.02207
G1 X106.345 Y115.288 E.01244
G1 X106.09 Y114.481 E.02654
G1 X106.09 Y95.552 E.59351
G1 X106.189 Y95.074 E.01531
G1 X106.291 Y94.853 E.00763
M204 S1000
G1 X106.63 Y95.013 F10800
M204 S800
G1 F1200
G1 X106.73 Y94.802 E.00732
G1 X107.222 Y94.289 E.02229
G1 X107.388 Y94.177 E.00628
G1 X107.916 Y93.989 E.01757
G1 X108.563 Y93.967 E.0203
G1 X141.585 Y93.968 E1.03538
G1 X142.163 Y94.083 E.01848
G1 X142.566 Y94.268 E.0139
G1 X143.044 Y94.685 E.01989
G1 X143.353 Y95.169 E.018
G1 X143.532 Y95.907 E.02381
G1 X143.532 Y114.084 E.56993
G1 X143.418 Y114.662 E.01847
G1 X143.233 Y115.065 E.0139
G1 X142.814 Y115.545 E.01998
G1 X142.446 Y115.802 E.01407
G1 X141.592 Y116.032 E.02773
G1 X108.047 Y116.033 E1.05178
G1 X107.471 Y115.862 E.01884
G1 X107.295 Y115.767 E.00627
G1 X106.844 Y115.352 E.01922
G1 X106.673 Y115.1 E.00955
G1 X106.467 Y114.452 E.02132
G1 X106.467 Y95.573 E.59194
G1 X106.553 Y95.176 E.01274
M73 P3 R29
G1 X106.604 Y95.067 E.00377
M204 S1000
G1 X106.945 Y95.229 F10800
M204 S800
G1 F1200
G1 X107.056 Y94.993 E.00818
G1 X107.474 Y94.57 E.01865
G1 X107.572 Y94.507 E.00365
G1 X108.009 Y94.356 E.0145
G1 X108.563 Y94.345 E.01737
G1 X141.565 Y94.345 E1.03475
G1 X142.064 Y94.447 E.01597
G1 X142.378 Y94.596 E.0109
G1 X142.774 Y94.949 E.01663
G1 X142.995 Y95.292 E.01279
G1 X143.155 Y95.931 E.02065
G1 X143.155 Y114.064 E.56855
G1 X143.053 Y114.563 E.01597
G1 X142.904 Y114.878 E.01093
G1 X142.55 Y115.275 E.01668
G1 X142.261 Y115.471 E.01095
G1 X141.568 Y115.655 E.02248
G1 X108.077 Y115.655 E1.05009
G1 X107.604 Y115.509 E.01552
M73 P4 R29
M73 Q4 S30
G1 X107.502 Y115.451 E.00368
G1 X107.119 Y115.094 E.01642
G1 X107.003 Y114.916 E.00666
G1 X106.845 Y114.422 E.01626
G1 X106.845 Y95.593 E.59037
G1 X106.92 Y95.283 E.01
M204 S1000
G1 X107.261 Y95.444 F10800
M204 S800
G1 F1200
G1 X107.382 Y95.186 E.00893
G1 X107.749 Y94.839 E.01584
G1 X108.049 Y94.732 E.00999
G1 X108.565 Y94.722 E.01618
G1 X141.545 Y94.722 E1.03406
G1 X141.96 Y94.81 E.0133
G1 X142.186 Y94.921 E.00789
G1 X142.502 Y95.211 E.01345
G1 X142.639 Y95.419 E.00781
G1 X142.778 Y95.956 E.01739
G1 X142.778 Y114.044 E.56714
G1 X142.69 Y114.46 E.01333
G1 X142.579 Y114.685 E.00787
G1 X142.289 Y115.002 E.01347
G1 X142.082 Y115.139 E.00778
G1 X141.544 Y115.278 E.01742
G1 X108.108 Y115.278 E1.04836
G1 X107.747 Y115.159 E.01192
G1 X107.398 Y114.839 E.01485
G1 X107.335 Y114.738 E.00373
G1 X107.222 Y114.392 E.01141
G1 X107.222 Y95.612 E.58883
G1 X107.245 Y95.501 E.00355
M204 S1000
G1 X107.605 Y95.597 F10800
M204 S800
G1 F1200
G1 X107.707 Y95.382 E.00746
G1 X107.931 Y95.175 E.00956
G1 X108.143 Y95.099 E.00706
G1 X141.523 Y95.099 E1.04661
G1 X141.852 Y95.172 E.01057
M73 Q4 S29
G1 X141.986 Y95.242 E.00474
G1 X142.224 Y95.466 E.01025
G1 X142.303 Y95.592 E.00466
G1 X142.401 Y95.978 E.01249
G1 X142.401 Y114.022 E.56576
G1 X142.328 Y114.351 E.01057
G1 X142.258 Y114.486 E.00477
G1 X142.034 Y114.724 E.01025
G1 X141.908 Y114.803 E.00466
G1 X141.522 Y114.901 E.01249
G1 X108.143 Y114.901 E1.04658
G1 X107.931 Y114.825 E.00706
G1 X107.696 Y114.608 E.01003
G1 X107.599 Y114.357 E.00844
G1 X107.599 Y95.657 E.58633
M204 S1000
G1 X107.976 Y95.685 F10800
M204 S800
G1 F1200
G1 X108.004 Y95.616 E.00233
G1 X108.116 Y95.504 E.00497
G1 X108.185 Y95.476 E.00233
G1 X141.5 Y95.476 E1.04457
G1 X141.734 Y95.532 E.00754
G1 X141.939 Y95.715 E.00862
G1 X142.024 Y96.001 E.00935
G1 X142.024 Y113.999 E.56431
G1 X141.968 Y114.234 E.00757
G1 X141.785 Y114.439 E.00862
G1 X141.499 Y114.524 E.00935
G1 X108.185 Y114.524 E1.04454
G1 X108.116 Y114.496 E.00233
G1 X108.004 Y114.384 E.00497
G1 X107.976 Y114.315 E.00233
G1 X107.976 Y95.745 E.58225
M204 S1000
; printing object DadsYellowHandleNeedleNoseToolHolderTemplate-Part.stl id:0 copy 0
G1 X108.558 Y96.058 F10800
M204 S800
;TYPE:External perimeter
;WIDTH:0.586896
G1 F1200
G1 X108.886 Y96.038 E.01486
;WIDTH:0.547063
G1 X109.214 Y96.018 E.01378
;WIDTH:0.50723
G1 X140.786 Y96.018 E1.21892
;WIDTH:0.546958
G1 X141.114 Y96.038 E.01377
;WIDTH:0.586788
M73 P5 R29
M73 Q5 S29
G1 X141.442 Y96.058 E.01486
G1 X141.462 Y96.386 E.01486
;WIDTH:0.546972
G1 X141.482 Y96.714 E.01377
;WIDTH:0.507155
G1 X141.482 Y113.286 E.6397
;WIDTH:0.510672
G1 X141.48 Y113.366 E.00311
;WIDTH:0.548739
G1 X141.461 Y113.654 E.01214
;WIDTH:0.586806
G1 X141.442 Y113.942 E.01305
G1 X141.114 Y113.962 E.01486
;WIDTH:0.546982
G1 X140.786 Y113.982 E.01377
;WIDTH:0.507231
G1 X109.214 Y113.982 E1.21892
;WIDTH:0.547064
G1 X108.886 Y113.962 E.01378
;WIDTH:0.586897
G1 X108.558 Y113.942 E.01486
G1 X108.538 Y113.614 E.01486
;WIDTH:0.547066
G1 X108.518 Y113.286 E.01378
;WIDTH:0.507235
G1 X108.518 Y96.714 E.63981
;WIDTH:0.547066
G1 X108.538 Y96.386 E.01378
;WIDTH:0.586896
G1 X108.554 Y96.118 E.01214
M204 S1000
;WIPE_START
G1 F8640
G1 X108.886 Y96.038 E-.07885
G1 X109.214 Y96.018 E-.07588
G1 X112.009 Y96.018 E-.64527
;WIPE_END
G1 Z.6 F720
G1 X109.486 Y96.482 F10800
G1 Z.2 F720
G1 E.8 F2100
M204 S800
;WIDTH:0.50723
G1 F1200
G1 X140.786 Y96.482 E1.20842
;WIDTH:0.546958
G1 X140.882 Y96.502 E.00411
;WIDTH:0.586788
G1 X140.978 Y96.522 E.00443
G1 X140.998 Y96.618 E.00443
;WIDTH:0.546972
G1 X141.018 Y96.714 E.00411
;WIDTH:0.507155
G1 X141.018 Y113.286 E.6397
;WIDTH:0.546981
G1 X140.998 Y113.382 E.00411
;WIDTH:0.586806
G1 X140.978 Y113.478 E.00443
G1 X140.882 Y113.498 E.00443
;WIDTH:0.546982
G1 X140.786 Y113.518 E.00411
;WIDTH:0.507231
G1 X109.214 Y113.518 E1.21892
;WIDTH:0.547064
G1 X109.118 Y113.498 E.00411
;WIDTH:0.586897
G1 X109.022 Y113.478 E.00444
G1 X109.002 Y113.382 E.00444
;WIDTH:0.547066
G1 X108.982 Y113.286 E.00411
;WIDTH:0.507235
G1 X108.982 Y96.714 E.63981
;WIDTH:0.547066
G1 X109.002 Y96.618 E.00411
;WIDTH:0.586896
G1 X109.022 Y96.522 E.00444
G1 X109.118 Y96.502 E.00444
;WIDTH:0.547063
G1 X109.214 Y96.482 E.00411
;WIDTH:0.50723
G1 X109.426 Y96.482 E.00818
M204 S1000
; stop printing object DadsYellowHandleNeedleNoseToolHolderTemplate-Part.stl id:0 copy 0
M106 S84.15
;LAYER_CHANGE
;Z:0.4
;HEIGHT:0.2
;BEFORE_LAYER_CHANGE
G92 E0.0
;0.4


;WIPE_START
G1 F8640
G1 X112.891 Y96.482 E-.8
;WIPE_END
G1 Z.6 F720
;AFTER_LAYER_CHANGE
;0.4
M104 S210 ; set temperature
G1 X112.893 Y88.288 F10800
G1 Z.4 F720
G1 E.8 F2100
;TYPE:Skirt/Brim
;WIDTH:0.42
G1 F3000
G1 X141.875 Y88.296 E.90871
G1 X143.086 Y88.451 E.03828
G1 X144.1 Y88.738 E.03304
G1 X145.369 Y89.327 E.04387
G1 X146.368 Y90.017 E.03807
G1 X147.494 Y91.145 E.04997
G1 X148.349 Y92.452 E.04897
G1 X148.932 Y93.935 E.04996
G1 X149.13 Y94.878 E.03021
G1 X149.211 Y95.809 E.0293
G1 X149.198 Y114.467 E.58501
G1 X149.049 Y115.586 E.0354
G1 X148.638 Y116.924 E.04389
G1 X148.173 Y117.869 E.03302
G1 X147.483 Y118.868 E.03807
G1 X146.355 Y119.994 E.04997
G1 X145.047 Y120.849 E.049
G1 X143.565 Y121.432 E.04993
G1 X141.895 Y121.703 E.05305
G1 X106.152 Y121.713 E1.1207
G1 X104.471 Y121.017 E.05705
G1 X101.483 Y118.029 E.13249
G1 X100.787 Y116.348 E.05705
G1 X100.787 Y93.652 E.71162
G1 X101.483 Y91.971 E.05705
G1 X104.471 Y88.983 E.13249
G1 X106.152 Y88.287 E.05705
G1 X112.833 Y88.288 E.20948
; printing object DadsYellowHandleNeedleNoseToolHolderTemplate-Part.stl id:0 copy 0
;WIPE_START
G1 F8640
G1 X116.298 Y88.289 E-.8
;WIPE_END
G1 Z.8 F720
G1 X108.418 Y95.918 F10800
G1 Z.4 F720
G1 E.8 F2100
M204 S800
;TYPE:Perimeter
;WIDTH:0.449999
G1 F3600
G1 X108.912 Y95.918 E.01672
;WIDTH:0.492748
