; generated by PrusaSlicer 2.6.1+linux-x64-GTK3 on 2023-09-15 at 18:12:15 UTC


;
;
; 

; external perimeters extrusion width = 0.45mm
; perimeters extrusion width = 0.45mm
; infill extrusion width = 0.45mm
; solid infill extrusion width = 0.45mm
; top infill extrusion width = 0.40mm
; first layer extrusion width = 0.42mm

M73 P0 R38
M73 Q0 S38
M201 X1000 Y1000 Z200 E5000 ; sets maximum accelerations, mm/sec^2
M203 X200 Y200 Z12 E120 ; sets maximum feedrates, mm / sec
M204 S1250 T1250 ; sets acceleration (S) and retract acceleration (R), mm/sec^2
M205 X8.00 Y8.00 Z0.40 E4.50 ; sets the jerk limits, mm/sec
M205 S0 T0 ; sets the minimum extruding and travel feed rate, mm/sec
;TYPE:Custom
M862.3 P "MK3S" ; printer model check
M862.1 P0.4 ; nozzle diameter check
M115 U3.13.0 ; tell printer latest fw version
G90 ; use absolute coordinates
M83 ; extruder relative mode
M104 S215 ; set extruder temp
M140 S60 ; set bed temp
M190 S60 ; wait for bed temp
M109 S215 ; wait for extruder temp
G28 W ; home all without mesh bed level
G80 ; mesh bed leveling

G1 Z0.2 F720
G1 Y-3 F1000 ; go outside print area
G92 E0
G1 X60 E9 F1000 ; intro line
G1 X100 E12.5 F1000 ; intro line

G92 E0
M221 S95

; Don't change E values below. Excessive value can damage the printer.

G21 ; set units to millimeters
G90 ; use absolute coordinates
M83 ; use relative distances for extrusion
M900 K0.05 ; Filament gcode LA 1.5
M900 K30 ; Filament gcode LA 1.0
M107
;LAYER_CHANGE
;Z:0.2
;HEIGHT:0.2
;BEFORE_LAYER_CHANGE
G92 E0.0
;0.2


G1 E-.8 F2100
G1 Z.4 F720
;AFTER_LAYER_CHANGE
;0.2
G1 X97.374 Y89.723 F10800
G1 Z.2 F720
G1 E.8 F2100
M204 S800
;TYPE:Skirt/Brim
;WIDTH:0.42
G1 F1200
G1 X98.145 Y89.006 E.03301
G1 X98.868 Y88.486 E.02792
G1 X99.794 Y87.984 E.03303
G1 X100.779 Y87.613 E.033
G1 X101.76 Y87.388 E.03156
G1 X102.809 Y87.289 E.03304
G1 X147.128 Y87.288 E1.38959
G1 X148.574 Y87.449 E.04562
G1 X149.939 Y87.868 E.04477
G1 X151.021 Y88.418 E.03806
G1 X152.145 Y89.253 E.0439
G1 X152.984 Y90.133 E.03812
G1 X153.856 Y91.466 E.04994
G1 X154.382 Y92.764 E.04391
G1 X154.647 Y93.99 E.03933
G1 X154.712 Y94.861 E.02739
G1 X154.713 Y115.092 E.63433
G1 X154.645 Y116.016 E.02905
G1 X154.262 Y117.599 E.05107
G1 X153.59 Y119.008 E.04895
G1 X152.626 Y120.277 E.04997
G1 X151.855 Y120.994 E.03301
G1 X151.132 Y121.514 E.02792
G1 X150.206 Y122.016 E.03303
G1 X149.221 Y122.387 E.033
G1 X148.24 Y122.612 E.03156
G1 X147.192 Y122.711 E.03301
G1 X102.624 Y122.704 E1.3974
G1 X100.918 Y122.427 E.05419
G1 X100.075 Y122.138 E.02794
G1 X99.131 Y121.673 E.03299
G1 X97.723 Y120.626 E.05501
M73 P0 R37
G1 X97.006 Y119.855 E.03301
G1 X96.487 Y119.132 E.02791
G1 X95.985 Y118.206 E.03303
G1 X95.613 Y117.221 E.03301
G1 X95.388 Y116.24 E.03156
G1 X95.297 Y115.395 E.02665
G1 X95.319 Y94.301 E.66139
G1 X95.451 Y93.414 E.02812
G1 X95.685 Y92.554 E.02795
G1 X96.41 Y90.992 E.05399
G1 X97.338 Y89.771 E.04809
M204 S1000
;WIPE_START
G1 F8640
G1 X98.145 Y89.006 E-.25676
G1 X98.868 Y88.486 E-.20564
G1 X99.794 Y87.984 E-.24321
G1 X100.177 Y87.84 E-.09439
;WIPE_END
G1 Z.6 F720
G1 X99.417 Y91.475 F10800
G1 Z.2 F720
G1 E.8 F2100
M204 S800
G1 F1200
G1 X99.545 Y91.32 E.0063
G1 X100.588 Y90.557 E.04052
G1 X101.162 Y90.317 E.01951
G1 X102.717 Y89.951 E.05009
G1 X147.245 Y89.951 E1.39614
G1 X148.601 Y90.225 E.04338
G1 X149.159 Y90.431 E.01865
G1 X150.727 Y91.586 E.06106
G1 X151.24 Y92.266 E.02671
G1 X151.623 Y92.954 E.02469
G1 X152.049 Y94.752 E.05794
G1 X152.038 Y115.311 E.64461
G1 X151.802 Y116.558 E.03979
G1 X151.26 Y117.708 E.03986
G1 X150.454 Y118.682 E.03964
G1 X149.411 Y119.443 E.04048
G1 X148.838 Y119.683 E.01948
G1 X147.283 Y120.049 E.05009
G1 X102.821 Y120.049 E1.39407
G1 X101.491 Y119.817 E.04233
G1 X100.335 Y119.287 E.03987
G1 X99.32 Y118.455 E.04115
G1 X98.557 Y117.412 E.04052
M73 P1 R37
M73 Q1 S38
G1 X98.317 Y116.838 E.01951
G1 X97.951 Y115.283 E.05009
G1 X97.951 Y94.821 E.64157
G1 X98.183 Y93.491 E.04233
G1 X98.713 Y92.335 E.03987
G1 X99.379 Y91.521 E.03298
M204 S1000
G1 X99.668 Y91.756 F10800
M204 S800
G1 F1200
G1 X99.787 Y91.61 E.00591
G1 X100.792 Y90.875 E.03904
G1 X101.264 Y90.681 E.016
G1 X102.739 Y90.328 E.04755
G1 X147.226 Y90.328 E1.39486
G1 X148.51 Y90.591 E.04109
G1 X149.003 Y90.775 E.0165
G1 X150.443 Y91.834 E.05605
G1 X150.931 Y92.482 E.02543
G1 X151.281 Y93.114 E.02265
G1 X151.672 Y94.773 E.05344
G1 X151.664 Y115.26 E.64236
G1 X151.449 Y116.421 E.03702
G1 X150.954 Y117.486 E.03682
G1 X150.179 Y118.422 E.0381
G1 X149.209 Y119.125 E.03756
G1 X148.736 Y119.319 E.01603
G1 X147.261 Y119.672 E.04755
G1 X102.837 Y119.672 E1.39288
G1 X101.624 Y119.463 E.03859
G1 X100.553 Y118.979 E.03685
G1 X99.61 Y118.213 E.03809
G1 X98.875 Y117.208 E.03904
G1 X98.681 Y116.736 E.016
G1 X98.328 Y115.261 E.04755
G1 X98.328 Y94.837 E.64038
G1 X98.537 Y93.624 E.03859
G1 X99.021 Y92.553 E.03685
G1 X99.631 Y91.802 E.03034
M204 S1000
G1 X99.921 Y92.041 F10800
M204 S800
G1 F1200
G1 X100.063 Y91.868 E.00702
G1 X100.958 Y91.215 E.03474
G1 X101.368 Y91.043 E.01394
G1 X102.762 Y90.705 E.04497
G1 X147.206 Y90.705 E1.39351
G1 X148.418 Y90.957 E.03881
G1 X148.845 Y91.118 E.01431
G1 X150.158 Y92.083 E.05109
G1 X150.622 Y92.698 E.02416
G1 X150.938 Y93.273 E.02057
G1 X151.295 Y94.795 E.04902
G1 X151.289 Y115.21 E.6401
G1 X151.096 Y116.286 E.03428
G1 X150.647 Y117.267 E.03383
G1 X149.937 Y118.132 E.03509
G1 X149.042 Y118.785 E.03474
G1 X148.632 Y118.957 E.01394
G1 X147.238 Y119.295 E.04497
G1 X102.853 Y119.295 E1.39166
G1 X101.713 Y119.096 E.03628
G1 X100.733 Y118.647 E.0338
G1 X99.868 Y117.937 E.03509
G1 X99.215 Y117.042 E.03474
G1 X99.043 Y116.632 E.01394
G1 X98.705 Y115.238 E.04497
G1 X98.705 Y94.853 E.63916
G1 X98.904 Y93.713 E.03628
G1 X99.353 Y92.733 E.0338
G1 X99.883 Y92.087 E.0262
M204 S1000
G1 X100.172 Y92.322 F10800
M204 S800
G1 F1200
G1 X100.307 Y92.156 E.00671
G1 X101.126 Y91.553 E.03189
G1 X101.474 Y91.406 E.01184
G1 X102.785 Y91.082 E.04234
G1 X147.186 Y91.082 E1.39216
G1 X148.325 Y91.323 E.0365
G1 X148.687 Y91.461 E.01215
G1 X149.874 Y92.332 E.04616
G1 X150.312 Y92.914 E.02284
G1 X150.595 Y93.431 E.01848
G1 X150.918 Y94.816 E.04459
G1 X150.915 Y115.162 E.63793
G1 X150.743 Y116.154 E.03157
M73 Q1 S37
G1 X150.338 Y117.049 E.0308
G1 X149.693 Y117.844 E.0321
G1 X148.874 Y118.447 E.03189
G1 X148.526 Y118.594 E.01184
G1 X147.215 Y118.918 E.04234
G1 X102.869 Y118.918 E1.39044
G1 X101.846 Y118.743 E.03254
M73 P2 R37
M73 Q2 S37
G1 X100.951 Y118.338 E.0308
G1 X100.156 Y117.693 E.0321
G1 X99.553 Y116.874 E.03189
G1 X99.406 Y116.526 E.01184
G1 X99.082 Y115.215 E.04234
G1 X99.082 Y94.869 E.63793
G1 X99.257 Y93.846 E.03254
G1 X99.662 Y92.951 E.0308
G1 X100.135 Y92.368 E.02354
M204 S1000
G1 X100.425 Y92.602 F10800
M204 S800
G1 F1200
G1 X100.552 Y92.444 E.00636
G1 X101.296 Y91.89 E.02908
G1 X101.581 Y91.767 E.00973
G1 X102.809 Y91.459 E.0397
G1 X147.166 Y91.459 E1.39078
G1 X148.231 Y91.688 E.03416
G1 X148.527 Y91.803 E.00996
G1 X149.589 Y92.581 E.04128
G1 X150.002 Y93.13 E.02154
G1 X150.251 Y93.588 E.01635
G1 X150.541 Y94.838 E.04023
G1 X150.541 Y115.115 E.63577
G1 X150.388 Y116.023 E.02887
G1 X150.028 Y116.833 E.02779
G1 X149.448 Y117.556 E.02906
G1 X148.704 Y118.11 E.02908
G1 X148.419 Y118.233 E.00973
G1 X147.191 Y118.541 E.0397
G1 X102.885 Y118.541 E1.38918
G1 X101.977 Y118.388 E.02887
G1 X101.167 Y118.028 E.02779
G1 X100.444 Y117.448 E.02906
G1 X99.89 Y116.704 E.02908
G1 X99.767 Y116.419 E.00973
G1 X99.459 Y115.191 E.0397
G1 X99.459 Y94.885 E.63668
G1 X99.612 Y93.977 E.02887
G1 X99.972 Y93.167 E.02779
G1 X100.388 Y92.648 E.02086
M204 S1000
G1 X100.679 Y92.885 F10800
M204 S800
G1 F1200
G1 X100.829 Y92.7 E.00747
G1 X101.467 Y92.226 E.02492
G1 X101.69 Y92.129 E.00762
G1 X102.833 Y91.836 E.037
G1 X147.145 Y91.837 E1.38937
G1 X148.134 Y92.053 E.03174
G1 X148.364 Y92.144 E.00776
G1 X149.341 Y92.867 E.03811
G1 X149.69 Y93.341 E.01846
G1 X149.907 Y93.744 E.01435
G1 X150.164 Y94.859 E.03588
G1 X150.164 Y115.099 E.63461
G1 X150.021 Y115.935 E.02659
G1 X149.695 Y116.654 E.02475
G1 X149.171 Y117.3 E.02608
G1 X148.533 Y117.774 E.02492
G1 X148.31 Y117.871 E.00762
G1 X147.167 Y118.164 E.037
G1 X102.901 Y118.164 E1.38793
G1 X102.065 Y118.021 E.02659
G1 X101.346 Y117.695 E.02475
G1 X100.7 Y117.171 E.02608
G1 X100.226 Y116.533 E.02492
G1 X100.129 Y116.31 E.00762
G1 X99.836 Y115.167 E.037
G1 X99.836 Y94.901 E.63543
G1 X99.979 Y94.065 E.02659
G1 X100.305 Y93.346 E.02475
G1 X100.641 Y92.932 E.01672
M204 S1000
G1 X100.933 Y93.165 F10800
M204 S800
G1 F1200
G1 X101.075 Y92.987 E.00714
G1 X101.642 Y92.561 E.02224
G1 X101.802 Y92.489 E.0055
G1 X102.857 Y92.213 E.03419
G1 X147.124 Y92.214 E1.38796
G1 X148.035 Y92.417 E.02926
G1 X148.199 Y92.484 E.00555
G1 X149.054 Y93.113 E.03328
G1 X149.378 Y93.553 E.01713
G1 X149.562 Y93.899 E.01229
G1 X149.787 Y94.88 E.03156
G1 X149.787 Y115.084 E.63348
G1 X149.666 Y115.805 E.02292
G1 X149.385 Y116.439 E.02174
G1 X148.925 Y117.013 E.02306
G1 X148.358 Y117.439 E.02224
G1 X148.198 Y117.511 E.0055
G1 X147.143 Y117.787 E.03419
G1 X102.916 Y117.787 E1.38671
G1 X102.195 Y117.666 E.02292
G1 X101.561 Y117.385 E.02174
G1 X100.987 Y116.925 E.02306
G1 X100.561 Y116.358 E.02224
G1 X100.489 Y116.198 E.0055
G1 X100.213 Y115.143 E.03419
G1 X100.213 Y94.916 E.6342
G1 X100.334 Y94.195 E.02292
M73 P3 R37
M73 Q3 S37
G1 X100.615 Y93.561 E.02174
G1 X100.895 Y93.212 E.01403
M204 S1000
G1 X101.185 Y93.444 F10800
M204 S800
G1 F1200
G1 X101.322 Y93.272 E.00689
G1 X101.821 Y92.893 E.01965
G1 X101.917 Y92.849 E.00331
G1 X102.883 Y92.591 E.03135
G1 X147.102 Y92.591 E1.38646
G1 X147.933 Y92.781 E.02673
G1 X148.032 Y92.822 E.00336
G1 X148.768 Y93.36 E.02858
G1 X149.066 Y93.765 E.01577
G1 X149.217 Y94.053 E.0102
G1 X149.409 Y94.901 E.02726
G1 X149.409 Y115.068 E.63232
G1 X149.299 Y115.717 E.02064
G1 X149.052 Y116.261 E.01873
G1 X148.678 Y116.728 E.01876
G1 X148.179 Y117.107 E.01965
G1 X148.083 Y117.151 E.00331
G1 X147.117 Y117.409 E.03135
G1 X102.932 Y117.409 E1.38539
G1 X102.283 Y117.299 E.02064
M73 P3 R36
G1 X101.739 Y117.052 E.01873
G1 X101.272 Y116.678 E.01876
G1 X100.893 Y116.179 E.01965
G1 X100.849 Y116.083 E.00331
G1 X100.591 Y115.117 E.03135
G1 X100.591 Y94.932 E.63289
G1 X100.701 Y94.283 E.02064
G1 X100.948 Y93.739 E.01873
G1 X101.147 Y93.491 E.00997
M204 S1000
G1 X101.441 Y93.722 F10800
M204 S800
G1 F1200
G1 X101.572 Y93.556 E.00663
G1 X102.007 Y93.221 E.01721
G1 X102.909 Y92.968 E.02937
G1 X147.08 Y92.968 E1.38495
G1 X147.857 Y93.157 E.02507
G1 X148.482 Y93.608 E.02417
G1 X148.753 Y93.976 E.01433
G1 X148.871 Y94.204 E.00805
G1 X149.032 Y94.922 E.02307
G1 X149.032 Y115.053 E.63119
G1 X148.944 Y115.587 E.01697
G1 X148.74 Y116.047 E.01578
G1 X148.428 Y116.444 E.01583
G1 X147.993 Y116.779 E.01721
G1 X147.091 Y117.032 E.02937
G1 X102.947 Y117.032 E1.3841
G1 X102.413 Y116.944 E.01697
G1 X101.953 Y116.74 E.01578
G1 X101.556 Y116.428 E.01583
G1 X101.221 Y115.993 E.01721
G1 X100.968 Y115.091 E.02937
G1 X100.968 Y94.947 E.6316
G1 X101.056 Y94.413 E.01697
G1 X101.26 Y93.953 E.01578
G1 X101.404 Y93.769 E.00733
M204 S1000
G1 X101.695 Y94.004 F10800
M204 S800
G1 F1200
G1 X101.849 Y93.812 E.00772
G1 X102.191 Y93.555 E.01341
G1 X102.935 Y93.345 E.02424
G1 X147.057 Y93.345 E1.38341
G1 X147.685 Y93.497 E.02026
G1 X148.197 Y93.857 E.01962
G1 X148.439 Y94.187 E.01283
G1 X148.524 Y94.353 E.00585
G1 X148.655 Y94.942 E.01892
G1 X148.655 Y115.038 E.6301
G1 X148.589 Y115.458 E.01333
G1 X148.406 Y115.871 E.01416
G1 X148.151 Y116.188 E.01276
G1 X147.809 Y116.445 E.01341
G1 X147.065 Y116.655 E.02424
G1 X102.962 Y116.655 E1.38282
G1 X102.542 Y116.589 E.01333
G1 X102.129 Y116.406 E.01416
G1 X101.812 Y116.151 E.01276
G1 X101.555 Y115.809 E.01341
G1 X101.345 Y115.065 E.02424
G1 X101.345 Y94.962 E.63032
G1 X101.411 Y94.542 E.01333
G1 X101.594 Y94.129 E.01416
G1 X101.657 Y94.051 E.00314
M204 S1000
G1 X101.951 Y94.287 F10800
M204 S800
G1 F1200
G1 X102.127 Y94.069 E.00878
G1 X102.385 Y93.88 E.01003
G1 X102.96 Y93.722 E.0187
G1 X147.037 Y93.722 E1.382
G1 X147.505 Y93.829 E.01505
M73 P4 R36
M73 Q4 S37
G1 X147.913 Y94.107 E.01548
G1 X148.125 Y94.396 E.01124
G1 X148.175 Y94.498 E.00356
G1 X148.278 Y94.963 E.01493
G1 X148.278 Y115.025 E.62903
G1 X148.232 Y115.334 E.0098
G1 X148.095 Y115.656 E.01097
G1 X147.873 Y115.931 E.01108
G1 X147.615 Y116.12 E.01003
G1 X147.04 Y116.278 E.0187
G1 X102.975 Y116.278 E1.38163
G1 X102.666 Y116.232 E.0098
G1 X102.344 Y116.095 E.01097
G1 X102.069 Y115.873 E.01108
G1 X101.88 Y115.615 E.01003
G1 X101.722 Y115.04 E.0187
G1 X101.722 Y94.975 E.62912
G1 X101.768 Y94.666 E.0098
G1 X101.913 Y94.334 E.01136
M204 S1000
G1 X102.237 Y94.524 F10800
M204 S800
G1 F1200
G1 X102.398 Y94.332 E.00786
G1 X102.573 Y94.208 E.00672
G1 X102.984 Y94.099 E.01333
G1 X147.019 Y94.099 E1.38069
G1 X147.332 Y94.165 E.01003
G1 X147.63 Y94.36 E.01117
G1 X147.808 Y94.602 E.00942
G1 X147.901 Y94.983 E.0123
G1 X147.901 Y115.01 E.62793
G1 X147.864 Y115.249 E.00758
G1 X147.763 Y115.476 E.00779
G1 X147.602 Y115.668 E.00786
G1 X147.427 Y115.792 E.00672
G1 X147.016 Y115.901 E.01333
G1 X102.99 Y115.901 E1.3804
G1 X102.751 Y115.864 E.00758
M73 Q4 S36
G1 X102.524 Y115.763 E.00779
G1 X102.332 Y115.602 E.00786
G1 X102.208 Y115.427 E.00672
G1 X102.099 Y115.016 E.01333
G1 X102.099 Y94.99 E.6279
G1 X102.136 Y94.751 E.00758
G1 X102.213 Y94.579 E.00591
M204 S1000
G1 X102.551 Y94.734 F10800
M204 S800
G1 F1200
G1 X102.64 Y94.623 E.00446
G1 X102.761 Y94.537 E.00465
G1 X103.005 Y94.476 E.00789
G1 X147.003 Y94.476 E1.37953
G1 X147.171 Y94.508 E.00536
G1 X147.351 Y94.616 E.00658
G1 X147.471 Y94.779 E.00635
G1 X147.524 Y95.006 E.00731
G1 X147.524 Y114.998 E.62684
G1 X147.506 Y115.13 E.00418
G1 X147.449 Y115.266 E.00462
G1 X147.36 Y115.377 E.00446
G1 X147.239 Y115.463 E.00465
G1 X146.995 Y115.524 E.00789
G1 X103.002 Y115.524 E1.37937
G1 X102.87 Y115.506 E.00418
G1 X102.734 Y115.449 E.00462
G1 X102.623 Y115.36 E.00446
G1 X102.537 Y115.239 E.00465
G1 X102.476 Y114.995 E.00789
G1 X102.476 Y95.002 E.62687
G1 X102.494 Y94.87 E.00418
G1 X102.528 Y94.79 E.00273
M204 S1000
; printing object LeatherrebarToolHolder-PartBody.stl id:0 copy 0
;WIPE_START
G1 F8640
G1 X102.64 Y94.623 E-.04643
G1 X102.761 Y94.537 E-.03428
G1 X103.005 Y94.476 E-.05807
G1 X105.869 Y94.476 E-.66122
;WIPE_END
G1 Z.6 F720
G1 X146.941 Y95.06 F10800
G1 Z.2 F720
G1 E.8 F2100
M204 S800
;TYPE:External perimeter
;WIDTH:0.586549
G1 F1200
G1 X146.962 Y95.387 E.01481
;WIDTH:0.546852
G1 X146.982 Y95.714 E.01373
;WIDTH:0.507154
G1 X146.982 Y114.286 E.7169
;WIDTH:0.510671
G1 X146.98 Y114.366 E.00311
;WIDTH:0.548738
G1 X146.961 Y114.654 E.01214
;WIDTH:0.586804
G1 X146.942 Y114.942 E.01305
G1 X146.614 Y114.962 E.01486
;WIDTH:0.54698
G1 X146.286 Y114.982 E.01377
;WIDTH:0.507155
G1 X103.714 Y114.982 E1.64333
;WIDTH:0.54698
G1 X103.386 Y114.962 E.01377
;WIDTH:0.586804
M73 P5 R36
G1 X103.058 Y114.942 E.01486
G1 X103.038 Y114.614 E.01486
;WIDTH:0.546979
G1 X103.018 Y114.286 E.01377
;WIDTH:0.507154
G1 X103.018 Y95.714 E.7169
;WIDTH:0.546978
G1 X103.038 Y95.386 E.01377
;WIDTH:0.586802
M73 Q5 S36
G1 X103.058 Y95.058 E.01486
G1 X103.386 Y95.038 E.01486
;WIDTH:0.546975
G1 X103.714 Y95.018 E.01377
;WIDTH:0.507147
G1 X146.286 Y95.019 E1.64331
;WIDTH:0.546637
G1 X146.613 Y95.039 E.01372
;WIDTH:0.586549
G1 X146.881 Y95.056 E.01214
M204 S1000
G1 X146.518 Y95.714 F10800
M204 S800
;WIDTH:0.507154
G1 F1200
G1 X146.518 Y114.286 E.7169
;WIDTH:0.546979
G1 X146.498 Y114.382 E.00411
;WIDTH:0.586804
G1 X146.478 Y114.478 E.00443
G1 X146.382 Y114.498 E.00443
;WIDTH:0.54698
G1 X146.286 Y114.518 E.00411
;WIDTH:0.507155
G1 X103.714 Y114.518 E1.64333
;WIDTH:0.54698
G1 X103.618 Y114.498 E.00411
;WIDTH:0.586804
G1 X103.522 Y114.478 E.00443
G1 X103.502 Y114.382 E.00443
;WIDTH:0.546979
G1 X103.482 Y114.286 E.00411
;WIDTH:0.507154
G1 X103.482 Y95.714 E.7169
;WIDTH:0.546978
G1 X103.502 Y95.618 E.00411
;WIDTH:0.586802
G1 X103.522 Y95.522 E.00443
G1 X103.618 Y95.502 E.00443
;WIDTH:0.546975
G1 X103.714 Y95.482 E.00411
;WIDTH:0.507147
G1 X146.286 Y95.482 E1.64331
;WIDTH:0.546636
G1 X146.382 Y95.502 E.00411
;WIDTH:0.586549
G1 X146.478 Y95.522 E.00443
G1 X146.498 Y95.618 E.00443
;WIDTH:0.546852
G1 X146.506 Y95.656 E.00163
M204 S1000
