; generated by PrusaSlicer 2.6.1+linux-x64-GTK3 on 2023-09-20 at 01:53:11 UTC


;
;
; 

; external perimeters extrusion width = 0.45mm
; perimeters extrusion width = 0.45mm
; infill extrusion width = 0.45mm
; solid infill extrusion width = 0.45mm
; top infill extrusion width = 0.40mm
; first layer extrusion width = 0.42mm

M73 P0 R124
M73 Q0 S126
M201 X1000 Y1000 Z200 E5000 ; sets maximum accelerations, mm/sec^2
M203 X200 Y200 Z12 E120 ; sets maximum feedrates, mm / sec
M204 S1250 T1250 ; sets acceleration (S) and retract acceleration (R), mm/sec^2
M205 X8.00 Y8.00 Z0.40 E4.50 ; sets the jerk limits, mm/sec
M205 S0 T0 ; sets the minimum extruding and travel feed rate, mm/sec
;TYPE:Custom
M862.3 P "MK3S" ; printer model check
M862.1 P0.4 ; nozzle diameter check
M115 U3.13.0 ; tell printer latest fw version
G90 ; use absolute coordinates
M83 ; extruder relative mode
M104 S215 ; set extruder temp
M140 S60 ; set bed temp
M190 S60 ; wait for bed temp
M109 S215 ; wait for extruder temp
G28 W ; home all without mesh bed level
G80 ; mesh bed leveling

G1 Z0.2 F720
G1 Y-3 F1000 ; go outside print area
G92 E0
G1 X60 E9 F1000 ; intro line
G1 X100 E12.5 F1000 ; intro line

G92 E0
M221 S95

; Don't change E values below. Excessive value can damage the printer.

G21 ; set units to millimeters
G90 ; use absolute coordinates
M83 ; use relative distances for extrusion
M900 K0.05 ; Filament gcode LA 1.5
M900 K30 ; Filament gcode LA 1.0
M107
;LAYER_CHANGE
;Z:0.2
;HEIGHT:0.2
;BEFORE_LAYER_CHANGE
G92 E0.0
;0.2


G1 E-.8 F2100
G1 Z.4 F720
;AFTER_LAYER_CHANGE
;0.2
G1 X14.06 Y20.317 F10800
G1 Z.2 F720
G1 E.8 F2100
M204 S800
;TYPE:Skirt/Brim
;WIDTH:0.42
G1 F1200
G1 X15 Y20.123 E.03009
G1 X235 Y20.123 E6.89795
G1 X236.307 Y20.515 E.04278
M73 P0 R123
G1 X237.183 Y21.56 E.04275
G1 X237.377 Y22.5 E.03009
G1 X237.377 Y187.5 E5.17346
G1 X236.985 Y188.807 E.04278
G1 X235.94 Y189.683 E.04275
G1 X235 Y189.877 E.03009
G1 X15 Y189.877 E6.89795
G1 X13.693 Y189.485 E.04278
G1 X12.817 Y188.44 E.04275
G1 X12.623 Y187.5 E.03009
G1 X12.623 Y22.5 E5.17346
G1 X13.015 Y21.193 E.04278
G1 X14.014 Y20.355 E.04088
M204 S1000
; printing object base grid 3x4 square.STL id:0 copy 0
;WIPE_START
G1 F8640
G1 X15 Y20.123 E-.23389
G1 X17.452 Y20.123 E-.56611
;WIPE_END
G1 Z.6 F720
G1 X231.95 Y76.445 F10800
G1 Z.2 F720
G1 E.8 F2100
M204 S800
;TYPE:Perimeter
;WIDTH:0.419999
G1 F1200
G1 X231.95 Y78.555 E.06616
G1 X231.221 Y78.45 E.02309
G1 X183.779 Y78.45 E1.48751
G1 X183.532 Y78.461 E.00775
G1 X182.884 Y78.596 E.02075
G1 X182.21 Y78.925 E.02352
G1 X181.779 Y79.279 E.01749
G1 X181.425 Y79.71 E.01749
G1 X181.096 Y80.384 E.02352
G1 X180.989 Y80.814 E.01389
G1 X180.95 Y81.279 E.01463
G1 X180.95 Y128.721 E1.48751
G1 X180.961 Y128.968 E.00775
G1 X181.096 Y129.616 E.02075
G1 X181.425 Y130.29 E.02352
G1 X181.779 Y130.721 E.01749
G1 X182.21 Y131.075 E.01749
G1 X182.884 Y131.404 E.02352
G1 X183.314 Y131.511 E.01389
G1 X183.779 Y131.55 E.01463
G1 X231.221 Y131.55 E1.48751
G1 X231.95 Y131.445 E.02309
G1 X231.95 Y133.555 E.06616
G1 X231.221 Y133.45 E.02309
G1 X183.779 Y133.45 E1.48751
G1 X183.532 Y133.461 E.00775
G1 X182.884 Y133.596 E.02075
G1 X182.21 Y133.925 E.02352
G1 X181.779 Y134.279 E.01749
G1 X181.425 Y134.71 E.01749
G1 X181.096 Y135.384 E.02352
M73 Q0 S125
G1 X180.989 Y135.814 E.01389
G1 X180.95 Y136.279 E.01463
G1 X180.95 Y183.721 E1.48751
G1 X181.055 Y184.45 E.02309
G1 X178.945 Y184.45 E.06616
G1 X179.05 Y183.721 E.02309
G1 X179.05 Y136.279 E1.48751
G1 X179.011 Y135.814 E.01463
G1 X178.904 Y135.384 E.01389
G1 X178.575 Y134.71 E.02352
G1 X178.221 Y134.279 E.01749
G1 X177.79 Y133.925 E.01749
G1 X177.116 Y133.596 E.02352
G1 X176.686 Y133.489 E.01389
G1 X176.221 Y133.45 E.01463
G1 X128.779 Y133.45 E1.48751
G1 X128.532 Y133.461 E.00775
G1 X127.884 Y133.596 E.02075
G1 X127.21 Y133.925 E.02352
G1 X126.779 Y134.279 E.01749
G1 X126.425 Y134.71 E.01749
G1 X126.096 Y135.384 E.02352
G1 X125.989 Y135.814 E.01389
G1 X125.95 Y136.279 E.01463
G1 X125.95 Y183.721 E1.48751
G1 X126.055 Y184.45 E.02309
G1 X123.945 Y184.45 E.06616
G1 X124.05 Y183.721 E.02309
G1 X124.05 Y136.279 E1.48751
G1 X124.011 Y135.814 E.01463
M73 P0 R122
G1 X123.904 Y135.384 E.01389
G1 X123.575 Y134.71 E.02352
G1 X123.221 Y134.279 E.01749
G1 X122.79 Y133.925 E.01749
G1 X122.116 Y133.596 E.02352
G1 X121.686 Y133.489 E.01389
G1 X121.221 Y133.45 E.01463
G1 X73.779 Y133.45 E1.48751
G1 X73.532 Y133.461 E.00775
G1 X72.884 Y133.596 E.02075
G1 X72.21 Y133.925 E.02352
G1 X71.779 Y134.279 E.01749
G1 X71.425 Y134.71 E.01749
G1 X71.096 Y135.384 E.02352
G1 X70.989 Y135.814 E.01389
G1 X70.95 Y136.279 E.01463
G1 X70.95 Y183.721 E1.48751
G1 X71.055 Y184.45 E.02309
M73 P1 R122
M73 Q1 S125
G1 X68.945 Y184.45 E.06616
G1 X69.05 Y183.721 E.02309
G1 X69.05 Y136.279 E1.48751
G1 X69.011 Y135.814 E.01463
G1 X68.904 Y135.384 E.01389
G1 X68.575 Y134.71 E.02352
G1 X68.221 Y134.279 E.01749
G1 X67.79 Y133.925 E.01749
G1 X67.116 Y133.596 E.02352
G1 X66.686 Y133.489 E.01389
G1 X66.221 Y133.45 E.01463
G1 X18.779 Y133.45 E1.48751
G1 X18.05 Y133.555 E.02309
G1 X18.05 Y131.445 E.06616
G1 X18.779 Y131.55 E.02309
G1 X66.221 Y131.55 E1.48751
G1 X66.686 Y131.511 E.01463
G1 X67.116 Y131.404 E.01389
G1 X67.79 Y131.075 E.02352
G1 X68.221 Y130.721 E.01749
G1 X68.575 Y130.29 E.01749
G1 X68.904 Y129.616 E.02352
G1 X69.011 Y129.186 E.01389
G1 X69.05 Y128.721 E.01463
G1 X69.05 Y81.279 E1.48751
G1 X69.011 Y80.814 E.01463
G1 X68.904 Y80.384 E.01389
G1 X68.575 Y79.71 E.02352
G1 X68.221 Y79.279 E.01749
G1 X67.79 Y78.925 E.01749
G1 X67.116 Y78.596 E.02352
G1 X66.686 Y78.489 E.01389
G1 X66.221 Y78.45 E.01463
G1 X18.779 Y78.45 E1.48751
G1 X18.05 Y78.555 E.02309
G1 X18.05 Y76.445 E.06616
G1 X18.779 Y76.55 E.02309
G1 X66.221 Y76.55 E1.48751
G1 X66.686 Y76.511 E.01463
G1 X67.116 Y76.404 E.01389
G1 X67.79 Y76.075 E.02352
G1 X68.221 Y75.721 E.01749
G1 X68.575 Y75.29 E.01749
G1 X68.904 Y74.616 E.02352
G1 X69.011 Y74.186 E.01389
G1 X69.05 Y73.721 E.01463
G1 X69.05 Y26.279 E1.48751
G1 X68.945 Y25.55 E.02309
G1 X71.055 Y25.55 E.06616
G1 X70.95 Y26.279 E.02309
G1 X70.95 Y73.721 E1.48751
G1 X70.961 Y73.968 E.00775
G1 X71.096 Y74.616 E.02075
G1 X71.425 Y75.29 E.02352
G1 X71.779 Y75.721 E.01749
G1 X72.21 Y76.075 E.01749
G1 X72.884 Y76.404 E.02352
G1 X73.314 Y76.511 E.01389
G1 X73.779 Y76.55 E.01463
G1 X121.221 Y76.55 E1.48751
G1 X121.686 Y76.511 E.01463
G1 X122.116 Y76.404 E.01389
G1 X122.79 Y76.075 E.02352
G1 X123.221 Y75.721 E.01749
G1 X123.575 Y75.29 E.01749
G1 X123.904 Y74.616 E.02352
G1 X124.011 Y74.186 E.01389
G1 X124.05 Y73.721 E.01463
G1 X124.05 Y26.279 E1.48751
G1 X123.945 Y25.55 E.02309
G1 X126.055 Y25.55 E.06616
G1 X125.95 Y26.279 E.02309
G1 X125.95 Y73.721 E1.48751
G1 X125.961 Y73.968 E.00775
G1 X126.096 Y74.616 E.02075
G1 X126.425 Y75.29 E.02352
G1 X126.779 Y75.721 E.01749
G1 X127.21 Y76.075 E.01749
G1 X127.884 Y76.404 E.02352
G1 X128.314 Y76.511 E.01389
G1 X128.779 Y76.55 E.01463
G1 X176.221 Y76.55 E1.48751
G1 X176.686 Y76.511 E.01463
G1 X177.116 Y76.404 E.01389
G1 X177.79 Y76.075 E.02352
G1 X178.221 Y75.721 E.01749
G1 X178.575 Y75.29 E.01749
G1 X178.904 Y74.616 E.02352
G1 X179.011 Y74.186 E.01389
G1 X179.05 Y73.721 E.01463
G1 X179.05 Y26.279 E1.48751
G1 X178.945 Y25.55 E.02309
G1 X181.055 Y25.55 E.06616
G1 X180.95 Y26.279 E.02309
G1 X180.95 Y73.721 E1.48751
G1 X180.961 Y73.968 E.00775
G1 X181.096 Y74.616 E.02075
G1 X181.425 Y75.29 E.02352
G1 X181.779 Y75.721 E.01749
G1 X182.21 Y76.075 E.01749
G1 X182.884 Y76.404 E.02352
G1 X183.314 Y76.511 E.01389
G1 X183.779 Y76.55 E.01463
G1 X231.221 Y76.55 E1.48751
G1 X231.891 Y76.454 E.02122
M204 S1000
G1 X232.328 Y75.865 F10800
M204 S800
G1 F1200
G1 X232.328 Y79.135 E.10253
G1 X231.908 Y78.926 E.01471
G1 X231.221 Y78.828 E.02176
G1 X183.779 Y78.828 E1.48751
G1 X183.565 Y78.837 E.00672
G1 X183.003 Y78.953 E.01799
G1 X182.419 Y79.239 E.02039
G1 X182.045 Y79.545 E.01515
G1 X181.739 Y79.919 E.01515
G1 X181.453 Y80.503 E.02039
G1 X181.361 Y80.876 E.01205
G1 X181.328 Y81.279 E.01268
G1 X181.328 Y128.721 E1.48751
G1 X181.337 Y128.935 E.00672
M73 Q1 S124
G1 X181.453 Y129.497 E.01799
G1 X181.739 Y130.081 E.02039
G1 X182.045 Y130.455 E.01515
G1 X182.419 Y130.761 E.01515
G1 X183.003 Y131.047 E.02039
G1 X183.376 Y131.139 E.01205
G1 X183.779 Y131.172 E.01268
G1 X231.221 Y131.172 E1.48751
G1 X231.908 Y131.074 E.02176
G1 X232.328 Y130.865 E.01471
G1 X232.328 Y134.135 E.10253
G1 X231.908 Y133.926 E.01471
G1 X231.221 Y133.828 E.02176
G1 X183.779 Y133.828 E1.48751
G1 X183.565 Y133.837 E.00672
G1 X183.003 Y133.953 E.01799
G1 X182.419 Y134.239 E.02039
G1 X182.045 Y134.545 E.01515
G1 X181.739 Y134.919 E.01515
G1 X181.453 Y135.503 E.02039
G1 X181.361 Y135.876 E.01205
G1 X181.328 Y136.279 E.01268
G1 X181.328 Y183.721 E1.48751
G1 X181.426 Y184.408 E.02176
G1 X181.635 Y184.828 E.01471
G1 X178.365 Y184.828 E.10253
G1 X178.574 Y184.408 E.01471
G1 X178.672 Y183.721 E.02176
G1 X178.672 Y136.279 E1.48751
G1 X178.639 Y135.876 E.01268
M73 P1 R121
G1 X178.547 Y135.503 E.01205
G1 X178.261 Y134.919 E.02039
G1 X177.955 Y134.545 E.01515
G1 X177.581 Y134.239 E.01515
G1 X176.997 Y133.953 E.02039
G1 X176.624 Y133.861 E.01205
G1 X176.221 Y133.828 E.01268
G1 X128.779 Y133.828 E1.48751
G1 X128.565 Y133.837 E.00672
G1 X128.003 Y133.953 E.01799
G1 X127.419 Y134.239 E.02039
G1 X127.045 Y134.545 E.01515
G1 X126.739 Y134.919 E.01515
G1 X126.453 Y135.503 E.02039
G1 X126.361 Y135.876 E.01205
G1 X126.328 Y136.279 E.01268
G1 X126.328 Y183.721 E1.48751
G1 X126.426 Y184.408 E.02176
G1 X126.635 Y184.828 E.01471
G1 X123.365 Y184.828 E.10253
G1 X123.574 Y184.408 E.01471
G1 X123.672 Y183.721 E.02176
G1 X123.672 Y136.279 E1.48751
G1 X123.639 Y135.876 E.01268
G1 X123.547 Y135.503 E.01205
G1 X123.261 Y134.919 E.02039
G1 X122.955 Y134.545 E.01515
G1 X122.581 Y134.239 E.01515
G1 X121.997 Y133.953 E.02039
G1 X121.624 Y133.861 E.01205
G1 X121.221 Y133.828 E.01268
G1 X73.779 Y133.828 E1.48751
G1 X73.565 Y133.837 E.00672
G1 X73.003 Y133.953 E.01799
G1 X72.419 Y134.239 E.02039
G1 X72.045 Y134.545 E.01515
G1 X71.739 Y134.919 E.01515
G1 X71.453 Y135.503 E.02039
G1 X71.361 Y135.876 E.01205
G1 X71.328 Y136.279 E.01268
G1 X71.328 Y183.721 E1.48751
G1 X71.426 Y184.408 E.02176
G1 X71.635 Y184.828 E.01471
G1 X68.365 Y184.828 E.10253
G1 X68.574 Y184.408 E.01471
G1 X68.672 Y183.721 E.02176
G1 X68.672 Y136.279 E1.48751
G1 X68.639 Y135.876 E.01268
G1 X68.547 Y135.503 E.01205
G1 X68.261 Y134.919 E.02039
G1 X67.955 Y134.545 E.01515
G1 X67.581 Y134.239 E.01515
G1 X66.997 Y133.953 E.02039
G1 X66.624 Y133.861 E.01205
G1 X66.221 Y133.828 E.01268
G1 X18.779 Y133.828 E1.48751
G1 X18.092 Y133.926 E.02176
M73 P2 R121
G1 X17.672 Y134.135 E.01471
G1 X17.672 Y130.865 E.10253
G1 X18.092 Y131.074 E.01471
G1 X18.779 Y131.172 E.02176
G1 X66.221 Y131.172 E1.48751
G1 X66.624 Y131.139 E.01268
M73 Q2 S124
G1 X66.997 Y131.047 E.01205
G1 X67.581 Y130.761 E.02039
G1 X67.955 Y130.455 E.01515
G1 X68.261 Y130.081 E.01515
G1 X68.547 Y129.497 E.02039
G1 X68.639 Y129.124 E.01205
G1 X68.672 Y128.721 E.01268
G1 X68.672 Y81.279 E1.48751
G1 X68.639 Y80.876 E.01268
G1 X68.547 Y80.503 E.01205
G1 X68.261 Y79.919 E.02039
G1 X67.955 Y79.545 E.01515
G1 X67.581 Y79.239 E.01515
G1 X66.997 Y78.953 E.02039
G1 X66.624 Y78.861 E.01205
G1 X66.221 Y78.828 E.01268
G1 X18.779 Y78.828 E1.48751
G1 X18.092 Y78.926 E.02176
G1 X17.672 Y79.135 E.01471
G1 X17.672 Y75.865 E.10253
G1 X18.092 Y76.074 E.01471
G1 X18.779 Y76.172 E.02176
G1 X66.221 Y76.172 E1.48751
G1 X66.624 Y76.139 E.01268
G1 X66.997 Y76.047 E.01205
G1 X67.581 Y75.761 E.02039
G1 X67.955 Y75.455 E.01515
G1 X68.261 Y75.081 E.01515
G1 X68.547 Y74.497 E.02039
G1 X68.639 Y74.124 E.01205
G1 X68.672 Y73.721 E.01268
G1 X68.672 Y26.279 E1.48751
G1 X68.574 Y25.592 E.02176
G1 X68.365 Y25.172 E.01471
G1 X71.635 Y25.172 E.10253
G1 X71.426 Y25.592 E.01471
G1 X71.328 Y26.279 E.02176
G1 X71.328 Y73.721 E1.48751
G1 X71.337 Y73.935 E.00672
G1 X71.453 Y74.497 E.01799
G1 X71.739 Y75.081 E.02039
G1 X72.045 Y75.455 E.01515
G1 X72.419 Y75.761 E.01515
G1 X73.003 Y76.047 E.02039
G1 X73.376 Y76.139 E.01205
G1 X73.779 Y76.172 E.01268
G1 X121.221 Y76.172 E1.48751
G1 X121.624 Y76.139 E.01268
G1 X121.997 Y76.047 E.01205
G1 X122.581 Y75.761 E.02039
G1 X122.955 Y75.455 E.01515
G1 X123.261 Y75.081 E.01515
G1 X123.547 Y74.497 E.02039
G1 X123.639 Y74.124 E.01205
G1 X123.672 Y73.721 E.01268
G1 X123.672 Y26.279 E1.48751
G1 X123.574 Y25.592 E.02176
G1 X123.365 Y25.172 E.01471
G1 X126.635 Y25.172 E.10253
G1 X126.426 Y25.592 E.01471
G1 X126.328 Y26.279 E.02176
G1 X126.328 Y73.721 E1.48751
G1 X126.337 Y73.935 E.00672
G1 X126.453 Y74.497 E.01799
G1 X126.739 Y75.081 E.02039
G1 X127.045 Y75.455 E.01515
G1 X127.419 Y75.761 E.01515
G1 X128.003 Y76.047 E.02039
G1 X128.376 Y76.139 E.01205
G1 X128.779 Y76.172 E.01268
G1 X176.221 Y76.172 E1.48751
G1 X176.624 Y76.139 E.01268
G1 X176.997 Y76.047 E.01205
G1 X177.581 Y75.761 E.02039
G1 X177.955 Y75.455 E.01515
G1 X178.261 Y75.081 E.01515
G1 X178.547 Y74.497 E.02039
G1 X178.639 Y74.124 E.01205
G1 X178.672 Y73.721 E.01268
G1 X178.672 Y26.279 E1.48751
G1 X178.574 Y25.592 E.02176
G1 X178.365 Y25.172 E.01471
G1 X181.635 Y25.172 E.10253
G1 X181.426 Y25.592 E.01471
G1 X181.328 Y26.279 E.02176
G1 X181.328 Y73.721 E1.48751
G1 X181.337 Y73.935 E.00672
M73 Q2 S123
G1 X181.453 Y74.497 E.01799
G1 X181.739 Y75.081 E.02039
G1 X182.045 Y75.455 E.01515
G1 X182.419 Y75.761 E.01515
G1 X183.003 Y76.047 E.02039
G1 X183.376 Y76.139 E.01205
G1 X183.779 Y76.172 E.01268
G1 X231.221 Y76.172 E1.48751
G1 X231.908 Y76.074 E.02176
G1 X232.274 Y75.891 E.01283
M204 S1000
G1 X232.705 Y75.102 F10800
M204 S800
G1 F1200
G1 X232.705 Y79.898 E.15037
G1 X232.466 Y79.619 E.01152
G1 X231.802 Y79.288 E.02326
G1 X231.221 Y79.205 E.0184
G1 X183.779 Y79.205 E1.48751
G1 X183.438 Y79.233 E.01073
G1 X182.851 Y79.424 E.01935
G1 X182.451 Y79.685 E.01498
G1 X182.185 Y79.951 E.01179
G1 X181.924 Y80.351 E.01498
G1 X181.733 Y80.938 E.01935
G1 X181.705 Y81.279 E.01073
G1 X181.705 Y128.721 E1.48751
G1 X181.733 Y129.062 E.01073
G1 X181.924 Y129.649 E.01935
G1 X182.185 Y130.049 E.01498
G1 X182.451 Y130.315 E.01179
G1 X182.851 Y130.576 E.01498
G1 X183.438 Y130.767 E.01935
G1 X183.779 Y130.795 E.01073
G1 X231.221 Y130.795 E1.48751
G1 X231.802 Y130.712 E.0184
M73 P2 R120
G1 X232.466 Y130.381 E.02326
G1 X232.705 Y130.102 E.01152
G1 X232.705 Y134.898 E.15037
G1 X232.466 Y134.619 E.01152
G1 X231.802 Y134.288 E.02326
G1 X231.221 Y134.205 E.0184
G1 X183.779 Y134.205 E1.48751
G1 X183.438 Y134.233 E.01073
G1 X182.851 Y134.424 E.01935
G1 X182.451 Y134.685 E.01498
G1 X182.185 Y134.951 E.01179
G1 X181.924 Y135.351 E.01498
G1 X181.733 Y135.938 E.01935
G1 X181.705 Y136.279 E.01073
G1 X181.705 Y183.721 E1.48751
G1 X181.788 Y184.302 E.0184
G1 X182.119 Y184.966 E.02326
G1 X182.398 Y185.205 E.01152
G1 X177.602 Y185.205 E.15037
G1 X177.881 Y184.966 E.01152
G1 X178.212 Y184.302 E.02326
G1 X178.295 Y183.721 E.0184
G1 X178.295 Y136.279 E1.48751
G1 X178.267 Y135.938 E.01073
G1 X178.076 Y135.351 E.01935
G1 X177.815 Y134.951 E.01498
G1 X177.549 Y134.685 E.01179
G1 X177.149 Y134.424 E.01498
G1 X176.562 Y134.233 E.01935
G1 X176.221 Y134.205 E.01073
G1 X128.779 Y134.205 E1.48751
G1 X128.438 Y134.233 E.01073
G1 X127.851 Y134.424 E.01935
G1 X127.451 Y134.685 E.01498
G1 X127.185 Y134.951 E.01179
G1 X126.924 Y135.351 E.01498
G1 X126.733 Y135.938 E.01935
G1 X126.705 Y136.279 E.01073
G1 X126.705 Y183.721 E1.48751
G1 X126.788 Y184.302 E.0184
G1 X127.119 Y184.966 E.02326
G1 X127.398 Y185.205 E.01152
G1 X122.602 Y185.205 E.15037
G1 X122.881 Y184.966 E.01152
G1 X123.212 Y184.302 E.02326
G1 X123.295 Y183.721 E.0184
G1 X123.295 Y136.279 E1.48751
G1 X123.267 Y135.938 E.01073
G1 X123.076 Y135.351 E.01935
G1 X122.815 Y134.951 E.01498
G1 X122.549 Y134.685 E.01179
G1 X122.149 Y134.424 E.01498
G1 X121.562 Y134.233 E.01935
G1 X121.221 Y134.205 E.01073
G1 X73.779 Y134.205 E1.48751
G1 X73.438 Y134.233 E.01073
G1 X72.851 Y134.424 E.01935
G1 X72.451 Y134.685 E.01498
G1 X72.185 Y134.951 E.01179
G1 X71.924 Y135.351 E.01498
G1 X71.733 Y135.938 E.01935
G1 X71.705 Y136.279 E.01073
G1 X71.705 Y183.721 E1.48751
G1 X71.788 Y184.302 E.0184
G1 X72.119 Y184.966 E.02326
G1 X72.398 Y185.205 E.01152
