; generated by PrusaSlicer 2.6.1+linux-x64-GTK3 on 2023-09-19 at 12:42:52 UTC


;
;
; 

; external perimeters extrusion width = 0.45mm
; perimeters extrusion width = 0.45mm
; infill extrusion width = 0.45mm
; solid infill extrusion width = 0.45mm
; top infill extrusion width = 0.40mm
; first layer extrusion width = 0.42mm

M73 P0 R100
M73 Q0 S102
M201 X1000 Y1000 Z200 E5000 ; sets maximum accelerations, mm/sec^2
M203 X200 Y200 Z12 E120 ; sets maximum feedrates, mm / sec
M204 S1250 T1250 ; sets acceleration (S) and retract acceleration (R), mm/sec^2
M205 X8.00 Y8.00 Z0.40 E4.50 ; sets the jerk limits, mm/sec
M205 S0 T0 ; sets the minimum extruding and travel feed rate, mm/sec
;TYPE:Custom
M862.3 P "MK3S" ; printer model check
M862.1 P0.4 ; nozzle diameter check
M115 U3.13.0 ; tell printer latest fw version
G90 ; use absolute coordinates
M83 ; extruder relative mode
M104 S215 ; set extruder temp
M140 S60 ; set bed temp
M190 S60 ; wait for bed temp
M109 S215 ; wait for extruder temp
G28 W ; home all without mesh bed level
G80 ; mesh bed leveling

G1 Z0.2 F720
G1 Y-3 F1000 ; go outside print area
G92 E0
G1 X60 E9 F1000 ; intro line
G1 X100 E12.5 F1000 ; intro line

G92 E0
M221 S95

; Don't change E values below. Excessive value can damage the printer.

G21 ; set units to millimeters
G90 ; use absolute coordinates
M83 ; use relative distances for extrusion
M900 K0.05 ; Filament gcode LA 1.5
M900 K30 ; Filament gcode LA 1.0
M107
;LAYER_CHANGE
;Z:0.2
;HEIGHT:0.2
;BEFORE_LAYER_CHANGE
G92 E0.0
;0.2


G1 E-.8 F2100
G1 Z.4 F720
;AFTER_LAYER_CHANGE
;0.2
G1 X35.919 Y18.907 F10800
G1 Z.2 F720
G1 E.8 F2100
M204 S800
;TYPE:Skirt/Brim
;WIDTH:0.42
G1 F1200
G1 X38.907 Y15.919 E.13249
G1 X40.588 Y15.223 E.05705
G1 X209.412 Y15.223 E5.29336
G1 X211.093 Y15.919 E.05705
G1 X214.081 Y18.907 E.13249
G1 X214.777 Y20.588 E.05705
G1 X214.777 Y189.412 E5.29336
G1 X214.081 Y191.093 E.05705
G1 X211.093 Y194.081 E.13249
G1 X209.412 Y194.777 E.05705
G1 X40.588 Y194.777 E5.29336
G1 X38.907 Y194.081 E.05705
G1 X35.919 Y191.093 E.13249
G1 X35.223 Y189.412 E.05705
G1 X35.223 Y20.588 E5.29336
G1 X35.896 Y18.962 E.05518
M204 S1000
;WIPE_START
M73 Q0 S101
G1 F8640
G1 X38.333 Y16.499 E-.8
;WIPE_END
G1 Z.6 F720
G1 X38.409 Y20.575 F10800
G1 Z.2 F720
G1 E.8 F2100
M204 S800
G1 F1200
G1 X39.125 Y19.459 E.04157
G1 X39.701 Y18.926 E.02461
G1 X40.304 Y18.498 E.02319
G1 X42.254 Y17.887 E.06407
G1 X207.689 Y17.89 E5.1871
G1 X208.709 Y18.084 E.03255
G1 X209.688 Y18.5 E.03335
G1 X210.812 Y19.396 E.04507
G1 X211.705 Y20.734 E.05044
G1 X212.113 Y22.279 E.0501
G1 X212.113 Y187.72 E5.18729
G1 X211.733 Y189.205 E.04806
M73 P0 R99
G1 X210.875 Y190.541 E.04978
G1 X210.299 Y191.074 E.02461
G1 X209.696 Y191.502 E.02319
G1 X207.746 Y192.113 E.06407
G1 X42.28 Y192.113 E5.18807
G1 X40.795 Y191.733 E.04806
M73 P1 R99
M73 Q1 S101
G1 X39.459 Y190.875 E.04978
G1 X38.926 Y190.299 E.02461
G1 X38.498 Y189.696 E.02319
G1 X37.887 Y187.746 E.06407
G1 X37.887 Y22.28 E5.18807
G1 X38.267 Y20.795 E.04806
G1 X38.376 Y20.626 E.00631
M204 S1000
G1 X38.685 Y20.825 F10800
M204 S800
G1 F1200
G1 X39.399 Y19.72 E.04125
G1 X39.948 Y19.211 E.02347
G1 X40.498 Y18.823 E.0211
G1 X42.282 Y18.264 E.05862
G1 X207.671 Y18.267 E5.18566
G1 X208.617 Y18.45 E.03021
G1 X209.515 Y18.836 E.03065
G1 X210.553 Y19.671 E.04177
G1 X211.349 Y20.862 E.04492
G1 X211.736 Y22.304 E.04681
G1 X211.736 Y187.695 E5.18572
G1 X211.376 Y189.08 E.04487
G1 X210.601 Y190.28 E.04479
M73 Q1 S100
G1 X210.052 Y190.789 E.02347
G1 X209.502 Y191.177 E.0211
G1 X207.718 Y191.736 E.05862
G1 X42.305 Y191.736 E5.18641
G1 X40.92 Y191.376 E.04487
G1 X39.72 Y190.601 E.04479
G1 X39.211 Y190.052 E.02347
G1 X38.823 Y189.502 E.0211
G1 X38.264 Y187.718 E.05862
G1 X38.264 Y22.305 E5.18641
G1 X38.624 Y20.92 E.04487
G1 X38.653 Y20.876 E.00165
M204 S1000
G1 X38.97 Y21.079 F10800
M204 S800
G1 F1200
G1 X39.673 Y19.98 E.04091
G1 X40.195 Y19.496 E.02232
G1 X40.69 Y19.148 E.01897
G1 X42.311 Y18.641 E.05325
G1 X207.652 Y18.644 E5.18415
G1 X208.524 Y18.816 E.02787
M73 P1 R98
G1 X209.34 Y19.171 E.0279
G1 X210.293 Y19.945 E.03849
G1 X211.017 Y21.043 E.04124
G1 X211.359 Y22.328 E.04169
G1 X211.359 Y187.672 E5.18425
G1 X211.042 Y188.903 E.03986
M73 P2 R98
M73 Q2 S100
G1 X210.327 Y190.02 E.04158
G1 X209.805 Y190.504 E.02232
G1 X209.31 Y190.852 E.01897
G1 X207.689 Y191.359 E.05325
G1 X42.328 Y191.359 E5.18478
G1 X41.097 Y191.042 E.03986
G1 X39.98 Y190.327 E.04158
G1 X39.496 Y189.805 E.02232
G1 X39.148 Y189.31 E.01897
G1 X38.641 Y187.689 E.05325
G1 X38.641 Y22.328 E5.18478
G1 X38.949 Y21.134 E.03866
M204 S1000
G1 X39.313 Y21.23 F10800
M204 S800
G1 F1200
G1 X39.946 Y20.24 E.03684
G1 X40.441 Y19.782 E.02114
G1 X40.882 Y19.474 E.01687
G1 X42.34 Y19.018 E.0479
G1 X207.633 Y19.021 E5.18265
G1 X208.429 Y19.181 E.02546
G1 X209.164 Y19.505 E.02519
G1 X210.03 Y20.217 E.03515
G1 X210.685 Y21.223 E.03764
M73 Q2 S99
G1 X210.982 Y22.352 E.0366
G1 X210.982 Y187.647 E5.18271
G1 X210.685 Y188.777 E.03663
G1 X210.054 Y189.76 E.03662
G1 X209.559 Y190.218 E.02114
G1 X209.118 Y190.526 E.01687
G1 X207.66 Y190.982 E.0479
G1 X42.353 Y190.982 E5.18308
G1 X41.223 Y190.685 E.03663
G1 X40.24 Y190.054 E.03662
G1 X39.782 Y189.559 E.02114
G1 X39.474 Y189.118 E.01687
G1 X39.018 Y187.66 E.0479
G1 X39.018 Y22.353 E5.18308
G1 X39.298 Y21.288 E.03453
M204 S1000
M73 P2 R97
G1 X39.649 Y21.399 F10800
M204 S800
G1 F1200
G1 X40.221 Y20.5 E.03341
G1 X40.687 Y20.068 E.01992
G1 X41.073 Y19.8 E.01473
G1 X42.368 Y19.395 E.04254
G1 X207.614 Y19.398 E5.18117
G1 X208.296 Y19.535 E.02181
M73 P3 R97
M73 Q3 S99
G1 X208.987 Y19.839 E.02367
G1 X209.767 Y20.488 E.03181
G1 X210.329 Y21.35 E.03226
G1 X210.605 Y22.378 E.03337
G1 X210.605 Y187.623 E5.18114
G1 X210.351 Y188.601 E.03168
G1 X209.779 Y189.5 E.03341
G1 X209.313 Y189.932 E.01992
G1 X208.927 Y190.2 E.01473
G1 X207.632 Y190.605 E.04254
G1 X42.377 Y190.605 E5.18145
G1 X41.399 Y190.351 E.03168
G1 X40.5 Y189.779 E.03341
G1 X40.068 Y189.313 E.01992
G1 X39.8 Y188.927 E.01473
G1 X39.395 Y187.632 E.04254
G1 X39.395 Y22.377 E5.18145
G1 X39.634 Y21.457 E.0298
M204 S1000
G1 X39.998 Y21.555 F10800
M204 S800
G1 F1200
G1 X40.495 Y20.76 E.0294
G1 X40.933 Y20.354 E.01873
G1 X41.263 Y20.127 E.01256
G1 X42.397 Y19.772 E.03726
G1 X207.595 Y19.776 E5.17967
G1 X208.199 Y19.9 E.01933
M73 Q3 S98
G1 X208.808 Y20.172 E.02091
G1 X209.501 Y20.757 E.02844
G1 X209.995 Y21.528 E.02871
G1 X210.228 Y22.402 E.02836
G1 X210.228 Y187.598 E5.1796
G1 X209.994 Y188.475 E.02846
G1 X209.505 Y189.24 E.02847
G1 X209.067 Y189.646 E.01873
G1 X208.737 Y189.873 E.01256
G1 X207.603 Y190.228 E.03726
G1 X42.402 Y190.228 E5.17976
G1 X41.525 Y189.994 E.02846
M73 P3 R96
G1 X40.76 Y189.505 E.02847
G1 X40.354 Y189.067 E.01873
G1 X40.127 Y188.737 E.01256
G1 X39.772 Y187.603 E.03726
G1 X39.772 Y22.402 E5.17976
G1 X39.983 Y21.612 E.02564
M204 S1000
M73 P4 R96
M73 Q4 S98
G1 X40.345 Y21.712 F10800
M204 S800
G1 F1200
G1 X40.361 Y21.654 E.00189
G1 X40.768 Y21.021 E.0236
G1 X41.179 Y20.64 E.01757
G1 X41.452 Y20.454 E.01036
G1 X42.426 Y20.149 E.032
G1 X207.574 Y20.153 E5.1781
G1 X208.099 Y20.264 E.01682
G1 X208.627 Y20.504 E.01819
G1 X209.234 Y21.025 E.02508
G1 X209.639 Y21.656 E.02351
G1 X209.851 Y22.428 E.0251
G1 X209.851 Y187.572 E5.17797
G1 X209.639 Y188.346 E.02516
G1 X209.232 Y188.979 E.0236
G1 X208.821 Y189.36 E.01757
G1 X208.548 Y189.546 E.01036
G1 X207.574 Y189.851 E.032
G1 X42.428 Y189.851 E5.17804
G1 X41.654 Y189.639 E.02516
G1 X41.021 Y189.232 E.0236
G1 X40.64 Y188.821 E.01757
G1 X40.454 Y188.548 E.01036
G1 X40.149 Y187.574 E.032
G1 X40.149 Y22.428 E5.17804
G1 X40.33 Y21.77 E.0214
M204 S1000
M73 Q4 S97
G1 X40.691 Y21.872 F10800
M204 S800
G1 F1200
G1 X40.716 Y21.785 E.00284
G1 X41.041 Y21.282 E.01878
G1 X41.424 Y20.927 E.01637
G1 X41.64 Y20.782 E.00816
G1 X42.455 Y20.526 E.02678
G1 X207.553 Y20.53 E5.17653
G1 X207.997 Y20.627 E.01425
G1 X208.443 Y20.834 E.01542
G1 X208.966 Y21.291 E.02178
G1 X209.285 Y21.786 E.01846
G1 X209.474 Y22.455 E.0218
G1 X209.474 Y187.545 E5.17628
G1 X209.284 Y188.215 E.02184
M73 P4 R95
G1 X208.959 Y188.718 E.01878
G1 X208.576 Y189.073 E.01637
G1 X208.36 Y189.218 E.00816
G1 X207.545 Y189.474 E.02678
G1 X42.455 Y189.474 E5.17628
G1 X41.785 Y189.284 E.02184
M73 P5 R95
G1 X41.282 Y188.959 E.01878
G1 X40.927 Y188.576 E.01637
G1 X40.782 Y188.36 E.00816
G1 X40.526 Y187.545 E.02678
G1 X40.526 Y22.455 E5.17628
G1 X40.675 Y21.93 E.01711
M204 S1000
M73 Q5 S97
G1 X41.035 Y22.036 F10800
M204 S800
G1 F1200
G1 X41.069 Y21.919 E.00382
G1 X41.314 Y21.543 E.01407
G1 X41.668 Y21.215 E.01513
G1 X41.825 Y21.112 E.00589
G1 X42.484 Y20.903 E.02168
G1 X207.531 Y20.907 E5.17493
G1 X207.891 Y20.99 E.01158
G1 X208.256 Y21.162 E.01265
G1 X208.696 Y21.554 E.01848
G1 X208.931 Y21.92 E.01364
G1 X209.097 Y22.483 E.0184
G1 X209.097 Y187.517 E5.17453
G1 X208.931 Y188.081 E.01843
G1 X208.686 Y188.457 E.01407
G1 X208.332 Y188.785 E.01513
G1 X208.175 Y188.888 E.00589
G1 X207.516 Y189.097 E.02168
G1 X42.483 Y189.097 E5.17449
G1 X41.919 Y188.931 E.01843
M73 Q5 S96
G1 X41.543 Y188.686 E.01407
G1 X41.215 Y188.332 E.01513
G1 X41.112 Y188.175 E.00589
G1 X40.903 Y187.516 E.02168
G1 X40.903 Y22.483 E5.17449
G1 X41.018 Y22.094 E.01272
M204 S1000
G1 X41.375 Y22.204 F10800
M204 S800
G1 F1200
G1 X41.421 Y22.057 E.00483
G1 X41.587 Y21.804 E.00949
G1 X41.912 Y21.504 E.01387
G1 X42.007 Y21.443 E.00354
G1 X42.513 Y21.28 E.01667
G1 X207.509 Y21.284 E5.17333
G1 X207.747 Y21.339 E.00766
M73 P5 R94
G1 X208.068 Y21.491 E.01114
G1 X208.423 Y21.815 E.01507
G1 X208.579 Y22.057 E.00903
G1 X208.72 Y22.512 E.01494
G1 X208.72 Y187.488 E5.17271
G1 X208.579 Y187.943 E.01494
M73 P6 R94
G1 X208.413 Y188.196 E.00949
G1 X208.088 Y188.496 E.01387
G1 X207.993 Y188.557 E.00354
G1 X207.487 Y188.72 E.01667
G1 X42.512 Y188.72 E5.17268
G1 X42.057 Y188.579 E.01494
M73 Q6 S96
G1 X41.804 Y188.413 E.00949
G1 X41.504 Y188.088 E.01387
G1 X41.443 Y187.993 E.00354
G1 X41.28 Y187.487 E.01667
G1 X41.28 Y22.512 E5.17268
G1 X41.358 Y22.261 E.00824
M204 S1000
G1 X41.712 Y22.378 F10800
M204 S800
G1 F1200
G1 X41.77 Y22.201 E.00584
G1 X41.86 Y22.066 E.00509
G1 X42.152 Y21.795 E.01249
G1 X42.544 Y21.657 E.01303
G1 X207.487 Y21.661 E5.17167
G1 X207.604 Y21.688 E.00376
G1 X207.878 Y21.818 E.00951
G1 X208.147 Y22.073 E.01162
G1 X208.23 Y22.2 E.00476
G1 X208.343 Y22.544 E.01135
G1 X208.343 Y187.456 E5.1707
G1 X208.23 Y187.799 E.01132
M73 Q6 S95
G1 X208.14 Y187.934 E.00509
G1 X207.817 Y188.224 E.01361
G1 X207.456 Y188.343 E.01192
G1 X42.544 Y188.343 E5.1707
G1 X42.201 Y188.23 E.01132
G1 X42.066 Y188.14 E.00509
G1 X41.776 Y187.817 E.01361
G1 X41.657 Y187.456 E.01192
G1 X41.657 Y22.544 E5.1707
G1 X41.693 Y22.435 E.0036
M204 S1000
G1 X42.041 Y22.559 F10800
M204 S800
G1 F1200
G1 X42.132 Y22.328 E.00778
G1 X42.366 Y22.111 E.01001
G1 X42.579 Y22.034 E.0071
G1 X207.435 Y22.034 E5.16894
G1 X207.685 Y22.144 E.00856
M73 P6 R93
G1 X207.884 Y22.352 E.00903
G1 X207.966 Y22.579 E.00757
G1 X207.966 Y187.421 E5.16851
G1 X207.868 Y187.672 E.00845
M73 P7 R93
M73 Q7 S95
G1 X207.634 Y187.889 E.01001
G1 X207.421 Y187.966 E.0071
G1 X42.579 Y187.966 E5.16851
G1 X42.328 Y187.868 E.00845
G1 X42.111 Y187.634 E.01001
G1 X42.034 Y187.421 E.0071
G1 X42.034 Y22.618 E5.16728
M204 S1000
G1 X42.411 Y22.621 F10800
M204 S800
G1 F1200
G1 X42.44 Y22.552 E.00235
G1 X42.552 Y22.44 E.00497
G1 X42.621 Y22.411 E.00235
G1 X207.379 Y22.411 E5.16587
G1 X207.448 Y22.44 E.00235
M73 Q7 S94
G1 X207.56 Y22.552 E.00497
G1 X207.589 Y22.621 E.00235
G1 X207.589 Y187.379 E5.16587
G1 X207.56 Y187.448 E.00235
G1 X207.448 Y187.56 E.00497
G1 X207.379 Y187.589 E.00235
G1 X42.621 Y187.589 E5.16587
G1 X42.552 Y187.56 E.00235
G1 X42.44 Y187.448 E.00497
G1 X42.411 Y187.379 E.00235
G1 X42.411 Y22.681 E5.16399
M204 S1000
; printing object base grid 3x3 square.STL id:0 copy 0
;WIPE_START
G1 F8640
M73 P7 R92
G1 X42.44 Y22.552 E-.03053
G1 X42.552 Y22.44 E-.03657
G1 X42.621 Y22.411 E-.01728
G1 X45.72 Y22.411 E-.71562
;WIPE_END
G1 Z.6 F720
G1 X97.5 Y75.833 F10800
G1 Z.2 F720
G1 E.8 F2100
M204 S800
;TYPE:Perimeter
;WIDTH:0.419999
G1 F1200
G1 X97.947 Y76.498 E.02512
G1 X98.502 Y77.053 E.02461
G1 X99.167 Y77.5 E.02512
G1 X98.502 Y77.947 E.02512
G1 X97.947 Y78.502 E.02461
G1 X97.5 Y79.167 E.02512
G1 X97.053 Y78.502 E.02512
G1 X96.498 Y77.947 E.02461
G1 X95.833 Y77.5 E.02512
G1 X96.498 Y77.053 E.02512
G1 X97.053 Y76.498 E.02461
G1 X97.467 Y75.883 E.02324
M204 S1000
;WIPE_START
G1 F8640
G1 X97.947 Y76.498 E-.18014
G1 X98.502 Y77.053 E-.18123
G1 X99.167 Y77.5 E-.18502
G1 X98.502 Y77.947 E-.18502
G1 X98.292 Y78.157 E-.06859
;WIPE_END
G1 Z.6 F720
G1 X97.5 Y74.883 F10800
G1 Z.2 F720
G1 E.8 F2100
M204 S800
G1 F1200
G1 X97.737 Y75.492 E.02049
G1 X97.984 Y75.918 E.01544
G1 X98.479 Y76.521 E.02446
G1 X99.082 Y77.016 E.02446
G1 X99.508 Y77.263 E.01544
G1 X100.117 Y77.5 E.02049
G1 X99.508 Y77.737 E.02049
G1 X99.082 Y77.984 E.01544
G1 X98.479 Y78.479 E.02446
G1 X97.984 Y79.082 E.02446
G1 X97.737 Y79.508 E.01544
G1 X97.5 Y80.117 E.02049
G1 X97.263 Y79.508 E.02049
G1 X97.016 Y79.082 E.01544
G1 X96.521 Y78.479 E.02446
G1 X95.918 Y77.984 E.02446
G1 X95.492 Y77.737 E.01544
G1 X94.883 Y77.5 E.02049
G1 X95.492 Y77.263 E.02049
G1 X95.918 Y77.016 E.01544
G1 X96.521 Y76.521 E.02446
G1 X97.016 Y75.918 E.02446
G1 X97.263 Y75.492 E.01544
G1 X97.478 Y74.939 E.0186
M204 S1000
;WIPE_START
G1 F8640
G1 X97.737 Y75.492 E-.141
G1 X97.984 Y75.918 E-.1137
G1 X98.479 Y76.521 E-.18014
G1 X99.082 Y77.016 E-.18014
G1 X99.508 Y77.263 E-.1137
G1 X99.796 Y77.375 E-.07132
;WIPE_END
G1 Z.6 F720
G1 X154.167 Y77.5 F10800
G1 Z.2 F720
M73 P8 R92
G1 E.8 F2100
M204 S800
G1 F1200
G1 X153.502 Y77.947 E.02512
G1 X152.947 Y78.502 E.02461
G1 X152.5 Y79.167 E.02512
G1 X152.053 Y78.502 E.02512
G1 X151.498 Y77.947 E.02461
G1 X150.833 Y77.5 E.02512
G1 X151.498 Y77.053 E.02512
G1 X152.053 Y76.498 E.02461
G1 X152.5 Y75.833 E.02512
G1 X152.947 Y76.498 E.02512
G1 X153.502 Y77.053 E.02461
G1 X154.117 Y77.466 E.02323
M204 S1000
;WIPE_START
G1 F8640
G1 X153.502 Y77.947 E-.18028
G1 X152.947 Y78.502 E-.18123
G1 X152.5 Y79.167 E-.18502
G1 X152.053 Y78.502 E-.18502
G1 X151.843 Y78.292 E-.06845
;WIPE_END
G1 Z.6 F720
G1 X155.117 Y77.5 F10800
G1 Z.2 F720
G1 E.8 F2100
M204 S800
G1 F1200
G1 X154.508 Y77.737 E.02049
G1 X154.082 Y77.984 E.01544
G1 X153.479 Y78.479 E.02446
G1 X152.984 Y79.082 E.02446
G1 X152.737 Y79.508 E.01544
G1 X152.5 Y80.117 E.02049
G1 X152.263 Y79.508 E.02049
G1 X152.016 Y79.082 E.01544
G1 X151.521 Y78.479 E.02446
G1 X150.918 Y77.984 E.02446
G1 X150.492 Y77.737 E.01544
G1 X149.883 Y77.5 E.02049
G1 X150.492 Y77.263 E.02049
G1 X150.918 Y77.016 E.01544
G1 X151.521 Y76.521 E.02446
G1 X152.016 Y75.918 E.02446
G1 X152.263 Y75.492 E.01544
G1 X152.5 Y74.883 E.02049
G1 X152.737 Y75.492 E.02049
G1 X152.984 Y75.918 E.01544
G1 X153.479 Y76.521 E.02446
G1 X154.082 Y77.016 E.02446
G1 X154.508 Y77.263 E.01544
G1 X155.061 Y77.478 E.0186
M204 S1000
;WIPE_START
G1 F8640
G1 X154.508 Y77.737 E-.141
G1 X154.082 Y77.984 E-.1137
G1 X153.479 Y78.479 E-.18014
G1 X152.984 Y79.082 E-.18014
G1 X152.737 Y79.508 E-.1137
G1 X152.625 Y79.796 E-.07132
;WIPE_END
G1 Z.6 F720
G1 X154.167 Y132.5 F10800
G1 Z.2 F720
G1 E.8 F2100
M204 S800
G1 F1200
G1 X153.502 Y132.947 E.02512
G1 X152.947 Y133.502 E.02461
G1 X152.5 Y134.167 E.02512
G1 X152.053 Y133.502 E.02512
G1 X151.498 Y132.947 E.02461
G1 X150.833 Y132.5 E.02512
G1 X151.498 Y132.053 E.02512
G1 X152.053 Y131.498 E.02461
G1 X152.5 Y130.833 E.02512
G1 X152.947 Y131.498 E.02512
G1 X153.502 Y132.053 E.02461
G1 X154.117 Y132.466 E.02323
M204 S1000
;WIPE_START
G1 F8640
G1 X153.502 Y132.947 E-.18028
G1 X152.947 Y133.502 E-.18123
G1 X152.5 Y134.167 E-.18502
G1 X152.053 Y133.502 E-.18502
G1 X151.843 Y133.292 E-.06845
;WIPE_END
G1 Z.6 F720
G1 X155.117 Y132.5 F10800
G1 Z.2 F720
G1 E.8 F2100
M204 S800
G1 F1200
G1 X154.508 Y132.737 E.02049
G1 X154.082 Y132.984 E.01544
G1 X153.479 Y133.479 E.02446
G1 X152.984 Y134.082 E.02446
G1 X152.737 Y134.508 E.01544
G1 X152.5 Y135.117 E.02049
G1 X152.263 Y134.508 E.02049
G1 X152.016 Y134.082 E.01544
G1 X151.521 Y133.479 E.02446
G1 X150.918 Y132.984 E.02446
G1 X150.492 Y132.737 E.01544
G1 X149.883 Y132.5 E.02049
G1 X150.492 Y132.263 E.02049
