; generated by PrusaSlicer 2.6.1+linux-x64-GTK3 on 2023-09-22 at 13:48:36 UTC


;
;
; 

; external perimeters extrusion width = 0.45mm
; perimeters extrusion width = 0.45mm
; infill extrusion width = 0.45mm
; solid infill extrusion width = 0.45mm
; top infill extrusion width = 0.40mm
; first layer extrusion width = 0.42mm

; external perimeters extrusion width = 0.45mm
; perimeters extrusion width = 0.45mm
; infill extrusion width = 0.45mm
; solid infill extrusion width = 0.45mm
; top infill extrusion width = 0.40mm
; first layer extrusion width = 0.42mm

M73 P0 R35
M73 Q0 S35
M201 X1000 Y1000 Z200 E5000 ; sets maximum accelerations, mm/sec^2
M203 X200 Y200 Z12 E120 ; sets maximum feedrates, mm / sec
M204 S1250 T1250 ; sets acceleration (S) and retract acceleration (R), mm/sec^2
M205 X8.00 Y8.00 Z0.40 E4.50 ; sets the jerk limits, mm/sec
M205 S0 T0 ; sets the minimum extruding and travel feed rate, mm/sec
;TYPE:Custom
M862.3 P "MK3S" ; printer model check
M862.1 P0.4 ; nozzle diameter check
M115 U3.13.0 ; tell printer latest fw version
G90 ; use absolute coordinates
M83 ; extruder relative mode
M104 S215 ; set extruder temp
M140 S60 ; set bed temp
M190 S60 ; wait for bed temp
M109 S215 ; wait for extruder temp
G28 W ; home all without mesh bed level
G80 ; mesh bed leveling

G1 Z0.2 F720
G1 Y-3 F1000 ; go outside print area
G92 E0
G1 X60 E9 F1000 ; intro line
G1 X100 E12.5 F1000 ; intro line

G92 E0
M221 S95

; Don't change E values below. Excessive value can damage the printer.

G21 ; set units to millimeters
G90 ; use absolute coordinates
M83 ; use relative distances for extrusion
M900 K0.05 ; Filament gcode LA 1.5
M900 K30 ; Filament gcode LA 1.0
M107
;LAYER_CHANGE
;Z:0.2
;HEIGHT:0.2
;BEFORE_LAYER_CHANGE
G92 E0.0
;0.2


M73 P0 R34
G1 E-.8 F2100
G1 Z.4 F720
;AFTER_LAYER_CHANGE
;0.2
G1 X104.628 Y86.368 F10800
G1 Z.2 F720
G1 E.8 F2100
M204 S800
;TYPE:Skirt/Brim
;WIDTH:0.42
G1 F1200
G1 X105.856 Y85.049 E.05651
G1 X107.4 Y83.944 E.05953
G1 X108.924 Y83.248 E.05253
G1 X109.939 Y82.954 E.03313
G1 X110.854 Y82.794 E.02912
G1 X111.958 Y82.723 E.03469
G1 X138.084 Y82.723 E.81916
G1 X139.494 Y82.844 E.04437
G1 X141.077 Y83.248 E.05122
G1 X142.366 Y83.814 E.04414
G1 X143.7 Y84.68 E.04987
G1 X144.895 Y85.793 E.0512
G1 X145.853 Y87.061 E.04983
G1 X146.511 Y88.307 E.04418
G1 X147.046 Y89.939 E.05385
G1 X147.241 Y91.184 E.03951
G1 X149.431 Y113.431 E.70091
G1 X149.476 Y114.591 E.0364
G1 X149.319 Y116.498 E.05999
G1 X149.004 Y117.944 E.0464
G1 X148.726 Y118.818 E.02876
G1 X147.95 Y120.567 E.05999
G1 X146.862 Y122.26 E.0631
G1 X145.841 Y123.444 E.04902
G1 X144.979 Y124.253 E.03707
G1 X143.73 Y125.193 E.04901
G1 X142.715 Y125.8 E.03708
G1 X141.295 Y126.454 E.04902
G1 X140.175 Y126.831 E.03705
G1 X138.648 Y127.168 E.04903
G1 X137.475 Y127.298 E.037
G1 X112.344 Y127.285 E.78796
G1 X110.534 Y127.012 E.05739
G1 X108.782 Y126.484 E.05737
G1 X107.124 Y125.712 E.05734
G1 X105.591 Y124.712 E.05739
G1 X104.409 Y123.693 E.04893
G1 X103.598 Y122.829 E.03715
G1 X102.658 Y121.58 E.04901
G1 X102.011 Y120.491 E.03972
G1 X101.397 Y119.146 E.04636
G1 X100.997 Y117.944 E.03972
G1 X100.67 Y116.418 E.04893
G1 X100.526 Y114.688 E.05443
G1 X100.571 Y113.425 E.03963
G1 X102.83 Y90.59 E.71947
G1 X103.073 Y89.473 E.03584
G1 X103.49 Y88.307 E.03883
G1 X103.943 Y87.4 E.03179
G1 X104.595 Y86.418 E.03696
M204 S1000
;WIPE_START
G1 F8640
G1 X105.856 Y85.049 E-.42977
G1 X107.16 Y84.116 E-.37023
;WIPE_END
G1 Z.6 F720
G1 X106.664 Y88.095 F10800
G1 Z.2 F720
G1 E.8 F2100
M204 S800
G1 F1200
G1 X107.458 Y87.192 E.0377
G1 X108.131 Y86.637 E.02735
M73 Q0 S34
G1 X108.89 Y86.164 E.02804
G1 X109.761 Y85.777 E.02988
G1 X110.67 Y85.522 E.0296
G1 X111.834 Y85.39 E.03673
G1 X138.144 Y85.389 E.82493
G1 X139.264 Y85.51 E.03532
G1 X140.352 Y85.819 E.03546
G1 X141.364 Y86.307 E.03523
G1 X142.273 Y86.953 E.03497
G1 X143.072 Y87.757 E.03554
G1 X143.718 Y88.679 E.0353
G1 X144.195 Y89.686 E.03494
G1 X144.499 Y90.778 E.03554
G1 X144.614 Y91.898 E.0353
G1 X144.589 Y102.009 E.31702
G1 X144.297 Y103.137 E.03653
G1 X143.81 Y104.094 E.03367
G1 X142.873 Y105.108 E.04329
G1 X141.912 Y105.795 E.03704
G1 X142.73 Y106.359 E.03115
G1 X143.358 Y106.867 E.02533
G1 X143.844 Y107.324 E.02092
G1 X144.306 Y107.818 E.02121
G1 X144.794 Y108.423 E.02437
G1 X145.201 Y109.01 E.0224
G1 X145.571 Y109.634 E.02275
G1 X145.896 Y110.284 E.02279
G1 X146.164 Y110.929 E.0219
G1 X146.378 Y111.563 E.02098
G1 X146.569 Y112.292 E.02363
G1 X146.712 Y113.079 E.02508
G1 X146.789 Y113.813 E.02314
G1 X146.812 Y114.544 E.02293
G1 X146.784 Y115.248 E.02209
G1 X146.709 Y115.941 E.02186
G1 X146.58 Y116.657 E.02281
G1 X146.397 Y117.375 E.02323
G1 X146.162 Y118.076 E.02318
G1 X145.896 Y118.716 E.02173
G1 X145.59 Y119.331 E.02154
G1 X145.217 Y119.965 E.02306
G1 X144.806 Y120.561 E.0227
G1 X144.335 Y121.148 E.0236
G1 X143.814 Y121.707 E.02396
G1 X143.258 Y122.22 E.02372
G1 X142.712 Y122.655 E.02189
G1 X142.095 Y123.079 E.02347
G1 X141.489 Y123.435 E.02204
G1 X140.866 Y123.745 E.02182
G1 X140.159 Y124.036 E.02397
G1 X139.495 Y124.255 E.02192
G1 X138.811 Y124.429 E.02213
G1 X138.11 Y124.555 E.02233
G1 X137.391 Y124.634 E.02268
G1 X136.659 Y124.661 E.02297
G1 X134.611 Y124.614 E.06423
G1 X115.837 Y124.613 E.58865
G1 X114.913 Y124.616 E.02897
M73 Q1 S34
G1 X113.324 Y124.661 E.04984
G1 X112.561 Y124.63 E.02394
M73 P1 R34
G1 X111.84 Y124.548 E.02275
G1 X111.128 Y124.415 E.02271
G1 X110.474 Y124.245 E.02119
G1 X109.821 Y124.028 E.02158
G1 X109.166 Y123.759 E.0222
G1 X108.46 Y123.406 E.02475
G1 X107.831 Y123.031 E.02296
G1 X107.253 Y122.628 E.02209
G1 X106.704 Y122.186 E.0221
G1 X106.143 Y121.662 E.02407
G1 X105.667 Y121.149 E.02194
G1 X105.23 Y120.608 E.02181
G1 X104.801 Y119.991 E.02356
G1 X104.431 Y119.366 E.02277
G1 X104.114 Y118.734 E.02217
G1 X103.846 Y118.092 E.02181
G1 X103.609 Y117.388 E.02329
G1 X103.414 Y116.622 E.02478
G1 X103.295 Y115.964 E.02097
G1 X103.221 Y115.299 E.02098
G1 X103.188 Y114.494 E.02526
G1 X103.22 Y113.711 E.02457
G1 X103.3 Y113.005 E.02228
G1 X103.431 Y112.296 E.02261
G1 X103.609 Y111.61 E.02222
G1 X103.834 Y110.939 E.02219
G1 X104.108 Y110.277 E.02246
G1 X104.418 Y109.656 E.02176
G1 X104.797 Y109.016 E.02332
G1 X105.231 Y108.391 E.02386
G1 X105.656 Y107.864 E.02123
G1 X106.111 Y107.37 E.02106
G1 X106.688 Y106.828 E.02482
G1 X107.319 Y106.323 E.02534
G1 X108.154 Y105.752 E.03172
G1 X107.465 Y105.381 E.02454
G1 X106.492 Y104.474 E.04171
G1 X105.953 Y103.704 E.02947
G1 X105.387 Y101.847 E.06087
G1 X105.387 Y91.92 E.31125
G1 X105.45 Y91.088 E.02616
G1 X105.621 Y90.257 E.0266
G1 X105.898 Y89.442 E.02699
G1 X106.634 Y88.148 E.04668
M204 S1000
G1 X106.958 Y88.332 F10800
M204 S800
G1 F1200
G1 X107.711 Y87.472 E.03584
G1 X108.342 Y86.95 E.02568
G1 X109.056 Y86.503 E.02641
G1 X109.876 Y86.137 E.02816
G1 X110.757 Y85.89 E.02869
G1 X111.865 Y85.766 E.03496
G1 X138.114 Y85.765 E.82302
G1 X139.177 Y85.877 E.03351
G1 X140.204 Y86.166 E.03345
G1 X141.159 Y86.624 E.03321
G1 X142.018 Y87.231 E.03298
G1 X142.773 Y87.988 E.03352
G1 X143.385 Y88.855 E.03327
G1 X143.837 Y89.804 E.03296
G1 X144.125 Y90.834 E.03353
G1 X144.236 Y91.907 E.03382
G1 X144.218 Y101.938 E.31452
G1 X143.937 Y103.021 E.03508
G1 X143.487 Y103.898 E.03091
G1 X142.611 Y104.836 E.04024
G1 X141.965 Y105.295 E.02485
G1 X140.877 Y105.653 E.03591
G1 X141.872 Y106.226 E.036
G1 X142.499 Y106.656 E.02384
G1 X143.115 Y107.156 E.02488
G1 X143.581 Y107.594 E.02005
G1 X144.026 Y108.071 E.02045
G1 X144.488 Y108.644 E.02308
G1 X144.88 Y109.209 E.02156
G1 X145.237 Y109.808 E.02186
G1 X145.556 Y110.447 E.02239
G1 X145.808 Y111.056 E.02066
G1 X146.015 Y111.665 E.02017
G1 X146.203 Y112.381 E.02321
G1 X146.338 Y113.125 E.02371
G1 X146.413 Y113.845 E.0227
G1 X146.435 Y114.536 E.02168
G1 X146.409 Y115.214 E.02127
G1 X146.335 Y115.893 E.02142
G1 X146.21 Y116.583 E.02199
G1 X146.037 Y117.262 E.02197
G1 X145.811 Y117.938 E.02235
G1 X145.556 Y118.553 E.02087
G1 X145.255 Y119.157 E.02116
G1 X144.896 Y119.768 E.02222
G1 X144.5 Y120.341 E.02184
G1 X144.046 Y120.906 E.02273
G1 X143.553 Y121.434 E.02265
G1 X143.007 Y121.938 E.0233
G1 X142.483 Y122.356 E.02102
G1 X141.898 Y122.758 E.02226
G1 X141.315 Y123.101 E.02121
G1 X140.704 Y123.405 E.0214
G1 X140.034 Y123.68 E.02271
G1 X139.384 Y123.894 E.02146
G1 X138.724 Y124.061 E.02135
G1 X138.05 Y124.183 E.02148
G1 X137.357 Y124.258 E.02186
G1 X136.651 Y124.284 E.02215
G1 X134.615 Y124.237 E.06385
G1 X115.836 Y124.236 E.5888
G1 X114.907 Y124.239 E.02913
G1 X113.32 Y124.284 E.04978
G1 X112.597 Y124.255 E.02269
G1 X111.902 Y124.176 E.02193
G1 X111.217 Y124.048 E.02185
G1 X110.575 Y123.882 E.02079
G1 X109.946 Y123.672 E.02079
G1 X109.316 Y123.413 E.02136
G1 X108.635 Y123.072 E.02388
G1 X108.03 Y122.711 E.02209
G1 X107.474 Y122.322 E.02128
G1 X106.946 Y121.897 E.02125
G1 X106.414 Y121.4 E.02283
G1 X105.956 Y120.907 E.0211
G1 X105.536 Y120.387 E.02096
G1 X105.122 Y119.792 E.02273
G1 X104.765 Y119.191 E.02192
G1 X104.459 Y118.583 E.02134
G1 X104.201 Y117.965 E.021
G1 X103.968 Y117.274 E.02286
G1 X103.781 Y116.536 E.02387
G1 X103.668 Y115.904 E.02013
G1 X103.596 Y115.264 E.02019
G1 X103.565 Y114.487 E.02438
G1 X103.595 Y113.746 E.02325
G1 X103.672 Y113.067 E.02143
G1 X103.798 Y112.384 E.02178
G1 X103.972 Y111.711 E.0218
G1 X104.189 Y111.065 E.02137
G1 X104.454 Y110.428 E.02163
G1 X104.747 Y109.842 E.02054
G1 X105.11 Y109.225 E.02245
G1 X105.537 Y108.612 E.02342
G1 X105.946 Y108.105 E.02042
G1 X106.384 Y107.63 E.02026
G1 X106.93 Y107.118 E.02347
G1 X107.55 Y106.621 E.02491
G1 X108.066 Y106.266 E.01964
G1 X109.07 Y105.678 E.03648
G1 X108.545 Y105.525 E.01715
G1 X107.702 Y105.087 E.02979
G1 X106.764 Y104.212 E.04022
G1 X106.279 Y103.513 E.02668
G1 X105.764 Y101.819 E.05551
G1 X105.764 Y91.927 E.31016
G1 X105.825 Y91.129 E.02509
G1 X105.988 Y90.345 E.02511
G1 X106.249 Y89.581 E.02531
G1 X106.929 Y88.384 E.04316
M204 S1000
G1 X107.253 Y88.569 F10800
M204 S800
G1 F1200
G1 X107.964 Y87.752 E.03396
G1 X108.553 Y87.262 E.02402
G1 X109.223 Y86.841 E.02481
G1 X110.017 Y86.487 E.02726
G1 X110.843 Y86.257 E.02688
G1 X111.896 Y86.142 E.03321
G1 X138.085 Y86.141 E.82114
G1 X139.092 Y86.245 E.03174
G1 X140.057 Y86.514 E.03141
G1 X140.956 Y86.942 E.03122
G1 X141.763 Y87.51 E.03094
G1 X142.474 Y88.219 E.03148
G1 X143.067 Y89.06 E.03226
G1 X143.478 Y89.923 E.02997
G1 X143.752 Y90.889 E.03148
G1 X143.859 Y91.917 E.03241
G1 X143.847 Y101.866 E.31194
G1 X143.577 Y102.907 E.03372
G1 X143.193 Y103.661 E.02653
G1 X142.377 Y104.54 E.03761
G1 X141.771 Y104.97 E.0233
G1 X139.752 Y105.606 E.06637
G1 X140.63 Y105.976 E.02987
G1 X141.16 Y106.244 E.01862
G1 X141.674 Y106.547 E.01871
G1 X142.279 Y106.963 E.02302
G1 X142.872 Y107.444 E.02394
G1 X143.318 Y107.864 E.01921
G1 X143.745 Y108.323 E.01966
G1 X144.191 Y108.875 E.02225
G1 X144.566 Y109.418 E.02069
G1 X144.909 Y109.995 E.02105
G1 X145.215 Y110.609 E.02151
G1 X145.458 Y111.194 E.01986
G1 X145.656 Y111.78 E.01939
G1 X145.833 Y112.456 E.02191
G1 X145.963 Y113.172 E.02282
G1 X146.037 Y113.878 E.02226
G1 X146.058 Y114.541 E.0208
G1 X146.033 Y115.18 E.02005
G1 X145.961 Y115.846 E.021
G1 X145.843 Y116.496 E.02071
G1 X145.673 Y117.161 E.02152
G1 X145.455 Y117.812 E.02153
G1 X145.21 Y118.403 E.02006
G1 X144.921 Y118.983 E.02032
G1 X144.574 Y119.57 E.02138
G1 X144.194 Y120.121 E.02099
G1 X143.756 Y120.664 E.02187
G1 X143.292 Y121.162 E.02134
G1 X142.756 Y121.656 E.02285
G1 X142.253 Y122.056 E.02015
G1 X141.701 Y122.436 E.02101
G1 X141.129 Y122.772 E.0208
G1 X140.542 Y123.064 E.02056
G1 X139.91 Y123.324 E.02143
G1 X139.284 Y123.53 E.02066
G1 X138.638 Y123.694 E.0209
G1 X137.99 Y123.811 E.02065
G1 X137.324 Y123.883 E.021
G1 X136.643 Y123.907 E.02137
G1 X134.62 Y123.86 E.06345
G1 X115.835 Y123.859 E.58899
G1 X114.901 Y123.862 E.02929
G1 X113.316 Y123.907 E.04972
G1 X112.632 Y123.879 E.02146
G1 X111.964 Y123.804 E.02108
G1 X111.305 Y123.682 E.02101
G1 X110.688 Y123.522 E.01999
G1 X110.072 Y123.317 E.02036
G1 X109.466 Y123.067 E.02055
G1 X108.81 Y122.739 E.023
G1 X108.229 Y122.391 E.02123
G1 X107.696 Y122.017 E.02042
G1 X107.189 Y121.608 E.02042
G1 X106.686 Y121.139 E.02156
G1 X106.237 Y120.655 E.0207
G1 X105.833 Y120.155 E.02016
G1 X105.442 Y119.594 E.02144
G1 X105.092 Y119.004 E.02151
G1 X104.804 Y118.431 E.02011
G1 X104.556 Y117.838 E.02015
G1 X104.328 Y117.161 E.0224
G1 X104.148 Y116.451 E.02297
G1 X104.04 Y115.844 E.01933
G1 X103.972 Y115.229 E.0194
G1 X103.942 Y114.48 E.0235
G1 X103.972 Y113.769 E.02231
G1 X104.046 Y113.116 E.02061
G1 X104.165 Y112.472 E.02053
G1 X104.336 Y111.813 E.02135
G1 X104.545 Y111.192 E.02054
G1 X104.795 Y110.59 E.02044
G1 X105.075 Y110.028 E.01969
G1 X105.432 Y109.423 E.02203
G1 X105.842 Y108.833 E.02253
G1 X106.235 Y108.347 E.0196
G1 X106.647 Y107.901 E.01904
G1 X107.182 Y107.398 E.02302
G1 X107.769 Y106.928 E.02358
G1 X108.266 Y106.586 E.01892
G1 X108.779 Y106.279 E.01874
G1 X109.42 Y105.954 E.02253
G1 X109.908 Y105.752 E.01656
G1 X109.888 Y105.48 E.00855
G1 X108.694 Y105.177 E.03862
G1 X107.939 Y104.793 E.02656
G1 X107.06 Y103.977 E.03761
G1 X106.63 Y103.372 E.02327
G1 X106.141 Y101.79 E.05192
G1 X106.141 Y91.934 E.30903
G1 X106.2 Y91.171 E.02399
G1 X106.354 Y90.434 E.02361
G1 X106.6 Y89.72 E.02368
G1 X107.224 Y88.621 E.03963
M204 S1000
;WIPE_START
G1 F8640
G1 X107.964 Y87.752 E-.26355
G1 X108.553 Y87.262 E-.17691
G1 X109.223 Y86.841 E-.18271
G1 X109.922 Y86.529 E-.17683
;WIPE_END
G1 Z.6 F720
G1 X111.354 Y105.694 F10800
G1 Z.2 F720
G1 E.8 F2100
M204 S800
G1 F1200
G1 X111.997 Y105.572 E.02052
G1 X112.637 Y105.499 E.0202
G1 X113.287 Y105.471 E.0204
G1 X115.375 Y105.517 E.06548
G1 X135.109 Y105.515 E.61875
G1 X136.73 Y105.471 E.05084
G1 X137.365 Y105.499 E.01993
G1 X137.948 Y105.564 E.01839
G1 X138.524 Y105.667 E.01835
G1 X139.188 Y105.834 E.02147
G1 X139.83 Y106.048 E.02122
G1 X140.466 Y106.316 E.02164
G1 X140.974 Y106.573 E.01785
G1 X141.466 Y106.861 E.01787
G1 X142.059 Y107.269 E.02257
G1 X142.619 Y107.724 E.02262
G1 X143.047 Y108.126 E.01841
G1 X143.456 Y108.565 E.01881
G1 X143.885 Y109.096 E.0214
G1 X144.246 Y109.616 E.01985
G1 X144.574 Y110.169 E.02016
G1 X144.875 Y110.771 E.0211
G1 X145.103 Y111.321 E.01867
G1 X145.293 Y111.882 E.01857
G1 X145.466 Y112.544 E.02145
G1 X145.589 Y113.218 E.02148
G1 X145.661 Y113.91 E.02181
G1 X145.68 Y114.546 E.01995
G1 X145.657 Y115.146 E.01883
G1 X145.587 Y115.799 E.02059
G1 X145.476 Y116.409 E.01944
G1 X145.314 Y117.048 E.02067
G1 X145.1 Y117.685 E.02107
G1 X144.864 Y118.252 E.01926
G1 X144.587 Y118.808 E.01948
G1 X144.253 Y119.372 E.02055
G1 X143.887 Y119.9 E.02014
G1 X143.476 Y120.412 E.02059
G1 X143.031 Y120.89 E.02048
G1 X142.506 Y121.374 E.02239
G1 X142.024 Y121.757 E.0193
G1 X141.504 Y122.114 E.01978
G1 X140.955 Y122.437 E.01997
G1 X140.38 Y122.723 E.02014
G1 X139.785 Y122.968 E.02018
G1 X139.185 Y123.167 E.01982
G1 X138.565 Y123.324 E.02005
G1 X137.93 Y123.439 E.02023
G1 X137.29 Y123.507 E.02018
G1 X136.636 Y123.53 E.02052
G1 X134.624 Y123.483 E.0631
G1 X115.835 Y123.482 E.58912
M73 Q2 S34
G1 X114.896 Y123.485 E.02944
M73 P2 R34
G1 X113.311 Y123.53 E.04972
G1 X112.668 Y123.504 E.02018
G1 X112.013 Y123.43 E.02067
G1 X111.393 Y123.315 E.01977
G1 X110.789 Y123.159 E.01956
G1 X110.197 Y122.961 E.01957
G1 X109.616 Y122.721 E.01971
G1 X108.986 Y122.405 E.0221
G1 X108.429 Y122.071 E.02036
G1 X107.917 Y121.712 E.01961
G1 X107.431 Y121.319 E.0196
G1 X106.957 Y120.877 E.02032
G1 X106.526 Y120.413 E.01986
G1 X106.139 Y119.934 E.01931
G1 X105.763 Y119.395 E.02061
G1 X105.42 Y118.817 E.02107
G1 X105.15 Y118.279 E.01887
G1 X104.911 Y117.711 E.01932
G1 X104.688 Y117.048 E.02193
G1 X104.515 Y116.365 E.02209
G1 X104.413 Y115.784 E.0185
G1 X104.347 Y115.194 E.01861
G1 X104.319 Y114.473 E.02262
G1 X104.348 Y113.791 E.0214
G1 X104.42 Y113.165 E.01976
G1 X104.534 Y112.548 E.01967
G1 X104.699 Y111.914 E.02054
G1 X104.9 Y111.318 E.01972
G1 X105.135 Y110.753 E.01919
G1 X105.403 Y110.213 E.0189
G1 X105.745 Y109.633 E.02111
G1 X106.148 Y109.054 E.02212
G1 X106.516 Y108.598 E.01837
G1 X106.91 Y108.171 E.01822
G1 X107.424 Y107.688 E.02212
G1 X108 Y107.226 E.02315
G1 X108.465 Y106.906 E.0177
G1 X108.955 Y106.612 E.01792
G1 X109.584 Y106.293 E.02211
