; generated by PrusaSlicer 2.6.0+linux-x64-GTK3 on 2023-08-10 at 22:09:25 UTC


;
;
; 

; external perimeters extrusion width = 0.45mm
; perimeters extrusion width = 0.45mm
; infill extrusion width = 0.45mm
; solid infill extrusion width = 0.45mm
; top infill extrusion width = 0.40mm
; first layer extrusion width = 0.42mm

M73 P0 R65
M73 C60
M73 Q0 S66
M73 D60
M201 X1000 Y1000 Z200 E5000 ; sets maximum accelerations, mm/sec^2
M203 X200 Y200 Z12 E120 ; sets maximum feedrates, mm / sec
M204 S1250 T1250 ; sets acceleration (S) and retract acceleration (R), mm/sec^2
M205 X8.00 Y8.00 Z0.40 E4.50 ; sets the jerk limits, mm/sec
M205 S0 T0 ; sets the minimum extruding and travel feed rate, mm/sec
;TYPE:Custom
M862.3 P "MK3S" ; printer model check
M862.1 P0.4 ; nozzle diameter check
M115 U3.12.2 ; tell printer latest fw version
G90 ; use absolute coordinates
M83 ; extruder relative mode
M104 S215 ; set extruder temp
M140 S60 ; set bed temp
M190 S60 ; wait for bed temp
M109 S215 ; wait for extruder temp
G28 W ; home all without mesh bed level
G80 ; mesh bed leveling

G1 Z0.2 F720
G1 Y-3 F1000 ; go outside print area
G92 E0
G1 X60 E9 F1000 ; intro line
G1 X100 E12.5 F1000 ; intro line

G92 E0
M221 S95

; Don't change E values below. Excessive value can damage the printer.
M907 E430 ; set extruder motor current
G21 ; set units to millimeters
G90 ; use absolute coordinates
M83 ; use relative distances for extrusion
M900 K0.05 ; Filament gcode LA 1.5
M900 K30 ; Filament gcode LA 1.0
M107
;LAYER_CHANGE
;Z:0.2
;HEIGHT:0.2
;BEFORE_LAYER_CHANGE
G92 E0.0
;0.2


G1 E-.8 F2100
G1 Z.4 F720
;AFTER_LAYER_CHANGE
;0.2
G1 X43.06 Y87.117 F10800
G1 Z.2 F720
G1 E.8 F2100
M204 S800
;TYPE:Skirt/Brim
;WIDTH:0.42
G1 F1200
G1 X44 Y86.923 E.03009
G1 X206 Y86.923 E5.0794
G1 X207.307 Y87.315 E.04278
M73 C59
M73 Q0 S65
G1 X208.183 Y88.36 E.04275
G1 X208.377 Y89.3 E.03009
G1 X208.377 Y120.7 E.98452
G1 X207.985 Y122.007 E.04278
G1 X206.94 Y122.883 E.04275
G1 X206 Y123.077 E.03009
G1 X44 Y123.077 E5.0794
G1 X42.693 Y122.685 E.04278
G1 X41.817 Y121.64 E.04275
G1 X41.623 Y120.7 E.03009
G1 X41.623 Y89.3 E.98452
G1 X42.015 Y87.993 E.04278
G1 X43.014 Y87.155 E.04088
M204 S1000
; printing object EP.stl id:0 copy 0
;WIPE_START
G1 F8640
G1 X44 Y86.923 E-.23389
G1 X46.452 Y86.923 E-.56611
;WIPE_END
G1 Z.6 F720
G1 X205.213 Y119.913 F10800
G1 Z.2 F720
M73 D59
G1 E.8 F2100
M204 S800
;TYPE:Perimeter
;WIDTH:0.419999
G1 F1200
G1 X44.787 Y119.913 E5.03004
G1 X44.787 Y90.087 E.93517
G1 X205.213 Y90.087 E5.03004
G1 X205.213 Y119.853 E.93329
M204 S1000
M73 P1 R65
M73 Q1 S65
G1 X205.59 Y120.29 F10800
M204 S800
;TYPE:External perimeter
M73 P1 R64
G1 F1200
G1 X44.41 Y120.29 E5.05368
G1 X44.41 Y89.71 E.95881
G1 X205.59 Y89.71 E5.05368
G1 X205.59 Y120.23 E.95693
M204 S1000
G1 X205.191 Y120.265 F10800
;WIPE_START
G1 F8640
G1 X202.125 Y120.231 E-.8
;WIPE_END
G1 Z.6 F720
G1 X205.043 Y91.02 F10800
G1 Z.2 F720
G1 E.8 F2100
M204 S800
;TYPE:Solid infill
;WIDTH:0.420671
G1 F1200
G1 X204.449 Y90.426 E.02639
G1 X203.915 Y90.426 E.01677
G1 X204.874 Y91.385 E.0426
G1 X204.874 Y91.919 E.01677
G1 X203.381 Y90.426 E.06632
G1 X202.847 Y90.426 E.01677
M73 C58
G1 X204.874 Y92.453 E.09004
G1 X204.874 Y92.988 E.0168
G1 X202.312 Y90.426 E.11381
G1 X201.778 Y90.426 E.01677
G1 X204.874 Y93.522 E.13753
G1 X204.874 Y94.056 E.01677
G1 X201.244 Y90.426 E.16125
G1 X200.71 Y90.426 E.01677
G1 X204.874 Y94.59 E.18497
G1 X204.874 Y95.125 E.0168
G1 X200.175 Y90.426 E.20873
G1 X199.641 Y90.426 E.01677
G1 X204.874 Y95.659 E.23245
G1 X204.874 Y96.193 E.01677
G1 X199.107 Y90.426 E.25617
G1 X198.573 Y90.426 E.01677
G1 X204.874 Y96.727 E.27989
G1 X204.874 Y97.261 E.01677
G1 X198.039 Y90.426 E.30361
G1 X197.504 Y90.426 E.0168
G1 X204.874 Y97.796 E.32738
G1 X204.874 Y98.33 E.01677
G1 X196.97 Y90.426 E.3511
G1 X196.436 Y90.426 E.01677
G1 X204.874 Y98.864 E.37482
G1 X204.874 Y99.398 E.01677
M73 Q1 S64
G1 X195.902 Y90.426 E.39854
G1 X195.367 Y90.426 E.0168
G1 X204.874 Y99.933 E.42231
G1 X204.874 Y100.467 E.01677
G1 X194.833 Y90.426 E.44603
G1 X194.299 Y90.426 E.01677
G1 X204.874 Y101.001 E.46975
G1 X204.874 Y101.535 E.01677
G1 X193.765 Y90.426 E.49347
G1 X193.231 Y90.426 E.01677
G1 X204.874 Y102.069 E.51719
G1 X204.874 Y102.604 E.0168
G1 X192.696 Y90.426 E.54095
G1 X192.162 Y90.426 E.01677
M73 Q2 S64
G1 X204.874 Y103.138 E.56467
G1 X204.874 Y103.672 E.01677
M73 P2 R64
G1 X191.628 Y90.426 E.5884
G1 X191.094 Y90.426 E.01677
G1 X204.874 Y104.206 E.61212
G1 X204.874 Y104.741 E.0168
G1 X190.559 Y90.426 E.63588
G1 X190.025 Y90.426 E.01677
G1 X204.874 Y105.275 E.6596
G1 X204.874 Y105.809 E.01677
G1 X189.491 Y90.426 E.68332
G1 X188.957 Y90.426 E.01677
G1 X204.874 Y106.343 E.70704
G1 X204.874 Y106.877 E.01677
G1 X188.423 Y90.426 E.73076
G1 X187.888 Y90.426 E.0168
M73 D58
G1 X204.874 Y107.412 E.75453
G1 X204.874 Y107.946 E.01677
G1 X187.354 Y90.426 E.77825
G1 X186.82 Y90.426 E.01677
G1 X204.874 Y108.48 E.80197
G1 X204.874 Y109.014 E.01677
G1 X186.286 Y90.426 E.82569
G1 X185.752 Y90.426 E.01677
G1 X204.874 Y109.548 E.84941
G1 X204.874 Y110.083 E.0168
G1 X185.217 Y90.426 E.87318
G1 X184.683 Y90.426 E.01677
G1 X204.874 Y110.617 E.8969
G1 X204.874 Y111.151 E.01677
G1 X184.149 Y90.426 E.92062
G1 X183.615 Y90.426 E.01677
G1 X204.874 Y111.685 E.94434
G1 X204.874 Y112.22 E.0168
G1 X183.08 Y90.426 E.9681
G1 X182.546 Y90.426 E.01677
G1 X204.874 Y112.754 E.99182
G1 X204.874 Y113.288 E.01677
G1 X182.012 Y90.426 E1.01554
G1 X181.478 Y90.426 E.01677
G1 X204.874 Y113.822 E1.03926
G1 X204.874 Y114.356 E.01677
G1 X180.944 Y90.426 E1.06299
G1 X180.409 Y90.426 E.0168
M73 P2 R63
G1 X204.874 Y114.891 E1.08675
G1 X204.874 Y115.425 E.01677
G1 X179.875 Y90.426 E1.11047
G1 X179.341 Y90.426 E.01677
G1 X204.874 Y115.959 E1.13419
G1 X204.874 Y116.493 E.01677
G1 X178.807 Y90.426 E1.15791
G1 X178.272 Y90.426 E.0168
G1 X204.874 Y117.028 E1.18168
G1 X204.874 Y117.562 E.01677
G1 X177.738 Y90.426 E1.2054
G1 X177.204 Y90.426 E.01677
M73 P3 R63
M73 Q3 S64
G1 X204.874 Y118.096 E1.22912
G1 X204.874 Y118.63 E.01677
G1 X176.67 Y90.426 E1.25284
G1 X176.136 Y90.426 E.01677
G1 X204.874 Y119.164 E1.27656
G1 X204.874 Y119.574 E.01288
G1 X204.748 Y119.574 E.00396
G1 X175.601 Y90.426 E1.29475
G1 X175.067 Y90.426 E.01677
G1 X204.214 Y119.574 E1.29475
G1 X203.68 Y119.574 E.01677
M73 C57
G1 X174.533 Y90.426 E1.29475
G1 X173.999 Y90.426 E.01677
G1 X203.146 Y119.574 E1.29475
G1 X202.612 Y119.574 E.01677
M73 Q3 S63
G1 X173.464 Y90.426 E1.29477
G1 X172.93 Y90.426 E.01677
G1 X202.077 Y119.574 E1.29475
G1 X201.543 Y119.574 E.01677
G1 X172.396 Y90.426 E1.29475
G1 X171.862 Y90.426 E.01677
G1 X201.009 Y119.574 E1.29475
G1 X200.475 Y119.574 E.01677
G1 X171.328 Y90.426 E1.29475
G1 X170.793 Y90.426 E.0168
G1 X199.94 Y119.574 E1.29475
G1 X199.406 Y119.574 E.01677
G1 X170.259 Y90.426 E1.29475
G1 X169.725 Y90.426 E.01677
M73 D57
G1 X198.872 Y119.574 E1.29475
G1 X198.338 Y119.574 E.01677
G1 X169.191 Y90.426 E1.29475
G1 X168.656 Y90.426 E.0168
G1 X197.804 Y119.574 E1.29477
G1 X197.269 Y119.574 E.0168
G1 X168.122 Y90.426 E1.29475
G1 X167.588 Y90.426 E.01677
G1 X196.735 Y119.574 E1.29475
G1 X196.201 Y119.574 E.01677
M73 P4 R63
M73 Q4 S63
G1 X167.054 Y90.426 E1.29475
G1 X166.52 Y90.426 E.01677
G1 X195.667 Y119.574 E1.29475
G1 X195.132 Y119.574 E.0168
G1 X165.985 Y90.426 E1.29475
G1 X165.451 Y90.426 E.01677
G1 X194.598 Y119.574 E1.29475
G1 X194.064 Y119.574 E.01677
G1 X164.917 Y90.426 E1.29475
G1 X164.383 Y90.426 E.01677
M73 P4 R62
G1 X193.53 Y119.574 E1.29475
G1 X192.996 Y119.574 E.01677
G1 X163.848 Y90.426 E1.29477
G1 X163.314 Y90.426 E.01677
G1 X192.461 Y119.574 E1.29475
G1 X191.927 Y119.574 E.01677
G1 X162.78 Y90.426 E1.29475
G1 X162.246 Y90.426 E.01677
G1 X191.393 Y119.574 E1.29475
G1 X190.859 Y119.574 E.01677
G1 X161.712 Y90.426 E1.29475
G1 X161.177 Y90.426 E.0168
G1 X190.324 Y119.574 E1.29475
G1 X189.79 Y119.574 E.01677
G1 X160.643 Y90.426 E1.29475
G1 X160.109 Y90.426 E.01677
G1 X189.256 Y119.574 E1.29475
G1 X188.722 Y119.574 E.01677
M73 C56
G1 X159.575 Y90.426 E1.29475
G1 X159.04 Y90.426 E.0168
G1 X188.188 Y119.574 E1.29477
G1 X187.653 Y119.574 E.0168
G1 X158.506 Y90.426 E1.29475
G1 X157.972 Y90.426 E.01677
M73 Q4 S62
G1 X187.119 Y119.574 E1.29475
G1 X186.585 Y119.574 E.01677
G1 X157.438 Y90.426 E1.29475
G1 X156.904 Y90.426 E.01677
M73 P5 R62
M73 Q5 S62
G1 X186.051 Y119.574 E1.29475
G1 X185.516 Y119.574 E.0168
G1 X156.369 Y90.426 E1.29475
G1 X155.835 Y90.426 E.01677
G1 X184.982 Y119.574 E1.29475
G1 X184.448 Y119.574 E.01677
G1 X155.301 Y90.426 E1.29475
G1 X154.767 Y90.426 E.01677
M73 D56
G1 X183.914 Y119.574 E1.29475
G1 X183.38 Y119.574 E.01677
G1 X154.232 Y90.426 E1.29477
G1 X153.698 Y90.426 E.01677
G1 X182.845 Y119.574 E1.29475
G1 X182.311 Y119.574 E.01677
G1 X153.164 Y90.426 E1.29475
G1 X152.63 Y90.426 E.01677
G1 X181.777 Y119.574 E1.29475
G1 X181.243 Y119.574 E.01677
G1 X152.096 Y90.426 E1.29475
G1 X151.561 Y90.426 E.0168
G1 X180.708 Y119.574 E1.29475
G1 X180.174 Y119.574 E.01677
G1 X151.027 Y90.426 E1.29475
G1 X150.493 Y90.426 E.01677
G1 X179.64 Y119.574 E1.29475
G1 X179.106 Y119.574 E.01677
G1 X149.959 Y90.426 E1.29475
G1 X149.425 Y90.426 E.01677
M73 P5 R61
G1 X178.572 Y119.574 E1.29475
G1 X178.037 Y119.574 E.0168
G1 X148.89 Y90.426 E1.29475
G1 X148.356 Y90.426 E.01677
G1 X177.503 Y119.574 E1.29475
G1 X176.969 Y119.574 E.01677
G1 X147.822 Y90.426 E1.29475
G1 X147.288 Y90.426 E.01677
G1 X176.435 Y119.574 E1.29475
G1 X175.901 Y119.574 E.01677
M73 P6 R61
M73 Q6 S62
G1 X146.753 Y90.426 E1.29477
G1 X146.219 Y90.426 E.01677
G1 X175.366 Y119.574 E1.29475
G1 X174.832 Y119.574 E.01677
G1 X145.685 Y90.426 E1.29475
G1 X145.151 Y90.426 E.01677
G1 X174.298 Y119.574 E1.29475
G1 X173.764 Y119.574 E.01677
G1 X144.617 Y90.426 E1.29475
G1 X144.082 Y90.426 E.0168
M73 C55
G1 X173.229 Y119.574 E1.29475
G1 X172.695 Y119.574 E.01677
G1 X143.548 Y90.426 E1.29475
G1 X143.014 Y90.426 E.01677
M73 Q6 S61
G1 X172.161 Y119.574 E1.29475
G1 X171.627 Y119.574 E.01677
G1 X142.48 Y90.426 E1.29475
G1 X141.945 Y90.426 E.0168
G1 X171.093 Y119.574 E1.29477
G1 X170.558 Y119.574 E.0168
G1 X141.411 Y90.426 E1.29475
G1 X140.877 Y90.426 E.01677
G1 X170.024 Y119.574 E1.29475
G1 X169.49 Y119.574 E.01677
G1 X140.343 Y90.426 E1.29475
G1 X139.809 Y90.426 E.01677
G1 X168.956 Y119.574 E1.29475
G1 X168.421 Y119.574 E.0168
M73 D55
G1 X139.274 Y90.426 E1.29475
G1 X138.74 Y90.426 E.01677
G1 X167.887 Y119.574 E1.29475
G1 X167.353 Y119.574 E.01677
G1 X138.206 Y90.426 E1.29475
G1 X137.672 Y90.426 E.01677
G1 X166.819 Y119.574 E1.29475
G1 X166.285 Y119.574 E.01677
M73 P7 R61
G1 X137.137 Y90.426 E1.29477
G1 X136.603 Y90.426 E.01677
M73 Q7 S61
G1 X165.75 Y119.574 E1.29475
G1 X165.216 Y119.574 E.01677
G1 X136.069 Y90.426 E1.29475
G1 X135.535 Y90.426 E.01677
G1 X164.682 Y119.574 E1.29475
G1 X164.148 Y119.574 E.01677
G1 X135.001 Y90.426 E1.29475
G1 X134.466 Y90.426 E.0168
G1 X163.613 Y119.574 E1.29475
G1 X163.079 Y119.574 E.01677
M73 P7 R60
G1 X133.932 Y90.426 E1.29475
G1 X133.398 Y90.426 E.01677
G1 X162.545 Y119.574 E1.29475
G1 X162.011 Y119.574 E.01677
G1 X132.864 Y90.426 E1.29475
G1 X132.329 Y90.426 E.0168
G1 X161.477 Y119.574 E1.29477
G1 X160.942 Y119.574 E.0168
G1 X131.795 Y90.426 E1.29475
G1 X131.261 Y90.426 E.01677
G1 X160.408 Y119.574 E1.29475
G1 X159.874 Y119.574 E.01677
G1 X130.727 Y90.426 E1.29475
G1 X130.193 Y90.426 E.01677
G1 X159.34 Y119.574 E1.29475
G1 X158.805 Y119.574 E.0168
G1 X129.658 Y90.426 E1.29475
G1 X129.124 Y90.426 E.01677
M73 C54
G1 X158.271 Y119.574 E1.29475
G1 X157.737 Y119.574 E.01677
G1 X128.59 Y90.426 E1.29475
G1 X128.056 Y90.426 E.01677
G1 X157.203 Y119.574 E1.29475
G1 X156.669 Y119.574 E.01677
M73 Q7 S60
G1 X127.521 Y90.426 E1.29477
G1 X126.987 Y90.426 E.01677
M73 P8 R60
G1 X156.134 Y119.574 E1.29475
G1 X155.6 Y119.574 E.01677
M73 Q8 S60
G1 X126.453 Y90.426 E1.29475
G1 X125.919 Y90.426 E.01677
G1 X155.066 Y119.574 E1.29475
G1 X154.532 Y119.574 E.01677
G1 X125.385 Y90.426 E1.29475
G1 X124.85 Y90.426 E.0168
G1 X153.997 Y119.574 E1.29475
G1 X153.463 Y119.574 E.01677
G1 X124.316 Y90.426 E1.29475
G1 X123.782 Y90.426 E.01677
M73 D54
G1 X152.929 Y119.574 E1.29475
G1 X152.395 Y119.574 E.01677
G1 X123.248 Y90.426 E1.29475
G1 X122.713 Y90.426 E.0168
G1 X151.861 Y119.574 E1.29477
G1 X151.326 Y119.574 E.0168
G1 X122.179 Y90.426 E1.29475
G1 X121.645 Y90.426 E.01677
G1 X150.792 Y119.574 E1.29475
G1 X150.258 Y119.574 E.01677
G1 X121.111 Y90.426 E1.29475
G1 X120.577 Y90.426 E.01677
G1 X149.724 Y119.574 E1.29475
G1 X149.189 Y119.574 E.0168
G1 X120.042 Y90.426 E1.29475
G1 X119.508 Y90.426 E.01677
G1 X148.655 Y119.574 E1.29475
G1 X148.121 Y119.574 E.01677
M73 P8 R59
G1 X118.974 Y90.426 E1.29475
G1 X118.44 Y90.426 E.01677
G1 X147.587 Y119.574 E1.29475
G1 X147.053 Y119.574 E.01677
G1 X117.905 Y90.426 E1.29477
G1 X117.371 Y90.426 E.01677
G1 X146.518 Y119.574 E1.29475
G1 X145.984 Y119.574 E.01677
M73 P9 R59
G1 X116.837 Y90.426 E1.29475
G1 X116.303 Y90.426 E.01677
M73 Q9 S60
G1 X145.45 Y119.574 E1.29475
G1 X144.916 Y119.574 E.01677
G1 X115.769 Y90.426 E1.29475
G1 X115.234 Y90.426 E.0168
G1 X144.381 Y119.574 E1.29475
G1 X143.847 Y119.574 E.01677
G1 X114.7 Y90.426 E1.29475
G1 X114.166 Y90.426 E.01677
G1 X143.313 Y119.574 E1.29475
G1 X142.779 Y119.574 E.01677
M73 C53
G1 X113.632 Y90.426 E1.29475
G1 X113.098 Y90.426 E.01677
G1 X142.245 Y119.574 E1.29475
G1 X141.71 Y119.574 E.0168
M73 Q9 S59
G1 X112.563 Y90.426 E1.29475
G1 X112.029 Y90.426 E.01677
G1 X141.176 Y119.574 E1.29475
G1 X140.642 Y119.574 E.01677
G1 X111.495 Y90.426 E1.29475
G1 X110.961 Y90.426 E.01677
G1 X140.108 Y119.574 E1.29475
G1 X139.574 Y119.574 E.01677
G1 X110.426 Y90.426 E1.29477
G1 X109.892 Y90.426 E.01677
G1 X139.039 Y119.574 E1.29475
G1 X138.505 Y119.574 E.01677
G1 X109.358 Y90.426 E1.29475
G1 X108.824 Y90.426 E.01677
M73 D53
G1 X137.971 Y119.574 E1.29475
G1 X137.437 Y119.574 E.01677
G1 X108.29 Y90.426 E1.29475
G1 X107.755 Y90.426 E.0168
G1 X136.902 Y119.574 E1.29475
G1 X136.368 Y119.574 E.01677
G1 X107.221 Y90.426 E1.29475
G1 X106.687 Y90.426 E.01677
M73 P10 R59
M73 Q10 S59
G1 X135.834 Y119.574 E1.29475
G1 X135.3 Y119.574 E.01677
G1 X106.153 Y90.426 E1.29475
G1 X105.618 Y90.426 E.0168
G1 X134.766 Y119.574 E1.29477
G1 X134.231 Y119.574 E.0168
G1 X105.084 Y90.426 E1.29475
G1 X104.55 Y90.426 E.01677
G1 X133.697 Y119.574 E1.29475
G1 X133.163 Y119.574 E.01677
G1 X104.016 Y90.426 E1.29475
G1 X103.482 Y90.426 E.01677
M73 P10 R58
G1 X132.629 Y119.574 E1.29475
G1 X132.094 Y119.574 E.0168
G1 X102.947 Y90.426 E1.29475
G1 X102.413 Y90.426 E.01677
G1 X131.56 Y119.574 E1.29475
G1 X131.026 Y119.574 E.01677
G1 X101.879 Y90.426 E1.29475
G1 X101.345 Y90.426 E.01677
G1 X130.492 Y119.574 E1.29475
G1 X129.958 Y119.574 E.01677
G1 X100.81 Y90.426 E1.29477
G1 X100.276 Y90.426 E.01677
G1 X129.423 Y119.574 E1.29475
G1 X128.889 Y119.574 E.01677
G1 X99.742 Y90.426 E1.29475
G1 X99.208 Y90.426 E.01677
G1 X128.355 Y119.574 E1.29475
G1 X127.821 Y119.574 E.01677
M73 C52
G1 X98.674 Y90.426 E1.29475
G1 X98.139 Y90.426 E.0168
G1 X127.286 Y119.574 E1.29475
G1 X126.752 Y119.574 E.01677
G1 X97.605 Y90.426 E1.29475
G1 X97.071 Y90.426 E.01677
M73 P11 R58
M73 Q10 S58
G1 X126.218 Y119.574 E1.29475
G1 X125.684 Y119.574 E.01677
M73 Q11 S58
G1 X96.537 Y90.426 E1.29475
G1 X96.002 Y90.426 E.0168
G1 X125.15 Y119.574 E1.29477
G1 X124.615 Y119.574 E.0168
G1 X95.468 Y90.426 E1.29475
G1 X94.934 Y90.426 E.01677
G1 X124.081 Y119.574 E1.29475
G1 X123.547 Y119.574 E.01677
G1 X94.4 Y90.426 E1.29475
G1 X93.866 Y90.426 E.01677
G1 X123.013 Y119.574 E1.29475
G1 X122.478 Y119.574 E.0168
M73 D52
G1 X93.331 Y90.426 E1.29475
G1 X92.797 Y90.426 E.01677
G1 X121.944 Y119.574 E1.29475
G1 X121.41 Y119.574 E.01677
G1 X92.263 Y90.426 E1.29475
G1 X91.729 Y90.426 E.01677
G1 X120.876 Y119.574 E1.29475
G1 X120.342 Y119.574 E.01677
G1 X91.194 Y90.426 E1.29477
G1 X90.66 Y90.426 E.01677
G1 X119.807 Y119.574 E1.29475
G1 X119.273 Y119.574 E.01677
G1 X90.126 Y90.426 E1.29475
G1 X89.592 Y90.426 E.01677
G1 X118.739 Y119.574 E1.29475
G1 X118.205 Y119.574 E.01677
G1 X89.058 Y90.426 E1.29475
G1 X88.523 Y90.426 E.0168
M73 P11 R57
G1 X117.67 Y119.574 E1.29475
G1 X117.136 Y119.574 E.01677
G1 X87.989 Y90.426 E1.29475
