; generated by PrusaSlicer 2.8.1+win64 on 2024-10-05 at 20:38:12 UTC


;
;
; 

; external perimeters extrusion width = 0.68mm
; perimeters extrusion width = 0.68mm
; infill extrusion width = 0.68mm
; solid infill extrusion width = 0.68mm
; top infill extrusion width = 0.60mm
; first layer extrusion width = 0.65mm

M73 P0 R83
M73 Q0 S85
M201 X1000 Y1000 Z200 E5000 ; sets maximum accelerations, mm/sec^2
M203 X200 Y200 Z12 E120 ; sets maximum feedrates, mm / sec
M204 S1250 T1250 ; sets acceleration (S) and retract acceleration (R), mm/sec^2
M205 X8.00 Y8.00 Z0.40 E4.50 ; sets the jerk limits, mm/sec
M205 S0 T0 ; sets the minimum extruding and travel feed rate, mm/sec

; printing object 5x5_base_plate.stl id:0 copy 0
; stop printing object 5x5_base_plate.stl id:0 copy 0

;TYPE:Custom
M862.3 P "MK3S" ; printer model check
M862.1 P0.6 ; nozzle diameter check
M115 U3.14.0 ; tell printer latest fw version
G90 ; use absolute coordinates
M83 ; extruder relative mode
M104 S215 ; set extruder temp
M140 S60 ; set bed temp
M190 S60 ; wait for bed temp
M109 S215 ; wait for extruder temp
G28 W ; home all without mesh bed level
G80 X20 Y1e-06 W210 H210 ; mesh bed levelling

G1 Z0.2 F720
G1 Y-3 F1000 ; go outside print area
G92 E0
G1 X60 E9 F1000 ; intro line
G1 X100 E12.5 F1000 ; intro line

G92 E0
M221 S95
G21 ; set units to millimeters
G90 ; use absolute coordinates
M83 ; use relative distances for extrusion

M900 K0.04 ; Filament gcode LA 1.5
M900 K18 ; Filament gcode LA 1.0




M107
;LAYER_CHANGE
;Z:0.2
;HEIGHT:0.2
G1 E-.8 F2100
G1 Z.6 F720
; printing object 5x5_base_plate.stl id:0 copy 0
G1 X107.767 Y85.638 F10800
G1 Z.2 F720
G1 E.8 F1500
M204 S800
;TYPE:Perimeter
;WIDTH:0.649999
G1 F1200
G1 X107.994 Y85.618 E.0115
G1 X142.006 Y85.618 E1.71689
G1 X142.551 Y85.685 E.02772
G1 X142.992 Y85.837 E.02355
G1 X143.395 Y86.073 E.02357
G1 X143.745 Y86.382 E.02357
G1 X144.027 Y86.753 E.02352
G1 X144.231 Y87.173 E.02357
G1 X144.349 Y87.622 E.02343
G1 X144.382 Y87.994 E.01885
G1 X144.382 Y122.006 E1.71689
G1 X144.315 Y122.551 E.02772
G1 X144.163 Y122.992 E.02355
G1 X143.927 Y123.395 E.02357
G1 X143.618 Y123.744 E.02353
G1 X143.247 Y124.027 E.02355
G1 X142.827 Y124.231 E.02357
G1 X142.378 Y124.349 E.02343
G1 X142.006 Y124.382 E.01885
G1 X107.994 Y124.382 E1.71689
G1 X107.449 Y124.315 E.02772
G1 X107.008 Y124.163 E.02355
G1 X106.605 Y123.927 E.02357
G1 X106.255 Y123.618 E.02357
G1 X106.073 Y123.395 E.01453
G1 X105.8 Y122.915 E.02787
G1 X105.651 Y122.378 E.02813
G1 X105.618 Y122.006 E.01885
G1 X105.618 Y87.994 E1.71689
M73 P0 R82
G1 X105.685 Y87.449 E.02772
G1 X105.837 Y87.008 E.02355
G1 X106.072 Y86.605 E.02355
G1 X106.382 Y86.255 E.0236
G1 X106.753 Y85.973 E.02352
G1 X107.173 Y85.769 E.02357
G1 X107.622 Y85.651 E.02343
G1 X107.678 Y85.646 E.00284
M204 S1000
G1 X107.678 Y85.646 F10800
G1 X107.827 Y86.241
M204 S800
;TYPE:External perimeter
G1 F1200
G1 X107.994 Y86.225 E.00847
G1 X142.006 Y86.225 E1.71689
G1 X142.375 Y86.266 E.01874
G1 X142.706 Y86.373 E.01756
G1 X143.01 Y86.542 E.01756
G1 X143.275 Y86.767 E.01755
G1 X143.491 Y87.039 E.01753
G1 X143.65 Y87.349 E.01759
G1 X143.745 Y87.683 E.01753
G1 X143.775 Y87.994 E.01577
G1 X143.775 Y122.006 E1.71689
G1 X143.734 Y122.375 E.01874
G1 X143.627 Y122.706 E.01756
G1 X143.458 Y123.01 E.01756
G1 X143.233 Y123.275 E.01755
G1 X142.961 Y123.491 E.01753
G1 X142.651 Y123.65 E.01759
G1 X142.317 Y123.745 E.01753
G1 X142.006 Y123.775 E.01577
G1 X107.994 Y123.775 E1.71689
G1 X107.625 Y123.734 E.01874
G1 X107.294 Y123.627 E.01756
G1 X106.99 Y123.458 E.01756
G1 X106.725 Y123.233 E.01755
G1 X106.542 Y123.01 E.01456
G1 X106.35 Y122.651 E.02055
G1 X106.255 Y122.317 E.01753
G1 X106.225 Y122.006 E.01577
G1 X106.225 Y87.994 E1.71689
G1 X106.266 Y87.625 E.01874
G1 X106.373 Y87.294 E.01756
G1 X106.542 Y86.99 E.01756
G1 X106.767 Y86.725 E.01755
G1 X107.039 Y86.509 E.01753
G1 X107.349 Y86.35 E.01759
G1 X107.683 Y86.255 E.01753
G1 X107.737 Y86.249 E.00274
M204 S1000
;WIPE_START
G1 F8640
G1 X107.827 Y86.241 E-.02086
G1 X107.994 Y86.225 E-.03874
G1 X111.201 Y86.225 E-.7404
;WIPE_END
G1 Z.6 F720
G1 X63.638 Y122.233 F10800
G1 Z.2 F720
G1 E.8 F1500
M204 S800
;TYPE:Perimeter
G1 F1200
G1 X63.618 Y122.006 E.0115
G1 X63.618 Y87.994 E1.71689
G1 X63.685 Y87.449 E.02772
G1 X63.837 Y87.008 E.02355
G1 X64.073 Y86.605 E.02357
G1 X64.382 Y86.255 E.02357
G1 X64.753 Y85.973 E.02352
G1 X65.173 Y85.769 E.02357
G1 X65.622 Y85.651 E.02343
G1 X65.994 Y85.618 E.01885
G1 X100.006 Y85.618 E1.71689
G1 X100.551 Y85.685 E.02772
G1 X100.992 Y85.837 E.02355
G1 X101.395 Y86.072 E.02355
G1 X101.745 Y86.382 E.0236
G1 X102.027 Y86.753 E.02352
G1 X102.231 Y87.173 E.02357
G1 X102.349 Y87.622 E.02343
G1 X102.382 Y87.994 E.01885
M73 Q0 S84
G1 X102.382 Y122.006 E1.71689
G1 X102.315 Y122.551 E.02772
G1 X102.163 Y122.992 E.02355
G1 X101.927 Y123.395 E.02357
G1 X101.745 Y123.618 E.01453
G1 X101.328 Y123.977 E.02778
G1 X100.828 Y124.231 E.02831
G1 X100.378 Y124.349 E.02348
G1 X100.006 Y124.382 E.01885
G1 X65.994 Y124.382 E1.71689
G1 X65.449 Y124.315 E.02772
G1 X65.008 Y124.163 E.02355
G1 X64.605 Y123.928 E.02355
G1 X64.256 Y123.618 E.02356
G1 X63.973 Y123.247 E.02355
G1 X63.769 Y122.827 E.02357
G1 X63.651 Y122.378 E.02343
G1 X63.646 Y122.322 E.00284
M204 S1000
G1 X63.646 Y122.322 F10800
G1 X64.241 Y122.173
M204 S800
;TYPE:External perimeter
G1 F1200
G1 X64.225 Y122.006 E.00847
G1 X64.225 Y87.994 E1.71689
G1 X64.266 Y87.625 E.01874
G1 X64.373 Y87.294 E.01756
G1 X64.542 Y86.99 E.01756
G1 X64.767 Y86.725 E.01755
G1 X65.039 Y86.509 E.01753
G1 X65.349 Y86.35 E.01759
G1 X65.683 Y86.255 E.01753
G1 X65.994 Y86.225 E.01577
G1 X100.006 Y86.225 E1.71689
G1 X100.375 Y86.266 E.01874
G1 X100.706 Y86.373 E.01756
G1 X101.01 Y86.542 E.01756
G1 X101.275 Y86.767 E.01755
G1 X101.491 Y87.039 E.01753
G1 X101.65 Y87.349 E.01759
G1 X101.745 Y87.683 E.01753
G1 X101.775 Y87.994 E.01577
G1 X101.775 Y122.006 E1.71689
G1 X101.734 Y122.375 E.01874
G1 X101.627 Y122.706 E.01756
G1 X101.458 Y123.01 E.01756
G1 X101.275 Y123.233 E.01456
G1 X100.961 Y123.491 E.02051
G1 X100.651 Y123.65 E.01759
G1 X100.317 Y123.745 E.01753
G1 X100.006 Y123.775 E.01577
G1 X65.994 Y123.775 E1.71689
G1 X65.625 Y123.734 E.01874
G1 X65.294 Y123.627 E.01756
G1 X64.99 Y123.458 E.01756
G1 X64.725 Y123.233 E.01755
G1 X64.509 Y122.961 E.01753
G1 X64.35 Y122.651 E.01759
G1 X64.255 Y122.317 E.01753
G1 X64.249 Y122.263 E.00274
M204 S1000
;WIPE_START
G1 F8640
G1 X64.241 Y122.173 E-.02086
G1 X64.225 Y122.006 E-.03874
G1 X64.225 Y118.799 E-.7404
;WIPE_END
G1 Z.6 F720
G1 X58.246 Y85.648 F10800
G1 Z.2 F720
G1 E.8 F1500
M204 S800
;TYPE:Perimeter
G1 F1200
G1 X58.551 Y85.685 E.01551
G1 X58.992 Y85.837 E.02355
G1 X59.395 Y86.073 E.02357
G1 X59.745 Y86.382 E.02357
G1 X60.027 Y86.753 E.02352
G1 X60.231 Y87.173 E.02357
G1 X60.349 Y87.622 E.02343
G1 X60.382 Y87.994 E.01885
G1 X60.382 Y122.006 E1.71689
G1 X60.315 Y122.551 E.02772
G1 X60.2 Y122.915 E.01927
G1 X59.928 Y123.395 E.02785
G1 X59.618 Y123.745 E.0236
G1 X59.247 Y124.027 E.02352
G1 X58.827 Y124.231 E.02357
G1 X58.378 Y124.349 E.02343
G1 X58.006 Y124.382 E.01885
G1 X23.994 Y124.382 E1.71689
G1 X23.449 Y124.315 E.02772
G1 X23.008 Y124.163 E.02355
G1 X22.605 Y123.928 E.02355
G1 X22.255 Y123.618 E.0236
G1 X21.973 Y123.247 E.02352
G1 X21.774 Y122.826 E.02351
;WIDTH:0.639669
G1 X21.672 Y122.376 E.0229
;WIDTH:0.60635
G1 X21.648 Y122.006 E.01737
;WIDTH:0.589381
G1 X21.648 Y87.994 E1.54545
;WIDTH:0.623152
G1 X21.698 Y87.452 E.02626
;WIDTH:0.649999
G1 X21.837 Y87.008 E.02349
G1 X22.072 Y86.605 E.02355
G1 X22.382 Y86.256 E.02356
G1 X22.753 Y85.973 E.02355
G1 X23.173 Y85.769 E.02357
G1 X23.622 Y85.651 E.02343
G1 X23.994 Y85.618 E.01885
G1 X58.006 Y85.618 E1.71689
G1 X58.157 Y85.637 E.00768
M204 S1000
G1 X58.157 Y85.637 F10800
G1 X58.184 Y86.245
M204 S800
;TYPE:External perimeter
G1 F1200
G1 X58.375 Y86.266 E.0097
G1 X58.706 Y86.373 E.01756
G1 X59.01 Y86.542 E.01756
G1 X59.275 Y86.767 E.01755
G1 X59.491 Y87.039 E.01753
G1 X59.65 Y87.349 E.01759
G1 X59.745 Y87.683 E.01753
G1 X59.775 Y87.994 E.01577
G1 X59.775 Y122.006 E1.71689
G1 X59.734 Y122.375 E.01874
G1 X59.64 Y122.68 E.01611
G1 X59.458 Y123.01 E.01902
G1 X59.233 Y123.275 E.01755
G1 X58.961 Y123.491 E.01753
G1 X58.651 Y123.65 E.01759
G1 X58.317 Y123.745 E.01753
G1 X58.006 Y123.775 E.01577
G1 X23.994 Y123.775 E1.71689
G1 X23.593 Y123.724 E.02041
G1 X23.294 Y123.627 E.01587
G1 X22.99 Y123.458 E.01756
G1 X22.725 Y123.233 E.01755
G1 X22.509 Y122.961 E.01753
G1 X22.35 Y122.651 E.01759
G1 X22.255 Y122.317 E.01753
G1 X22.225 Y122.006 E.01577
G1 X22.225 Y87.994 E1.71689
G1 X22.266 Y87.625 E.01874
M73 P1 R82
M73 Q1 S84
G1 X22.373 Y87.294 E.01756
G1 X22.542 Y86.99 E.01756
G1 X22.767 Y86.725 E.01755
G1 X23.039 Y86.509 E.01753
G1 X23.349 Y86.35 E.01759
G1 X23.683 Y86.255 E.01753
G1 X23.994 Y86.225 E.01577
G1 X58.006 Y86.225 E1.71689
G1 X58.094 Y86.235 E.00447
M204 S1000
;WIPE_START
G1 F8640
G1 X58.184 Y86.245 E-.02091
G1 X58.375 Y86.266 E-.04437
G1 X58.706 Y86.373 E-.08032
G1 X59.01 Y86.542 E-.08031
G1 X59.275 Y86.767 E-.08027
G1 X59.491 Y87.039 E-.0802
G1 X59.65 Y87.349 E-.08045
G1 X59.745 Y87.683 E-.08018
G1 X59.775 Y87.994 E-.07214
G1 X59.775 Y88.777 E-.18085
;WIPE_END
G1 Z.6 F720
G1 X58.246 Y127.648 F10800
G1 Z.2 F720
G1 E.8 F1500
M204 S800
;TYPE:Perimeter
G1 F1200
G1 X58.551 Y127.685 E.01551
G1 X58.992 Y127.837 E.02355
G1 X59.395 Y128.072 E.02355
G1 X59.745 Y128.382 E.0236
G1 X60.027 Y128.753 E.02352
G1 X60.231 Y129.173 E.02357
G1 X60.349 Y129.622 E.02343
G1 X60.382 Y129.994 E.01885
G1 X60.382 Y164.006 E1.71689
G1 X60.315 Y164.551 E.02772
G1 X60.163 Y164.992 E.02355
G1 X59.928 Y165.395 E.02355
G1 X59.618 Y165.745 E.0236
G1 X59.247 Y166.027 E.02352
G1 X58.828 Y166.231 E.02352
G1 X58.378 Y166.349 E.02348
G1 X58.006 Y166.382 E.01885
G1 X23.994 Y166.382 E1.71689
G1 X23.449 Y166.315 E.02772
G1 X23.008 Y166.163 E.02355
G1 X22.605 Y165.928 E.02355
G1 X22.255 Y165.618 E.0236
G1 X21.973 Y165.247 E.02352
G1 X21.774 Y164.826 E.02351
;WIDTH:0.639674
G1 X21.672 Y164.376 E.0229
;WIDTH:0.606347
G1 X21.648 Y164.006 E.01737
;WIDTH:0.589381
G1 X21.648 Y129.994 E1.54545
;WIDTH:0.623152
G1 X21.698 Y129.452 E.02626
;WIDTH:0.649999
G1 X21.837 Y129.008 E.02349
G1 X22.072 Y128.605 E.02355
G1 X22.382 Y128.255 E.0236
G1 X22.753 Y127.973 E.02352
G1 X23.173 Y127.769 E.02357
G1 X23.622 Y127.651 E.02343
G1 X23.994 Y127.618 E.01885
G1 X58.006 Y127.618 E1.71689
G1 X58.157 Y127.637 E.00768
M204 S1000
G1 X58.157 Y127.637 F10800
G1 X58.184 Y128.245
M204 S800
;TYPE:External perimeter
G1 F1200
G1 X58.375 Y128.266 E.0097
G1 X58.706 Y128.373 E.01756
G1 X59.01 Y128.542 E.01756
G1 X59.275 Y128.767 E.01755
G1 X59.491 Y129.039 E.01753
G1 X59.65 Y129.349 E.01759
G1 X59.745 Y129.683 E.01753
G1 X59.775 Y129.994 E.01577
G1 X59.775 Y164.006 E1.71689
G1 X59.734 Y164.375 E.01874
G1 X59.627 Y164.706 E.01756
G1 X59.458 Y165.01 E.01756
G1 X59.233 Y165.275 E.01755
G1 X58.961 Y165.491 E.01753
G1 X58.651 Y165.65 E.01759
G1 X58.317 Y165.745 E.01753
G1 X58.006 Y165.775 E.01577
G1 X23.994 Y165.775 E1.71689
G1 X23.593 Y165.724 E.02041
G1 X23.294 Y165.627 E.01587
G1 X22.99 Y165.458 E.01756
G1 X22.725 Y165.233 E.01755
G1 X22.509 Y164.961 E.01753
G1 X22.35 Y164.651 E.01759
G1 X22.255 Y164.317 E.01753
G1 X22.225 Y164.006 E.01577
G1 X22.225 Y129.994 E1.71689
G1 X22.266 Y129.625 E.01874
G1 X22.373 Y129.294 E.01756
G1 X22.542 Y128.99 E.01756
G1 X22.767 Y128.725 E.01755
G1 X23.039 Y128.509 E.01753
G1 X23.349 Y128.35 E.01759
G1 X23.683 Y128.255 E.01753
G1 X23.994 Y128.225 E.01577
G1 X58.006 Y128.225 E1.71689
G1 X58.094 Y128.235 E.00447
M204 S1000
;WIPE_START
G1 F8640
G1 X58.184 Y128.245 E-.02091
G1 X58.375 Y128.266 E-.04437
G1 X58.706 Y128.373 E-.08032
G1 X59.01 Y128.542 E-.08031
G1 X59.275 Y128.767 E-.08027
G1 X59.491 Y129.039 E-.0802
G1 X59.65 Y129.349 E-.08045
G1 X59.745 Y129.683 E-.08018
G1 X59.775 Y129.994 E-.07214
G1 X59.775 Y130.777 E-.18085
;WIPE_END
G1 Z.6 F720
G1 X23.767 Y169.638 F10800
G1 Z.2 F720
G1 E.8 F1500
M204 S800
;TYPE:Perimeter
G1 F1200
G1 X23.994 Y169.618 E.0115
G1 X58.006 Y169.618 E1.71689
G1 X58.551 Y169.685 E.02772
G1 X58.992 Y169.837 E.02355
G1 X59.395 Y170.072 E.02355
G1 X59.745 Y170.382 E.0236
G1 X60.027 Y170.753 E.02352
G1 X60.231 Y171.173 E.02357
G1 X60.349 Y171.622 E.02343
G1 X60.382 Y171.994 E.01885
G1 X60.382 Y206.006 E1.71689
G1 X60.315 Y206.551 E.02772
M73 P1 R81
G1 X60.163 Y206.992 E.02355
G1 X59.928 Y207.395 E.02355
G1 X59.618 Y207.745 E.0236
G1 X59.247 Y208.027 E.02352
G1 X58.826 Y208.226 E.02351
;WIDTH:0.639676
G1 X58.376 Y208.328 E.0229
;WIDTH:0.606346
G1 X58.006 Y208.352 E.01737
;WIDTH:0.589384
G1 X24.059 Y208.352 E1.54251
G1 X23.541 Y208.305 E.02363
;WIDTH:0.586467
G1 X23.023 Y208.133 E.02467
;WIDTH:0.583702
G1 X22.626 Y207.902 E.02065
G1 X22.281 Y207.597 E.02071
G1 X22.003 Y207.231 E.02067
G1 X21.801 Y206.818 E.02067
G1 X21.684 Y206.374 E.02065
;WIDTH:0.589381
G1 X21.648 Y205.941 E.01974
G1 X21.648 Y171.994 E1.5425
;WIDTH:0.623153
G1 X21.698 Y171.452 E.02626
;WIDTH:0.649999
G1 X21.837 Y171.008 E.02349
G1 X22.072 Y170.605 E.02355
G1 X22.382 Y170.255 E.0236
G1 X22.753 Y169.973 E.02352
G1 X23.172 Y169.769 E.02352
G1 X23.622 Y169.651 E.02348
G1 X23.678 Y169.646 E.00284
M204 S1000
G1 X23.678 Y169.646 F10800
G1 X23.827 Y170.241
M204 S800
;TYPE:External perimeter
G1 F1200
G1 X23.994 Y170.225 E.00847
G1 X58.006 Y170.225 E1.71689
G1 X58.375 Y170.266 E.01874
G1 X58.706 Y170.373 E.01756
G1 X59.01 Y170.542 E.01756
G1 X59.275 Y170.767 E.01755
G1 X59.491 Y171.039 E.01753
G1 X59.65 Y171.349 E.01759
G1 X59.745 Y171.683 E.01753
G1 X59.775 Y171.994 E.01577
G1 X59.775 Y206.006 E1.71689
G1 X59.724 Y206.407 E.02041
G1 X59.627 Y206.706 E.01587
G1 X59.458 Y207.01 E.01756
G1 X59.233 Y207.275 E.01755
G1 X58.961 Y207.491 E.01753
G1 X58.651 Y207.65 E.01759
G1 X58.317 Y207.745 E.01753
G1 X58.006 Y207.775 E.01577
G1 X23.994 Y207.775 E1.71689
G1 X23.625 Y207.734 E.01874
G1 X23.294 Y207.627 E.01756
G1 X22.99 Y207.458 E.01756
G1 X22.725 Y207.233 E.01755
G1 X22.509 Y206.961 E.01753
G1 X22.35 Y206.651 E.01759
G1 X22.255 Y206.317 E.01753
G1 X22.225 Y205.941 E.01904
G1 X22.225 Y171.994 E1.7136
G1 X22.266 Y171.625 E.01874
G1 X22.373 Y171.294 E.01756
G1 X22.542 Y170.99 E.01756
G1 X22.767 Y170.725 E.01755
G1 X23.039 Y170.509 E.01753
G1 X23.349 Y170.35 E.01759
G1 X23.683 Y170.255 E.01753
G1 X23.737 Y170.249 E.00274
M204 S1000
;WIPE_START
G1 F8640
G1 X23.827 Y170.241 E-.02086
G1 X23.994 Y170.225 E-.03874
G1 X27.201 Y170.225 E-.7404
;WIPE_END
G1 Z.6 F720
G1 X102.268 Y206.688 F10800
G1 Z.2 F720
G1 E.8 F1500
M204 S800
;TYPE:Perimeter
G1 F1200
G1 X102.163 Y206.992 E.01624
G1 X101.928 Y207.395 E.02355
G1 X101.618 Y207.745 E.0236
G1 X101.247 Y208.027 E.02352
G1 X100.826 Y208.226 E.02351
;WIDTH:0.639674
G1 X100.376 Y208.328 E.0229
;WIDTH:0.606347
G1 X100.006 Y208.352 E.01737
;WIDTH:0.589384
G1 X65.994 Y208.352 E1.54546
;WIDTH:0.623157
G1 X65.452 Y208.302 E.02626
M73 Q1 S83
;WIDTH:0.649999
G1 X65.008 Y208.163 E.02349
G1 X64.605 Y207.928 E.02355
G1 X64.255 Y207.618 E.0236
G1 X63.973 Y207.247 E.02352
G1 X63.769 Y206.828 E.02352
G1 X63.685 Y206.551 E.01461
G1 X63.618 Y206.006 E.02772
G1 X63.618 Y171.994 E1.71689
G1 X63.685 Y171.449 E.02772
G1 X63.837 Y171.008 E.02355
G1 X64.072 Y170.605 E.02355
G1 X64.382 Y170.255 E.0236
G1 X64.753 Y169.973 E.02352
G1 X65.172 Y169.769 E.02352
G1 X65.622 Y169.651 E.02348
G1 X65.994 Y169.618 E.01885
G1 X100.006 Y169.618 E1.71689
G1 X100.551 Y169.685 E.02772
G1 X100.992 Y169.837 E.02355
G1 X101.395 Y170.072 E.02355
G1 X101.745 Y170.382 E.0236
G1 X102.027 Y170.753 E.02352
G1 X102.231 Y171.173 E.02357
G1 X102.349 Y171.622 E.02343
G1 X102.382 Y171.994 E.01885
G1 X102.382 Y206.006 E1.71689
G1 X102.315 Y206.551 E.02772
G1 X102.297 Y206.603 E.00278
M204 S1000
G1 X102.297 Y206.603 F10800
G1 X101.69 Y206.513
M204 S800
;TYPE:External perimeter
G1 F1200
G1 X101.627 Y206.706 E.01025
G1 X101.458 Y207.01 E.01756
G1 X101.233 Y207.275 E.01755
G1 X100.961 Y207.491 E.01753
G1 X100.651 Y207.65 E.01759
G1 X100.317 Y207.745 E.01753
G1 X100.006 Y207.775 E.01577
G1 X65.994 Y207.775 E1.71689
G1 X65.625 Y207.734 E.01874
G1 X65.294 Y207.627 E.01756
G1 X64.99 Y207.458 E.01756
