; generated by PrusaSlicer 2.8.1+win64 on 2024-10-08 at 10:52:07 UTC


;
;
; 

; external perimeters extrusion width = 0.68mm
; perimeters extrusion width = 0.68mm
; infill extrusion width = 0.68mm
; solid infill extrusion width = 0.68mm
; top infill extrusion width = 0.60mm
; first layer extrusion width = 0.65mm

M73 P0 R15
M73 Q0 S15
M201 X1000 Y1000 Z200 E5000 ; sets maximum accelerations, mm/sec^2
M203 X200 Y200 Z12 E120 ; sets maximum feedrates, mm / sec
M204 S1250 T1250 ; sets acceleration (S) and retract acceleration (R), mm/sec^2
M205 X8.00 Y8.00 Z0.40 E4.50 ; sets the jerk limits, mm/sec
M205 S0 T0 ; sets the minimum extruding and travel feed rate, mm/sec

; printing object Baseplate 0.5x5.stl id:0 copy 0
; stop printing object Baseplate 0.5x5.stl id:0 copy 0

;TYPE:Custom
M862.3 P "MK3S" ; printer model check
M862.1 P0.6 ; nozzle diameter check
M115 U3.14.0 ; tell printer latest fw version
G90 ; use absolute coordinates
M83 ; extruder relative mode
M104 S215 ; set extruder temp
M140 S60 ; set bed temp
M190 S60 ; wait for bed temp
M109 S215 ; wait for extruder temp
G28 W ; home all without mesh bed level
G80 X42.285 Y22.285 W165.43 H165.43 ; mesh bed levelling

G1 Z0.2 F720
G1 Y-3 F1000 ; go outside print area
G92 E0
G1 X60 E9 F1000 ; intro line
G1 X100 E12.5 F1000 ; intro line

G92 E0
M221 S95
G21 ; set units to millimeters
G90 ; use absolute coordinates
M83 ; use relative distances for extrusion

M900 K0.04 ; Filament gcode LA 1.5
M900 K18 ; Filament gcode LA 1.0




M107
;LAYER_CHANGE
;Z:0.2
;HEIGHT:0.2
G1 E-.8 F2100
G1 Z.6 F720
G1 X43.89 Y34.423 F10800
G1 Z.2 F720
G1 E.8 F1500
M204 S800
;TYPE:Skirt/Brim
;WIDTH:0.65
G1 F1200
G1 X54.423 Y23.89 E.75193
G1 X55.424 Y23.246 E.06008
G1 X56.219 Y22.909 E.04359
G1 X57.085 Y22.684 E.04517
G1 X58.446 Y22.589 E.06887
G1 X59.625 Y22.758 E.06012
G1 X60.446 Y23.024 E.04356
G1 X61.671 Y23.693 E.07046
G1 X62.459 Y24.352 E.05185
G1 X206.11 Y168.066 E10.25719
G1 X206.597 Y168.779 E.04359
M73 P1 R14
M73 Q1 S15
G1 X206.976 Y169.554 E.04355
M73 P2 R14
G1 X207.242 Y170.375 E.04356
G1 X207.388 Y171.226 E.04359
G1 X207.412 Y172.089 E.04358
G1 X207.312 Y172.947 E.0436
G1 X206.976 Y174.089 E.06009
M73 Q2 S15
G1 X206.597 Y174.864 E.04355
G1 X205.648 Y176.102 E.07874
G1 X195.577 Y186.11 E.7167
G1 X194.864 Y186.597 E.04359
G1 X193.781 Y187.091 E.06009
G1 X192.417 Y187.388 E.07047
G1 X191.554 Y187.412 E.04358
G1 X190.697 Y187.312 E.04355
G1 X189.554 Y186.976 E.06014
G1 X188.329 Y186.307 E.07046
G1 X187.541 Y185.648 E.05185
G1 X43.89 Y41.934 E10.25719
G1 X43.403 Y41.221 E.04359
M73 P3 R14
M73 Q3 S15
G1 X42.909 Y40.138 E.06009
G1 X42.688 Y39.303 E.0436
G1 X42.588 Y37.911 E.07045
G1 X42.688 Y37.053 E.0436
G1 X42.909 Y36.219 E.04355
G1 X43.246 Y35.424 E.04359
G1 X43.841 Y34.498 E.05556
M204 S1000
;WIPE_START
G1 F8640
G1 X43.89 Y34.423 E-.02069
G1 X46.276 Y32.036 E-.77931
;WIPE_END
G1 Z.6 F720
; printing object Baseplate 0.5x5.stl id:0 copy 0
G1 X117.118 Y86.675 F10800
G1 Z.2 F720
G1 E.8 F1500
M204 S800
;TYPE:External perimeter
;WIDTH:0.649999
G1 F1200
G1 X117.61 Y86.611 E.02504
G1 X118.061 Y86.672 E.02297
G1 X118.373 Y86.796 E.01695
G1 X118.826 Y87.119 E.02808
G1 X142.881 Y111.174 E1.71723
G1 X143.101 Y111.45 E.01782
G1 X143.318 Y111.914 E.02586
G1 X143.39 Y112.527 E.03116
G1 X143.248 Y113.127 E.03112
G1 X142.881 Y113.675 E.03329
G1 X133.675 Y122.881 E.6572
G1 X133.399 Y123.101 E.01782
G1 X132.935 Y123.318 E.02586
G1 X132.322 Y123.39 E.03116
G1 X131.722 Y123.248 E.03112
G1 X131.174 Y122.881 E.03329
G1 X107.119 Y98.826 E1.71723
G1 X106.899 Y98.55 E.01782
M73 Q3 S14
G1 X106.682 Y98.086 E.02586
G1 X106.61 Y97.473 E.03116
G1 X106.752 Y96.873 E.03112
G1 X107.119 Y96.325 E.03329
G1 X116.325 Y87.119 E.6572
G1 X116.601 Y86.899 E.01782
G1 X117.032 Y86.698 E.02401
M204 S1000
;WIPE_START
G1 F8640
M73 P4 R14
G1 X117.118 Y86.675 E-.02056
G1 X117.61 Y86.611 E-.11456
G1 X118.061 Y86.672 E-.10509
G1 X118.373 Y86.796 E-.07752
G1 X118.826 Y87.119 E-.12847
G1 X119.909 Y88.202 E-.3538
;WIPE_END
G1 Z.6 F720
G1 X146.258 Y116.63 F10800
G1 Z.2 F720
M73 Q4 S14
G1 E.8 F1500
M204 S800
G1 F1200
G1 X146.299 Y116.597 E.00266
G1 X146.764 Y116.381 E.02588
G1 X147.308 Y116.309 E.0277
G1 X147.759 Y116.371 E.02298
G1 X148.071 Y116.495 E.01695
G1 X148.525 Y116.817 E.0281
G1 X172.58 Y140.872 E1.71723
G1 X172.8 Y141.148 E.01782
G1 X173.016 Y141.613 E.02588
G1 X173.088 Y142.225 E.03111
G1 X172.946 Y142.825 E.03112
G1 X172.58 Y143.374 E.03331
G1 X163.374 Y152.58 E.6572
G1 X163.098 Y152.8 E.01782
G1 X162.633 Y153.016 E.02588
G1 X162.021 Y153.088 E.03111
G1 X161.421 Y152.946 E.03112
G1 X160.872 Y152.58 E.03331
G1 X136.817 Y128.525 E1.71723
G1 X136.597 Y128.249 E.01782
G1 X136.381 Y127.784 E.02588
G1 X136.309 Y127.172 E.03111
G1 X136.451 Y126.572 E.03112
G1 X136.817 Y126.023 E.03331
G1 X146.023 Y116.817 E.6572
G1 X146.187 Y116.686 E.0106
M204 S1000
;WIPE_START
G1 F8640
G1 X146.258 Y116.63 E-.02088
G1 X146.299 Y116.597 E-.01215
G1 X146.764 Y116.381 E-.11839
G1 X147.308 Y116.309 E-.12671
G1 X147.759 Y116.371 E-.10512
G1 X148.071 Y116.495 E-.07752
G1 X148.525 Y116.817 E-.12852
G1 X149.17 Y117.462 E-.21071
;WIPE_END
G1 Z.6 F720
G1 X175.956 Y146.329 F10800
G1 Z.2 F720
G1 E.8 F1500
M204 S800
G1 F1200
G1 X175.998 Y146.296 E.0027
G1 X176.462 Y146.079 E.02586
G1 X177.007 Y146.008 E.02774
G1 X177.458 Y146.069 E.02297
G1 X177.77 Y146.193 E.01695
G1 X178.223 Y146.516 E.02808
G1 X202.278 Y170.571 E1.71723
G1 X202.498 Y170.847 E.01782
G1 X202.715 Y171.311 E.02586
G1 X202.78 Y171.845 E.02715
G1 X202.777 Y172.029 E.00929
G1 X202.645 Y172.524 E.02586
G1 X202.278 Y173.072 E.03329
G1 X193.072 Y182.279 E.65723
G1 X192.796 Y182.498 E.01779
M73 P5 R14
G1 X192.332 Y182.715 E.02586
G1 X191.722 Y182.786 E.031
G1 X191.119 Y182.645 E.03126
G1 X190.571 Y182.278 E.03329
G1 X166.516 Y158.223 E1.71723
G1 X166.296 Y157.947 E.01782
M73 Q5 S14
G1 X166.079 Y157.483 E.02586
G1 X166.007 Y156.87 E.03116
G1 X166.149 Y156.27 E.03112
G1 X166.516 Y155.722 E.03329
G1 X175.722 Y146.516 E.6572
G1 X175.886 Y146.385 E.0106
M204 S1000
;WIPE_START
G1 F8640
G1 X175.956 Y146.329 E-.0207
G1 X175.998 Y146.296 E-.01233
G1 X176.462 Y146.079 E-.11828
G1 X177.007 Y146.008 E-.12691
G1 X177.458 Y146.069 E-.10509
G1 X177.77 Y146.193 E-.07752
G1 X178.223 Y146.516 E-.12847
G1 X178.868 Y147.161 E-.2107
;WIPE_END
G1 Z.6 F720
G1 X86.861 Y57.233 F10800
G1 Z.2 F720
G1 E.8 F1500
M204 S800
G1 F1200
G1 X86.902 Y57.2 E.00266
G1 X87.367 Y56.984 E.02588
G1 X87.911 Y56.912 E.0277
G1 X88.362 Y56.974 E.02298
G1 X88.674 Y57.098 E.01695
G1 X89.128 Y57.42 E.0281
G1 X113.183 Y81.475 E1.71723
G1 X113.403 Y81.751 E.01782
G1 X113.619 Y82.216 E.02588
G1 X113.691 Y82.828 E.03111
G1 X113.549 Y83.428 E.03112
G1 X113.183 Y83.977 E.03331
G1 X103.977 Y93.183 E.6572
G1 X103.701 Y93.403 E.01782
G1 X103.236 Y93.619 E.02588
G1 X102.624 Y93.691 E.03111
G1 X102.024 Y93.549 E.03112
G1 X101.475 Y93.183 E.03331
G1 X77.42 Y69.128 E1.71723
G1 X77.2 Y68.852 E.01782
G1 X76.984 Y68.387 E.02588
G1 X76.912 Y67.775 E.03111
G1 X77.054 Y67.175 E.03112
G1 X77.42 Y66.626 E.03331
G1 X86.626 Y57.42 E.6572
G1 X86.79 Y57.289 E.0106
M73 P6 R14
M204 S1000
;WIPE_START
G1 F8640
G1 X86.861 Y57.233 E-.02088
G1 X86.902 Y57.2 E-.01215
G1 X87.367 Y56.984 E-.11839
G1 X87.911 Y56.912 E-.12671
G1 X88.362 Y56.974 E-.10512
G1 X88.674 Y57.098 E-.07752
G1 X89.128 Y57.42 E-.12852
G1 X89.773 Y58.065 E-.21071
;WIPE_END
G1 Z.6 F720
G1 X73.484 Y63.927 F10800
G1 Z.2 F720
G1 E.8 F1500
M73 Q6 S14
M204 S800
G1 F1200
G1 X72.925 Y63.993 E.02841
G1 X72.325 Y63.851 E.03112
G1 X71.777 Y63.485 E.03326
G1 X47.722 Y39.429 E1.71727
G1 X47.502 Y39.153 E.01782
G1 X47.285 Y38.689 E.02586
G1 X47.22 Y38.155 E.02715
G1 X47.223 Y37.971 E.00929
G1 X47.355 Y37.476 E.02586
G1 X47.722 Y36.928 E.03329
G1 X56.928 Y27.722 E.6572
G1 X57.266 Y27.473 E.02119
G1 X57.723 Y27.266 E.02532
G1 X58.235 Y27.212 E.02599
G1 X58.664 Y27.275 E.02189
G1 X58.976 Y27.4 E.01697
G1 X59.429 Y27.722 E.02806
G1 X83.485 Y51.777 E1.71727
G1 X83.704 Y52.053 E.01779
G1 X83.921 Y52.517 E.02586
G1 X83.993 Y53.13 E.03116
G1 X83.851 Y53.73 E.03112
G1 X83.485 Y54.278 E.03326
G1 X74.278 Y63.485 E.65727
G1 X74.002 Y63.704 E.01779
G1 X73.571 Y63.906 E.02403
M204 S1000
G1 X73.571 Y63.906 F10800
G1 X73.642 Y64.512
M204 S800
;TYPE:Perimeter
G1 F1200
G1 X73.794 Y64.471 E.00795
G1 X74.259 Y64.254 E.0259
G1 X74.708 Y63.914 E.02843
G1 X83.914 Y54.708 E.6572
G1 X84.192 Y54.333 E.02356
G1 X84.437 Y53.887 E.02569
G1 X84.57 Y53.392 E.02587
G1 X84.597 Y53.077 E.01596
G1 X84.553 Y52.566 E.02589
G1 X84.471 Y52.261 E.01594
;WIDTH:0.68544
G1 X84.37 Y52.028 E.01357
;WIDTH:0.72088
G1 X84.269 Y51.795 E.01432
;WIDTH:0.75632
G1 X84.167 Y51.562 E.01509
G1 X84.364 Y51.726 E.01521
;WIDTH:0.710818
G1 X84.556 Y51.897 E.01428
;WIDTH:0.680409
G1 X84.748 Y52.067 E.01359
;WIDTH:0.649999
G1 X88.77 Y56.089 E.28712
;WIDTH:0.665169
G1 X89.134 Y56.465 E.02708
;WIDTH:0.705415
G1 X89.298 Y56.657 E.01391
;WIDTH:0.74566
G1 X89.461 Y56.849 E.01472
G1 X89.244 Y56.721 E.01472
;WIDTH:0.705415
G1 X89.026 Y56.594 E.0139
;WIDTH:0.665169
G1 X88.57 Y56.403 E.02558
;WIDTH:0.649999
G1 X88.068 Y56.313 E.02574
G1 X87.404 Y56.353 E.03358
G1 X87.11 Y56.434 E.01539
G1 X86.646 Y56.65 E.02584
G1 X86.197 Y56.991 E.02846
G1 X76.991 Y66.197 E.6572
G1 X76.714 Y66.568 E.02337
G1 X76.467 Y67.017 E.02587
G1 X76.335 Y67.513 E.02591
G1 X76.307 Y67.828 E.01596
G1 X76.352 Y68.338 E.02584
G1 X76.434 Y68.644 E.01599
;WIDTH:0.683969
G1 X76.535 Y68.876 E.01349
;WIDTH:0.717939
G1 X76.637 Y69.109 E.01428
;WIDTH:0.751908
G1 X76.739 Y69.342 E.01499
G1 X76.544 Y69.177 E.01506
;WIDTH:0.708393
G1 X76.352 Y69.006 E.01423
;WIDTH:0.679196
G1 X76.16 Y68.835 E.0136
;WIDTH:0.649999
G1 X72.382 Y65.057 E.2697
;WIDTH:0.664465
G1 X71.773 Y64.437 E.04491
;WIDTH:0.702844
G1 X71.609 Y64.245 E.01386
;WIDTH:0.741222
G1 X71.444 Y64.054 E.01466
G1 X71.806 Y64.246 E.02379
;WIDTH:0.695611
G1 X72.168 Y64.437 E.02221
;WIDTH:0.649999
G1 X72.663 Y64.57 E.02587
G1 X72.978 Y64.597 E.01596
G1 X73.489 Y64.553 E.02589
G1 X73.555 Y64.535 E.00345
M204 S1000
;WIPE_START
G1 F8640
G1 X73.642 Y64.512 E-.02078
G1 X73.794 Y64.471 E-.03635
G1 X74.259 Y64.254 E-.11849
G1 X74.708 Y63.914 E-.13005
G1 X76.222 Y62.4 E-.49433
;WIPE_END
G1 Z.6 F720
G1 X113.865 Y81.261 F10800
G1 Z.2 F720
M73 P7 R14
G1 E.8 F1500
M204 S800
;WIDTH:0.754858
G1 F1200
G1 X114.061 Y81.425 E.01513
;WIDTH:0.710017
G1 X114.253 Y81.596 E.01426
;WIDTH:0.680008
G1 X114.445 Y81.766 E.01358
;WIDTH:0.649999
G1 X118.468 Y85.789 E.28719
;WIDTH:0.664933
G1 X118.832 Y86.164 E.02703
;WIDTH:0.704559
G1 X118.996 Y86.356 E.01389
;WIDTH:0.744184
G1 X119.16 Y86.548 E.01472
G1 X118.942 Y86.42 E.01474
;WIDTH:0.704559
G1 X118.724 Y86.292 E.01391
;WIDTH:0.664933
G1 X118.268 Y86.102 E.02555
;WIDTH:0.649999
G1 X117.766 Y86.011 E.02575
M73 Q7 S14
G1 X117.103 Y86.051 E.03353
G1 X116.809 Y86.132 E.01539
G1 X116.344 Y86.349 E.0259
G1 X115.895 Y86.689 E.02843
G1 X106.689 Y95.895 E.6572
G1 X106.412 Y96.268 E.02345
G1 X106.166 Y96.716 E.0258
G1 X106.033 Y97.211 E.02587
G1 X106.006 Y97.526 E.01596
G1 X106.05 Y98.037 E.02589
G1 X106.132 Y98.342 E.01594
;WIDTH:0.684459
G1 X106.234 Y98.575 E.01357
;WIDTH:0.718919
G1 X106.335 Y98.808 E.01427
;WIDTH:0.753378
G1 X106.437 Y99.04 E.01497
G1 X106.241 Y98.876 E.0151
;WIDTH:0.7092
G1 X106.049 Y98.705 E.01424
;WIDTH:0.6796
G1 X105.858 Y98.534 E.01357
;WIDTH:0.649999
G1 X102.08 Y94.757 E.26967
;WIDTH:0.664699
G1 X101.47 Y94.136 E.045
;WIDTH:0.703701
G1 X101.306 Y93.945 E.01383
;WIDTH:0.742702
G1 X101.142 Y93.753 E.01469
G1 X101.505 Y93.944 E.02387
;WIDTH:0.696351
G1 X101.867 Y94.136 E.02226
;WIDTH:0.649999
G1 X102.362 Y94.268 E.02586
G1 X102.677 Y94.296 E.01596
G1 X103.188 Y94.251 E.02589
G1 X103.493 Y94.169 E.01594
G1 X103.958 Y93.953 E.02588
G1 X104.406 Y93.612 E.02842
G1 X113.612 Y84.406 E.6572
G1 X113.89 Y84.033 E.02348
G1 X114.136 Y83.586 E.02576
G1 X114.268 Y83.09 E.02591
G1 X114.296 Y82.775 E.01596
G1 X114.251 Y82.265 E.02584
G1 X114.169 Y81.959 E.01599
;WIDTH:0.684952
G1 X114.068 Y81.726 E.01356
;WIDTH:0.719905
G1 X113.967 Y81.494 E.01424
;WIDTH:0.754858
G1 X113.901 Y81.343 E.00976
M204 S1000
;WIPE_START
G1 F8640
G1 X113.865 Y81.261 E-.02068
G1 X114.061 Y81.425 E-.05901
G1 X114.253 Y81.596 E-.05937
G1 X114.445 Y81.766 E-.05921
G1 X116.288 Y83.609 E-.60173
;WIPE_END
G1 Z.6 F720
G1 X175.615 Y145.841 F10800
G1 Z.2 F720
G1 E.8 F1500
M204 S800
;WIDTH:0.649999
G1 F1200
G1 X175.292 Y146.086 E.02046
G1 X166.086 Y155.292 E.6572
G1 X165.808 Y155.667 E.02356
G1 X165.563 Y156.113 E.02569
G1 X165.43 Y156.608 E.02587
G1 X165.403 Y156.923 E.01596
G1 X165.447 Y157.434 E.02589
G1 X165.529 Y157.739 E.01594
;WIDTH:0.685441
G1 X165.63 Y157.972 E.01357
;WIDTH:0.720883
G1 X165.732 Y158.205 E.01434
;WIDTH:0.756324
G1 X165.833 Y158.438 E.01506
G1 X165.636 Y158.274 E.01521
;WIDTH:0.71082
G1 X165.444 Y158.104 E.01424
;WIDTH:0.68041
G1 X165.252 Y157.933 E.01363
;WIDTH:0.649999
G1 X161.475 Y154.156 E.26963
;WIDTH:0.665169
G1 X160.866 Y153.535 E.045
;WIDTH:0.705416
G1 X160.702 Y153.343 E.01391
;WIDTH:0.745662
G1 X160.539 Y153.151 E.01472
G1 X160.901 Y153.342 E.02392
;WIDTH:0.697831
G1 X161.264 Y153.533 E.02234
;WIDTH:0.649999
G1 X161.759 Y153.665 E.02586
G1 X162.074 Y153.693 E.01596
G1 X162.584 Y153.648 E.02584
G1 X162.89 Y153.566 E.01599
G1 X163.354 Y153.35 E.02584
G1 X163.803 Y153.009 E.02846
G1 X173.009 Y143.803 E.6572
G1 X173.286 Y143.432 E.02337
G1 X173.533 Y142.983 E.02587
G1 X173.665 Y142.487 E.02591
G1 X173.693 Y142.172 E.01596
G1 X173.648 Y141.662 E.02584
G1 X173.566 Y141.356 E.01599
;WIDTH:0.683972
G1 X173.465 Y141.124 E.01349
;WIDTH:0.717945
G1 X173.363 Y140.891 E.01428
;WIDTH:0.751918
G1 X173.261 Y140.658 E.01499
G1 X173.457 Y140.823 E.0151
;WIDTH:0.708399
G1 X173.648 Y140.994 E.01419
;WIDTH:0.679199
G1 X173.84 Y141.165 E.0136
;WIDTH:0.649999
G1 X177.863 Y145.189 E.28723
;WIDTH:0.664466
G1 X178.227 Y145.563 E.02697
;WIDTH:0.702849
G1 X178.391 Y145.755 E.01386
;WIDTH:0.741232
G1 X178.556 Y145.946 E.01466
G1 X178.338 Y145.818 E.01468
;WIDTH:0.702849
G1 X178.121 Y145.69 E.01382
;WIDTH:0.664466
G1 X177.665 Y145.499 E.02555
;WIDTH:0.649999
G1 X177.163 Y145.408 E.02575
G1 X176.5 Y145.448 E.03353
G1 X176.206 Y145.529 E.01539
G1 X175.741 Y145.746 E.0259
G1 X175.687 Y145.787 E.00342
M204 S1000
;WIPE_START
G1 F8640
G1 X175.615 Y145.841 E-.02078
G1 X175.292 Y146.086 E-.09361
G1 X173.192 Y148.186 E-.68561
;WIPE_END
G1 Z.6 F720
G1 X145.916 Y116.143 F10800
G1 Z.2 F720
G1 E.8 F1500
M204 S800
G1 F1200
G1 X145.594 Y116.388 E.02042
G1 X136.388 Y125.594 E.6572
G1 X136.11 Y125.967 E.02348
G1 X135.864 Y126.414 E.02576
G1 X135.732 Y126.91 E.02591
G1 X135.704 Y127.225 E.01596
G1 X135.749 Y127.735 E.02584
G1 X135.831 Y128.041 E.01599
;WIDTH:0.684951
G1 X135.932 Y128.274 E.01356
;WIDTH:0.719903
G1 X136.033 Y128.507 E.0143
;WIDTH:0.754854
G1 X136.135 Y128.739 E.015
G1 X135.939 Y128.575 E.01513
;WIDTH:0.710015
G1 X135.747 Y128.404 E.01426
;WIDTH:0.680007
G1 X135.555 Y128.234 E.01358
;WIDTH:0.649999
G1 X131.778 Y124.456 E.26967
;WIDTH:0.664475
G1 X131.168 Y123.836 E.04495
;WIDTH:0.703917
G1 X131.004 Y123.644 E.01388
;WIDTH:0.743358
G1 X130.84 Y123.452 E.01471
G1 X131.203 Y123.643 E.02389
;WIDTH:0.696679
G1 X131.565 Y123.834 E.02225
;WIDTH:0.649999
G1 X132.06 Y123.967 E.02587
G1 X132.375 Y123.994 E.01596
G1 X132.886 Y123.95 E.02589
G1 X133.191 Y123.868 E.01594
G1 X133.656 Y123.651 E.0259
G1 X134.105 Y123.311 E.02843
G1 X143.311 Y114.105 E.6572
G1 X143.588 Y113.732 E.02345
M73 P8 R14
G1 X143.834 Y113.284 E.0258
G1 X143.967 Y112.789 E.02587
G1 X143.994 Y112.474 E.01596
G1 X143.95 Y111.963 E.02589
G1 X143.868 Y111.658 E.01594
;WIDTH:0.684462
G1 X143.766 Y111.425 E.01357
;WIDTH:0.718924
G1 X143.665 Y111.192 E.01427
;WIDTH:0.753386
G1 X143.563 Y110.96 E.01497
G1 X143.759 Y111.124 E.0151
;WIDTH:0.709207
G1 X143.951 Y111.295 E.01424
;WIDTH:0.679603
G1 X144.142 Y111.466 E.01357
;WIDTH:0.649999
G1 X148.165 Y115.489 E.28719
;WIDTH:0.664248
G1 X148.53 Y115.863 E.027
M73 Q8 S14
;WIDTH:0.703261
G1 X148.695 Y116.056 E.01394
;WIDTH:0.742274
G1 X148.86 Y116.248 E.01472
G1 X148.858 Y116.247 E.00013
;WIDTH:0.741889
G1 X148.64 Y116.119 E.01469
;WIDTH:0.703069
G1 X148.423 Y115.991 E.01383
