; generated by PrusaSlicer 2.8.1+win64 on 2024-10-19 at 16:46:22 UTC


;
;
; 

; external perimeters extrusion width = 0.68mm
; perimeters extrusion width = 0.68mm
; infill extrusion width = 0.68mm
; solid infill extrusion width = 0.68mm
; top infill extrusion width = 0.60mm
; first layer extrusion width = 0.65mm

M73 P0 R87
M73 Q0 S87
M201 X1000 Y1000 Z200 E5000 ; sets maximum accelerations, mm/sec^2
M203 X200 Y200 Z12 E120 ; sets maximum feedrates, mm / sec
M204 S1250 T1250 ; sets acceleration (S) and retract acceleration (R), mm/sec^2
M205 X8.00 Y8.00 Z0.40 E4.50 ; sets the jerk limits, mm/sec
M205 S0 T0 ; sets the minimum extruding and travel feed rate, mm/sec

; printing object quarter_inch_drive.stl id:0 copy 0
; stop printing object quarter_inch_drive.stl id:0 copy 0

;TYPE:Custom
M862.3 P "MK3S" ; printer model check
M862.1 P0.6 ; nozzle diameter check
M115 U3.14.0 ; tell printer latest fw version
G90 ; use absolute coordinates
M83 ; extruder relative mode
M104 S215 ; set extruder temp
M140 S60 ; set bed temp
M190 S60 ; wait for bed temp
M109 S215 ; wait for extruder temp
G28 W ; home all without mesh bed level
G80 X103.793 Y20.7929 W42.4142 H168.414 ; mesh bed levelling

G1 Z0.2 F720
G1 Y-3 F1000 ; go outside print area
G92 E0
G1 X60 E9 F1000 ; intro line
G1 X100 E12.5 F1000 ; intro line

G92 E0
M221 S95
G21 ; set units to millimeters
G90 ; use absolute coordinates
M83 ; use relative distances for extrusion

M900 K0.04 ; Filament gcode LA 1.5
M900 K18 ; Filament gcode LA 1.0




M107
;LAYER_CHANGE
;Z:0.2
;HEIGHT:0.2
G1 E-.8 F2100
G1 Z.6 F720
G1 X104.183 Y24.183 F10800
G1 Z.2 F720
G1 E.8 F1500
M204 S800
;TYPE:Skirt/Brim
;WIDTH:0.65
G1 F1200
G1 X104.623 Y23.042 E.06173
G1 X104.947 Y22.568 E.02898
G1 X105.421 Y22.07 E.03471
G1 X106.454 Y21.416 E.06172
G1 X107.107 Y21.2 E.03472
G1 X107.674 Y21.11 E.02898
G1 X142.057 Y21.097 E1.73562
G1 X142.817 Y21.183 E.03861
G1 X143.546 Y21.416 E.03863
G1 X144.215 Y21.786 E.03859
G1 X144.8 Y22.28 E.03865
G1 X145.214 Y22.785 E.03296
G1 X145.584 Y23.454 E.03859
G1 X145.817 Y24.183 E.03863
G1 X145.903 Y24.943 E.03861
G1 X145.904 Y185 E8.0795
G1 X145.817 Y185.817 E.04147
G1 X145.377 Y186.958 E.06173
G1 X145.053 Y187.432 E.02898
G1 X144.579 Y187.93 E.03471
G1 X143.546 Y188.584 E.06172
G1 X142.894 Y188.8 E.03467
G1 X142.326 Y188.89 E.02903
G1 X108 Y188.904 E1.73274
G1 X107.183 Y188.817 E.04147
G1 X106.559 Y188.627 E.03293
G1 X105.945 Y188.319 E.03467
G1 X105.421 Y187.93 E.03294
G1 X104.947 Y187.432 E.03471
G1 X104.585 Y186.89 E.0329
G1 X104.306 Y186.262 E.03469
G1 X104.097 Y185.057 E.06174
G1 X104.096 Y25 E8.0795
G1 X104.174 Y24.273 E.03691
M73 P0 R86
M204 S1000
;WIPE_START
G1 F8640
G1 X104.183 Y24.183 E-.02088
G1 X104.623 Y23.042 E-.28237
G1 X104.947 Y22.568 E-.13257
G1 X105.421 Y22.07 E-.15875
G1 X106.173 Y21.594 E-.20543
;WIPE_END
G1 Z.6 F720
; printing object quarter_inch_drive.stl id:0 copy 0
G1 X141.768 Y58.718 F10800
G1 Z.2 F720
G1 E.8 F1500
M204 S800
;TYPE:Perimeter
;WIDTH:0.649999
G1 F1200
G1 X141.768 Y58.768 E.00252
G1 X108.232 Y58.768 E1.69286
G1 X108.232 Y25.232 E1.69286
G1 X141.768 Y25.233 E1.69286
G1 X141.768 Y58.628 E1.68574
M204 S1000
G1 X141.768 Y58.628 F10800
G1 X142.068 Y59.342
M204 S800
;TYPE:External perimeter
G1 F1200
G1 X141.965 Y59.375 E.00546
G1 X108.079 Y59.375 E1.71053
G1 X107.858 Y59.34 E.01129
G1 X107.7 Y59.201 E.01062
G1 X107.625 Y58.965 E.0125
G1 X107.625 Y25.079 E1.71053
G1 X107.66 Y24.858 E.01129
G1 X107.799 Y24.7 E.01062
G1 X108.035 Y24.625 E.0125
G1 X141.895 Y24.626 E1.70921
G1 X142.147 Y24.682 E.01303
G1 X142.307 Y24.795 E.00989
G1 X142.375 Y25.039 E.01279
G1 X142.375 Y58.921 E1.71032
G1 X142.34 Y59.142 E.01129
G1 X142.201 Y59.3 E.01062
G1 X142.154 Y59.315 E.00249
M204 S1000
;WIPE_START
G1 F8640
G1 X142.068 Y59.342 E-.02081
G1 X141.965 Y59.375 E-.02497
G1 X138.699 Y59.375 E-.75422
;WIPE_END
G1 Z.6 F720
G1 X140.296 Y25.476 F10800
G1 Z.2 F720
G1 E.8 F1500
M204 S800
;TYPE:Solid infill
;WIDTH:0.651038
G1 F1200
G1 X141.252 Y26.432 E.06836
G1 X141.252 Y27.292 E.04349
G1 X139.709 Y25.749 E.11034
G1 X138.849 Y25.749 E.04349
G1 X141.252 Y28.152 E.17184
G1 X141.252 Y29.012 E.04349
G1 X137.989 Y25.749 E.23334
G1 X137.129 Y25.749 E.04349
G1 X141.252 Y29.872 E.29484
G1 X141.252 Y30.732 E.04349
G1 X136.269 Y25.749 E.35633
G1 X135.409 Y25.749 E.04349
G1 X141.252 Y31.592 E.41783
G1 X141.252 Y32.452 E.04349
G1 X134.549 Y25.749 E.47933
G1 X133.689 Y25.749 E.04349
G1 X141.252 Y33.312 E.54083
G1 X141.252 Y34.172 E.04349
G1 X132.829 Y25.749 E.60233
G1 X131.969 Y25.749 E.04349
G1 X141.252 Y35.032 E.66383
G1 X141.252 Y35.892 E.04349
G1 X131.108 Y25.749 E.72536
G1 X130.248 Y25.749 E.04349
G1 X141.252 Y36.752 E.78686
G1 X141.252 Y37.612 E.04349
G1 X129.388 Y25.749 E.84836
G1 X128.528 Y25.749 E.04349
G1 X141.252 Y38.472 E.90986
G1 X141.252 Y39.332 E.04349
G1 X127.668 Y25.749 E.97136
G1 X126.808 Y25.749 E.04349
G1 X141.252 Y40.192 E1.03285
G1 X141.252 Y41.052 E.04349
M73 P1 R86
M73 Q1 S87
G1 X125.948 Y25.749 E1.09435
G1 X125.088 Y25.749 E.04349
G1 X141.252 Y41.912 E1.15585
G1 X141.252 Y42.772 E.04349
M73 Q1 S86
G1 X124.228 Y25.749 E1.21735
G1 X123.368 Y25.749 E.04349
G1 X141.252 Y43.632 E1.27885
G1 X141.252 Y44.492 E.04349
G1 X122.508 Y25.749 E1.34035
G1 X121.648 Y25.749 E.04349
G1 X141.252 Y45.352 E1.40185
G1 X141.252 Y46.212 E.04349
G1 X120.788 Y25.748 E1.46338
G1 X119.928 Y25.748 E.04349
G1 X141.252 Y47.072 E1.52488
G1 X141.252 Y47.932 E.04349
G1 X119.068 Y25.748 E1.58638
G1 X118.208 Y25.748 E.04349
G1 X141.252 Y48.792 E1.64788
G1 X141.252 Y49.652 E.04349
G1 X117.348 Y25.748 E1.70938
G1 X116.488 Y25.748 E.04349
G1 X141.252 Y50.512 E1.77087
G1 X141.252 Y51.372 E.04349
G1 X115.628 Y25.748 E1.83237
G1 X114.768 Y25.748 E.04349
G1 X141.252 Y52.232 E1.89387
G1 X141.252 Y53.092 E.04349
G1 X113.908 Y25.748 E1.95537
G1 X113.048 Y25.748 E.04349
G1 X141.252 Y53.952 E2.01687
G1 X141.252 Y54.812 E.04349
G1 X112.188 Y25.748 E2.07837
G1 X111.328 Y25.748 E.04349
G1 X141.252 Y55.672 E2.13987
G1 X141.252 Y56.532 E.04349
G1 X110.468 Y25.748 E2.20136
G1 X109.608 Y25.748 E.04349
G1 X141.252 Y57.392 E2.26286
G1 X141.252 Y58.252 E.04349
M73 P1 R85
G1 X108.748 Y25.749 E2.32433
G1 X108.748 Y26.609 E.04349
G1 X140.391 Y58.252 E2.26279
G1 X139.531 Y58.252 E.04349
G1 X108.748 Y27.469 E2.20129
G1 X108.748 Y28.329 E.04349
G1 X138.671 Y58.252 E2.13979
G1 X137.811 Y58.252 E.04349
G1 X108.748 Y29.189 E2.0783
G1 X108.748 Y30.049 E.04349
G1 X136.951 Y58.252 E2.0168
G1 X136.091 Y58.252 E.04349
G1 X108.748 Y30.909 E1.9553
G1 X108.748 Y31.769 E.04349
G1 X135.231 Y58.252 E1.8938
G1 X134.371 Y58.252 E.04349
G1 X108.748 Y32.629 E1.8323
G1 X108.748 Y33.489 E.04349
M73 P2 R85
M73 Q2 S86
G1 X133.511 Y58.252 E1.7708
G1 X132.651 Y58.252 E.04349
G1 X108.748 Y34.349 E1.7093
G1 X108.748 Y35.209 E.04349
G1 X131.791 Y58.252 E1.64781
G1 X130.931 Y58.252 E.04349
G1 X108.748 Y36.069 E1.58631
G1 X108.748 Y36.929 E.04349
G1 X130.071 Y58.252 E1.52481
G1 X129.211 Y58.252 E.04349
M73 Q2 S85
G1 X108.748 Y37.789 E1.46331
G1 X108.748 Y38.649 E.04349
G1 X128.351 Y58.252 E1.40181
G1 X127.491 Y58.252 E.04349
G1 X108.748 Y39.509 E1.34031
G1 X108.748 Y40.369 E.04349
G1 X126.631 Y58.252 E1.27881
G1 X125.771 Y58.252 E.04349
G1 X108.748 Y41.229 E1.21731
G1 X108.748 Y42.089 E.04349
G1 X124.911 Y58.252 E1.15582
G1 X124.051 Y58.252 E.04349
G1 X108.748 Y42.949 E1.09432
G1 X108.748 Y43.809 E.04349
G1 X123.191 Y58.252 E1.03282
G1 X122.331 Y58.252 E.04349
G1 X108.748 Y44.669 E.97132
G1 X108.748 Y45.529 E.04349
G1 X121.471 Y58.252 E.90982
G1 X120.611 Y58.252 E.04349
G1 X108.748 Y46.389 E.84832
G1 X108.748 Y47.249 E.04349
G1 X119.751 Y58.252 E.78682
G1 X118.891 Y58.252 E.04349
G1 X108.748 Y48.109 E.72533
G1 X108.748 Y48.969 E.04349
G1 X118.031 Y58.252 E.66383
G1 X117.171 Y58.252 E.04349
G1 X108.748 Y49.829 E.60233
G1 X108.748 Y50.689 E.04349
G1 X116.311 Y58.252 E.54083
G1 X115.451 Y58.252 E.04349
G1 X108.748 Y51.549 E.47933
G1 X108.748 Y52.409 E.04349
G1 X114.591 Y58.252 E.41783
G1 X113.731 Y58.252 E.04349
G1 X108.748 Y53.269 E.35633
G1 X108.748 Y54.129 E.04349
G1 X112.871 Y58.252 E.29484
G1 X112.011 Y58.252 E.04349
G1 X108.748 Y54.989 E.23334
G1 X108.748 Y55.849 E.04349
G1 X111.151 Y58.252 E.17184
G1 X110.291 Y58.252 E.04349
G1 X108.748 Y56.709 E.11034
G1 X108.748 Y57.569 E.04349
G1 X109.704 Y58.525 E.06836
M204 S1000
;WIPE_START
G1 F8640
G1 X108.748 Y57.569 E-.31218
G1 X108.748 Y56.709 E-.19858
G1 X109.634 Y57.595 E-.28924
;WIPE_END
G1 Z.6 F720
G1 X141.768 Y100.718 F10800
G1 Z.2 F720
G1 E.8 F1500
M204 S800
;TYPE:Perimeter
;WIDTH:0.649999
G1 F1200
G1 X141.768 Y100.768 E.00252
G1 X108.232 Y100.768 E1.69286
G1 X108.232 Y67.232 E1.69286
G1 X141.768 Y67.233 E1.69286
G1 X141.768 Y100.628 E1.68574
M204 S1000
G1 X141.768 Y100.628 F10800
G1 X142.068 Y101.342
M204 S800
;TYPE:External perimeter
G1 F1200
G1 X141.965 Y101.375 E.00546
G1 X108.079 Y101.375 E1.71053
G1 X107.858 Y101.34 E.01129
G1 X107.7 Y101.201 E.01062
G1 X107.625 Y100.965 E.0125
G1 X107.625 Y67.079 E1.71053
G1 X107.66 Y66.858 E.01129
G1 X107.799 Y66.7 E.01062
G1 X108.035 Y66.625 E.0125
G1 X141.895 Y66.626 E1.70921
G1 X142.147 Y66.682 E.01303
G1 X142.307 Y66.795 E.00989
G1 X142.375 Y67.039 E.01279
G1 X142.375 Y100.921 E1.71032
G1 X142.34 Y101.142 E.01129
M73 P2 R84
G1 X142.201 Y101.3 E.01062
G1 X142.154 Y101.315 E.00249
M204 S1000
;WIPE_START
G1 F8640
G1 X142.068 Y101.342 E-.02081
G1 X141.965 Y101.375 E-.02497
G1 X138.699 Y101.375 E-.75422
;WIPE_END
G1 Z.6 F720
G1 X140.296 Y67.476 F10800
G1 Z.2 F720
G1 E.8 F1500
M204 S800
;TYPE:Solid infill
;WIDTH:0.651038
G1 F1200
G1 X141.252 Y68.432 E.06836
G1 X141.252 Y69.292 E.04349
G1 X139.709 Y67.749 E.11034
G1 X138.849 Y67.749 E.04349
G1 X141.252 Y70.152 E.17184
G1 X141.252 Y71.012 E.04349
G1 X137.989 Y67.749 E.23334
G1 X137.129 Y67.749 E.04349
G1 X141.252 Y71.872 E.29484
G1 X141.252 Y72.732 E.04349
G1 X136.269 Y67.749 E.35633
G1 X135.409 Y67.749 E.04349
G1 X141.252 Y73.592 E.41783
G1 X141.252 Y74.452 E.04349
G1 X134.549 Y67.749 E.47933
G1 X133.689 Y67.749 E.04349
G1 X141.252 Y75.312 E.54083
G1 X141.252 Y76.172 E.04349
G1 X132.829 Y67.749 E.60233
G1 X131.969 Y67.749 E.04349
G1 X141.252 Y77.032 E.66383
G1 X141.252 Y77.892 E.04349
G1 X131.108 Y67.749 E.72536
G1 X130.248 Y67.749 E.04349
G1 X141.252 Y78.752 E.78686
G1 X141.252 Y79.612 E.04349
G1 X129.388 Y67.749 E.84836
G1 X128.528 Y67.749 E.04349
G1 X141.252 Y80.472 E.90986
G1 X141.252 Y81.332 E.04349
G1 X127.668 Y67.749 E.97136
G1 X126.808 Y67.749 E.04349
M73 P3 R84
G1 X141.252 Y82.192 E1.03285
G1 X141.252 Y83.052 E.04349
M73 Q3 S85
G1 X125.948 Y67.749 E1.09435
G1 X125.088 Y67.749 E.04349
G1 X141.252 Y83.912 E1.15585
G1 X141.252 Y84.772 E.04349
G1 X124.228 Y67.749 E1.21735
G1 X123.368 Y67.749 E.04349
G1 X141.252 Y85.632 E1.27885
G1 X141.252 Y86.492 E.04349
G1 X122.508 Y67.749 E1.34035
G1 X121.648 Y67.749 E.04349
G1 X141.252 Y87.352 E1.40185
G1 X141.252 Y88.212 E.04349
G1 X120.788 Y67.748 E1.46338
G1 X119.928 Y67.748 E.04349
G1 X141.252 Y89.072 E1.52488
G1 X141.252 Y89.932 E.04349
G1 X119.068 Y67.748 E1.58638
G1 X118.208 Y67.748 E.04349
G1 X141.252 Y90.792 E1.64788
G1 X141.252 Y91.652 E.04349
G1 X117.348 Y67.748 E1.70938
G1 X116.488 Y67.748 E.04349
M73 Q3 S84
G1 X141.252 Y92.512 E1.77087
G1 X141.252 Y93.372 E.04349
G1 X115.628 Y67.748 E1.83237
G1 X114.768 Y67.748 E.04349
G1 X141.252 Y94.232 E1.89387
G1 X141.252 Y95.092 E.04349
G1 X113.908 Y67.748 E1.95537
G1 X113.048 Y67.748 E.04349
G1 X141.252 Y95.952 E2.01687
G1 X141.252 Y96.812 E.04349
G1 X112.188 Y67.748 E2.07837
G1 X111.328 Y67.748 E.04349
G1 X141.252 Y97.672 E2.13987
G1 X141.252 Y98.532 E.04349
G1 X110.468 Y67.748 E2.20136
G1 X109.608 Y67.748 E.04349
G1 X141.252 Y99.392 E2.26286
G1 X141.252 Y100.252 E.04349
G1 X108.748 Y67.749 E2.32433
G1 X108.748 Y68.609 E.04349
G1 X140.391 Y100.252 E2.26279
G1 X139.531 Y100.252 E.04349
G1 X108.748 Y69.469 E2.20129
G1 X108.748 Y70.329 E.04349
G1 X138.671 Y100.252 E2.13979
G1 X137.811 Y100.252 E.04349
G1 X108.748 Y71.189 E2.0783
G1 X108.748 Y72.049 E.04349
G1 X136.951 Y100.252 E2.0168
G1 X136.091 Y100.252 E.04349
G1 X108.748 Y72.909 E1.9553
G1 X108.748 Y73.769 E.04349
M73 P3 R83
G1 X135.231 Y100.252 E1.8938
G1 X134.371 Y100.252 E.04349
M73 P4 R83
G1 X108.748 Y74.629 E1.8323
G1 X108.748 Y75.489 E.04349
M73 Q4 S84
G1 X133.511 Y100.252 E1.7708
G1 X132.651 Y100.252 E.04349
G1 X108.748 Y76.349 E1.7093
G1 X108.748 Y77.209 E.04349
G1 X131.791 Y100.252 E1.64781
G1 X130.931 Y100.252 E.04349
G1 X108.748 Y78.069 E1.58631
G1 X108.748 Y78.929 E.04349
G1 X130.071 Y100.252 E1.52481
G1 X129.211 Y100.252 E.04349
G1 X108.748 Y79.789 E1.46331
G1 X108.748 Y80.649 E.04349
G1 X128.351 Y100.252 E1.40181
G1 X127.491 Y100.252 E.04349
G1 X108.748 Y81.509 E1.34031
G1 X108.748 Y82.369 E.04349
G1 X126.631 Y100.252 E1.27881
G1 X125.771 Y100.252 E.04349
G1 X108.748 Y83.229 E1.21731
G1 X108.748 Y84.089 E.04349
G1 X124.911 Y100.252 E1.15582
G1 X124.051 Y100.252 E.04349
G1 X108.748 Y84.949 E1.09432
G1 X108.748 Y85.809 E.04349
G1 X123.191 Y100.252 E1.03282
G1 X122.331 Y100.252 E.04349
G1 X108.748 Y86.669 E.97132
G1 X108.748 Y87.529 E.04349
G1 X121.471 Y100.252 E.90982
G1 X120.611 Y100.252 E.04349
G1 X108.748 Y88.389 E.84832
G1 X108.748 Y89.249 E.04349
M73 Q4 S83
G1 X119.751 Y100.252 E.78682
G1 X118.891 Y100.252 E.04349
G1 X108.748 Y90.109 E.72533
G1 X108.748 Y90.969 E.04349
G1 X118.031 Y100.252 E.66383
G1 X117.171 Y100.252 E.04349
G1 X108.748 Y91.829 E.60233
G1 X108.748 Y92.689 E.04349
G1 X116.311 Y100.252 E.54083
G1 X115.451 Y100.252 E.04349
G1 X108.748 Y93.549 E.47933
G1 X108.748 Y94.409 E.04349
G1 X114.591 Y100.252 E.41783
G1 X113.731 Y100.252 E.04349
G1 X108.748 Y95.269 E.35633
G1 X108.748 Y96.129 E.04349
G1 X112.871 Y100.252 E.29484
G1 X112.011 Y100.252 E.04349
G1 X108.748 Y96.989 E.23334
G1 X108.748 Y97.849 E.04349
G1 X111.151 Y100.252 E.17184
G1 X110.291 Y100.252 E.04349
G1 X108.748 Y98.709 E.11034
G1 X108.748 Y99.569 E.04349
G1 X109.704 Y100.525 E.06836
M204 S1000
;WIPE_START
G1 F8640
G1 X108.748 Y99.569 E-.31218
G1 X108.748 Y98.709 E-.19858
G1 X109.634 Y99.595 E-.28924
;WIPE_END
G1 Z.6 F720
G1 X141.768 Y109.282 F10800
G1 Z.2 F720
G1 E.8 F1500
M204 S800
;TYPE:Perimeter
;WIDTH:0.649999
G1 F1200
G1 X141.768 Y142.768 E1.69033
G1 X108.232 Y142.768 E1.69286
G1 X108.232 Y109.232 E1.69286
G1 X141.726 Y109.233 E1.69074
M204 S1000
G1 X141.726 Y109.233 F10800
G1 X142.065 Y108.664
M204 S800
;TYPE:External perimeter
G1 F1200
G1 X142.147 Y108.682 E.00424
G1 X142.307 Y108.795 E.00989
G1 X142.375 Y109.039 E.01279
G1 X142.375 Y142.921 E1.71032
G1 X142.34 Y143.142 E.01129
G1 X142.201 Y143.3 E.01062
G1 X141.965 Y143.375 E.0125
G1 X108.079 Y143.375 E1.71053
G1 X107.858 Y143.34 E.01129
G1 X107.7 Y143.201 E.01062
G1 X107.625 Y142.965 E.0125
G1 X107.625 Y109.079 E1.71053
G1 X107.66 Y108.858 E.01129
G1 X107.799 Y108.7 E.01062
G1 X108.035 Y108.625 E.0125
G1 X141.895 Y108.626 E1.70921
G1 X141.977 Y108.644 E.00424
M204 S1000
;WIPE_START
G1 F8640
G1 X142.065 Y108.664 E-.02084
G1 X142.147 Y108.682 E-.01938
G1 X142.307 Y108.795 E-.04523
G1 X142.375 Y109.039 E-.05849
G1 X142.375 Y111.88 E-.65606
;WIPE_END
G1 Z.6 F720
G1 X140.296 Y109.476 F10800
G1 Z.2 F720
G1 E.8 F1500
M204 S800
;TYPE:Solid infill
;WIDTH:0.651038
G1 F1200
G1 X141.252 Y110.432 E.06836
G1 X141.252 Y111.292 E.04349
G1 X139.709 Y109.749 E.11034
G1 X138.849 Y109.749 E.04349
G1 X141.252 Y112.152 E.17184
G1 X141.252 Y113.012 E.04349
G1 X137.989 Y109.749 E.23334
G1 X137.129 Y109.749 E.04349
G1 X141.252 Y113.872 E.29484
G1 X141.252 Y114.732 E.04349
G1 X136.269 Y109.749 E.35633
G1 X135.409 Y109.749 E.04349
G1 X141.252 Y115.592 E.41783
G1 X141.252 Y116.452 E.04349
G1 X134.549 Y109.749 E.47933
G1 X133.689 Y109.749 E.04349
G1 X141.252 Y117.312 E.54083
G1 X141.252 Y118.172 E.04349
G1 X132.829 Y109.749 E.60233
G1 X131.969 Y109.749 E.04349
G1 X141.252 Y119.032 E.66383
G1 X141.252 Y119.892 E.04349
G1 X131.108 Y109.749 E.72536
G1 X130.248 Y109.749 E.04349
G1 X141.252 Y120.752 E.78686
G1 X141.252 Y121.612 E.04349
G1 X129.388 Y109.749 E.84836
G1 X128.528 Y109.749 E.04349
G1 X141.252 Y122.472 E.90986
G1 X141.252 Y123.332 E.04349
M73 P5 R83
G1 X127.668 Y109.749 E.97136
G1 X126.808 Y109.749 E.04349
