; generated by PrusaSlicer 2.8.1+win64 on 2024-10-19 at 20:42:39 UTC


;
;
; 

; external perimeters extrusion width = 0.68mm
; perimeters extrusion width = 0.68mm
; infill extrusion width = 0.68mm
; solid infill extrusion width = 0.68mm
; top infill extrusion width = 0.60mm
; first layer extrusion width = 0.65mm

M73 P0 R87
M73 Q0 S87
M201 X1000 Y1000 Z200 E5000 ; sets maximum accelerations, mm/sec^2
M203 X200 Y200 Z12 E120 ; sets maximum feedrates, mm / sec
M204 S1250 T1250 ; sets acceleration (S) and retract acceleration (R), mm/sec^2
M205 X8.00 Y8.00 Z0.40 E4.50 ; sets the jerk limits, mm/sec
M205 S0 T0 ; sets the minimum extruding and travel feed rate, mm/sec

; printing object quarter_inch_drive.stl id:0 copy 0
; stop printing object quarter_inch_drive.stl id:0 copy 0

;TYPE:Custom
M862.3 P "MK3S" ; printer model check
M862.1 P0.6 ; nozzle diameter check
M115 U3.14.0 ; tell printer latest fw version
G90 ; use absolute coordinates
M83 ; extruder relative mode
M104 S215 ; set extruder temp
M140 S60 ; set bed temp
M190 S60 ; wait for bed temp
M109 S215 ; wait for extruder temp
G28 W ; home all without mesh bed level
G80 X106.791 Y18.2299 W42.4142 H168.414 ; mesh bed levelling

G1 Z0.2 F720
G1 Y-3 F1000 ; go outside print area
G92 E0
G1 X60 E9 F1000 ; intro line
G1 X100 E12.5 F1000 ; intro line

G92 E0
M221 S95
G21 ; set units to millimeters
G90 ; use absolute coordinates
M83 ; use relative distances for extrusion

M900 K0.04 ; Filament gcode LA 1.5
M900 K18 ; Filament gcode LA 1.0




M107
;LAYER_CHANGE
;Z:0.2
;HEIGHT:0.2
G1 E-.8 F2100
G1 Z.6 F720
G1 X107.181 Y21.62 F10800
G1 Z.2 F720
G1 E.8 F1500
M204 S800
;TYPE:Skirt/Brim
;WIDTH:0.65
G1 F1200
G1 X107.621 Y20.479 E.06173
G1 X107.945 Y20.005 E.02898
G1 X108.419 Y19.507 E.03471
G1 X109.452 Y18.853 E.06172
G1 X110.104 Y18.637 E.03467
G1 X110.672 Y18.547 E.02903
G1 X145.054 Y18.534 E1.73556
G1 X145.815 Y18.62 E.03866
G1 X146.544 Y18.853 E.03863
G1 X147.213 Y19.223 E.03859
G1 X147.798 Y19.717 E.03865
G1 X148.212 Y20.222 E.03296
G1 X148.582 Y20.891 E.03859
G1 X148.815 Y21.62 E.03863
G1 X148.901 Y22.38 E.03861
G1 X148.901 Y182.437 E8.0795
G1 X148.815 Y183.254 E.04147
M73 P0 R86
G1 X148.375 Y184.395 E.06173
G1 X148.051 Y184.869 E.02898
G1 X147.577 Y185.367 E.03471
G1 X146.544 Y186.021 E.06172
G1 X145.891 Y186.237 E.03472
G1 X145.324 Y186.327 E.02898
G1 X110.998 Y186.341 E1.73274
G1 X110.181 Y186.254 E.04147
G1 X109.557 Y186.064 E.03293
G1 X108.943 Y185.756 E.03467
G1 X108.419 Y185.367 E.03294
G1 X107.945 Y184.869 E.03471
G1 X107.583 Y184.327 E.0329
G1 X107.304 Y183.699 E.03469
G1 X107.095 Y182.494 E.06174
G1 X107.094 Y22.437 E8.0795
G1 X107.172 Y21.71 E.03691
M204 S1000
;WIPE_START
G1 F8640
G1 X107.181 Y21.62 E-.02088
G1 X107.621 Y20.479 E-.28237
G1 X107.945 Y20.005 E-.13257
G1 X108.419 Y19.507 E-.15875
G1 X109.171 Y19.031 E-.20543
;WIPE_END
G1 Z.6 F720
; printing object quarter_inch_drive.stl id:0 copy 0
G1 X144.766 Y56.155 F10800
G1 Z.2 F720
G1 E.8 F1500
M204 S800
;TYPE:Perimeter
;WIDTH:0.649999
G1 F1200
G1 X144.766 Y56.205 E.00252
G1 X111.23 Y56.205 E1.69286
G1 X111.23 Y22.669 E1.69286
G1 X144.766 Y22.67 E1.69286
G1 X144.766 Y56.065 E1.68574
M204 S1000
G1 X144.766 Y56.065 F10800
G1 X145.066 Y56.779
M204 S800
;TYPE:External perimeter
G1 F1200
G1 X144.963 Y56.812 E.00546
G1 X111.077 Y56.812 E1.71053
G1 X110.856 Y56.777 E.01129
G1 X110.697 Y56.638 E.01066
G1 X110.623 Y56.402 E.01248
G1 X110.623 Y22.516 E1.71053
G1 X110.657 Y22.295 E.01129
G1 X110.796 Y22.137 E.01062
G1 X111.033 Y22.062 E.01255
G1 X144.893 Y22.063 E1.70921
G1 X145.144 Y22.119 E.01298
G1 X145.305 Y22.232 E.00993
G1 X145.373 Y22.476 E.01279
G1 X145.373 Y56.358 E1.71032
G1 X145.338 Y56.579 E.01129
G1 X145.199 Y56.737 E.01062
G1 X145.152 Y56.752 E.00249
M204 S1000
;WIPE_START
G1 F8640
G1 X145.066 Y56.779 E-.02081
G1 X144.963 Y56.812 E-.02497
G1 X141.697 Y56.812 E-.75422
;WIPE_END
G1 Z.6 F720
G1 X143.294 Y22.913 F10800
G1 Z.2 F720
G1 E.8 F1500
M204 S800
;TYPE:Solid infill
;WIDTH:0.651038
G1 F1200
G1 X144.25 Y23.869 E.06836
G1 X144.25 Y24.729 E.04349
G1 X142.707 Y23.186 E.11034
G1 X141.847 Y23.186 E.04349
G1 X144.25 Y25.589 E.17184
G1 X144.25 Y26.449 E.04349
G1 X140.987 Y23.186 E.23334
G1 X140.127 Y23.186 E.04349
G1 X144.25 Y27.309 E.29484
G1 X144.25 Y28.169 E.04349
G1 X139.267 Y23.186 E.35633
G1 X138.407 Y23.186 E.04349
G1 X144.25 Y29.029 E.41783
G1 X144.25 Y29.889 E.04349
G1 X137.547 Y23.186 E.47933
G1 X136.687 Y23.186 E.04349
G1 X144.25 Y30.749 E.54083
G1 X144.25 Y31.609 E.04349
G1 X135.826 Y23.186 E.60236
G1 X134.966 Y23.186 E.04349
M73 Q0 S86
G1 X144.25 Y32.469 E.66386
G1 X144.25 Y33.329 E.04349
G1 X134.106 Y23.186 E.72536
G1 X133.246 Y23.186 E.04349
G1 X144.25 Y34.189 E.78686
G1 X144.25 Y35.049 E.04349
G1 X132.386 Y23.186 E.84836
G1 X131.526 Y23.186 E.04349
G1 X144.25 Y35.909 E.90986
G1 X144.25 Y36.769 E.04349
G1 X130.666 Y23.186 E.97136
G1 X129.806 Y23.186 E.04349
G1 X144.25 Y37.629 E1.03285
G1 X144.25 Y38.489 E.04349
M73 P1 R86
M73 Q1 S86
G1 X128.946 Y23.186 E1.09435
G1 X128.086 Y23.186 E.04349
G1 X144.25 Y39.349 E1.15585
G1 X144.25 Y40.209 E.04349
G1 X127.226 Y23.186 E1.21735
G1 X126.366 Y23.186 E.04349
G1 X144.25 Y41.069 E1.27885
G1 X144.25 Y41.929 E.04349
G1 X125.506 Y23.186 E1.34035
G1 X124.646 Y23.185 E.04349
G1 X144.25 Y42.789 E1.40188
G1 X144.25 Y43.649 E.04349
G1 X123.786 Y23.185 E1.46338
G1 X122.926 Y23.185 E.04349
G1 X144.25 Y44.509 E1.52488
G1 X144.25 Y45.369 E.04349
G1 X122.066 Y23.185 E1.58638
G1 X121.206 Y23.185 E.04349
G1 X144.25 Y46.229 E1.64788
G1 X144.25 Y47.089 E.04349
G1 X120.346 Y23.185 E1.70938
G1 X119.486 Y23.185 E.04349
G1 X144.25 Y47.949 E1.77087
G1 X144.25 Y48.809 E.04349
G1 X118.626 Y23.185 E1.83237
G1 X117.766 Y23.185 E.04349
G1 X144.25 Y49.669 E1.89387
G1 X144.25 Y50.529 E.04349
G1 X116.906 Y23.185 E1.95537
G1 X116.046 Y23.185 E.04349
M73 P1 R85
G1 X144.25 Y51.389 E2.01687
G1 X144.25 Y52.249 E.04349
G1 X115.186 Y23.185 E2.07837
G1 X114.326 Y23.185 E.04349
G1 X144.25 Y53.109 E2.13987
G1 X144.25 Y53.969 E.04349
G1 X113.466 Y23.185 E2.20136
G1 X112.605 Y23.185 E.04354
G1 X144.25 Y54.829 E2.2629
G1 X144.25 Y55.689 E.04349
G1 X111.746 Y23.186 E2.32433
G1 X111.746 Y24.046 E.04349
G1 X143.389 Y55.689 E2.26279
G1 X142.529 Y55.689 E.04349
G1 X111.746 Y24.906 E2.20129
G1 X111.746 Y25.766 E.04349
G1 X141.669 Y55.689 E2.13979
G1 X140.809 Y55.689 E.04349
G1 X111.746 Y26.626 E2.0783
G1 X111.746 Y27.486 E.04349
G1 X139.949 Y55.689 E2.0168
G1 X139.089 Y55.689 E.04349
G1 X111.746 Y28.346 E1.9553
G1 X111.746 Y29.206 E.04349
G1 X138.229 Y55.689 E1.8938
G1 X137.369 Y55.689 E.04349
G1 X111.746 Y30.066 E1.8323
G1 X111.746 Y30.926 E.04349
M73 P2 R85
M73 Q2 S86
G1 X136.509 Y55.689 E1.7708
G1 X135.649 Y55.689 E.04349
M73 Q2 S85
G1 X111.746 Y31.786 E1.7093
G1 X111.746 Y32.646 E.04349
G1 X134.789 Y55.689 E1.64781
G1 X133.929 Y55.689 E.04349
G1 X111.746 Y33.506 E1.58631
G1 X111.746 Y34.366 E.04349
G1 X133.069 Y55.689 E1.52481
G1 X132.209 Y55.689 E.04349
G1 X111.746 Y35.226 E1.46331
G1 X111.746 Y36.086 E.04349
G1 X131.349 Y55.689 E1.40181
G1 X130.489 Y55.689 E.04349
G1 X111.746 Y36.946 E1.34031
G1 X111.746 Y37.806 E.04349
G1 X129.629 Y55.689 E1.27881
G1 X128.769 Y55.689 E.04349
G1 X111.746 Y38.666 E1.21731
G1 X111.746 Y39.526 E.04349
G1 X127.909 Y55.689 E1.15582
G1 X127.049 Y55.689 E.04349
G1 X111.746 Y40.386 E1.09432
G1 X111.746 Y41.246 E.04349
G1 X126.189 Y55.689 E1.03282
G1 X125.329 Y55.689 E.04349
G1 X111.746 Y42.106 E.97132
G1 X111.746 Y42.966 E.04349
G1 X124.469 Y55.689 E.90982
G1 X123.609 Y55.689 E.04349
G1 X111.746 Y43.826 E.84832
G1 X111.746 Y44.686 E.04349
G1 X122.749 Y55.689 E.78682
G1 X121.889 Y55.689 E.04349
G1 X111.746 Y45.546 E.72533
G1 X111.746 Y46.406 E.04349
G1 X121.029 Y55.689 E.66383
G1 X120.169 Y55.689 E.04349
G1 X111.746 Y47.266 E.60233
G1 X111.746 Y48.126 E.04349
G1 X119.309 Y55.689 E.54083
G1 X118.449 Y55.689 E.04349
G1 X111.746 Y48.986 E.47933
G1 X111.746 Y49.846 E.04349
G1 X117.589 Y55.689 E.41783
G1 X116.729 Y55.689 E.04349
G1 X111.746 Y50.706 E.35633
G1 X111.746 Y51.566 E.04349
G1 X115.869 Y55.689 E.29484
G1 X115.009 Y55.689 E.04349
G1 X111.746 Y52.426 E.23334
G1 X111.746 Y53.286 E.04349
G1 X114.149 Y55.689 E.17184
G1 X113.289 Y55.689 E.04349
G1 X111.746 Y54.146 E.11034
G1 X111.746 Y55.006 E.04349
G1 X112.702 Y55.962 E.06836
M204 S1000
;WIPE_START
G1 F8640
G1 X111.746 Y55.006 E-.31218
G1 X111.746 Y54.146 E-.19858
G1 X112.632 Y55.032 E-.28924
;WIPE_END
G1 Z.6 F720
G1 X111.23 Y64.719 F10800
G1 Z.2 F720
G1 E.8 F1500
M204 S800
;TYPE:Perimeter
;WIDTH:0.649999
G1 F1200
G1 X111.23 Y64.669 E.00252
G1 X144.766 Y64.67 E1.69286
G1 X144.766 Y98.205 E1.69281
M73 P2 R84
G1 X111.23 Y98.205 E1.69286
G1 X111.23 Y64.809 E1.68579
M204 S1000
G1 X111.23 Y64.809 F10800
G1 X110.93 Y64.094
M204 S800
;TYPE:External perimeter
G1 F1200
G1 X111.033 Y64.062 E.00544
G1 X144.893 Y64.063 E1.70921
G1 X145.144 Y64.119 E.01298
G1 X145.305 Y64.232 E.00993
G1 X145.373 Y64.476 E.01279
G1 X145.373 Y98.358 E1.71032
G1 X145.338 Y98.579 E.01129
G1 X145.199 Y98.737 E.01062
G1 X144.963 Y98.812 E.0125
G1 X111.077 Y98.812 E1.71053
G1 X110.856 Y98.777 E.01129
G1 X110.697 Y98.638 E.01066
G1 X110.623 Y98.402 E.01248
G1 X110.623 Y64.516 E1.71053
G1 X110.657 Y64.295 E.01129
G1 X110.796 Y64.137 E.01062
G1 X110.844 Y64.122 E.00254
M204 S1000
;WIPE_START
G1 F8640
G1 X110.93 Y64.094 E-.02088
G1 X111.033 Y64.062 E-.0249
G1 X114.299 Y64.062 E-.75422
;WIPE_END
G1 Z.6 F720
G1 X143.294 Y64.913 F10800
G1 Z.2 F720
G1 E.8 F1500
M204 S800
;TYPE:Solid infill
;WIDTH:0.651038
G1 F1200
G1 X144.25 Y65.869 E.06836
G1 X144.25 Y66.729 E.04349
G1 X142.707 Y65.186 E.11034
G1 X141.847 Y65.186 E.04349
G1 X144.25 Y67.589 E.17184
G1 X144.25 Y68.449 E.04349
G1 X140.987 Y65.186 E.23334
G1 X140.127 Y65.186 E.04349
G1 X144.25 Y69.309 E.29484
G1 X144.25 Y70.169 E.04349
G1 X139.267 Y65.186 E.35633
G1 X138.407 Y65.186 E.04349
G1 X144.25 Y71.029 E.41783
G1 X144.25 Y71.889 E.04349
G1 X137.547 Y65.186 E.47933
G1 X136.687 Y65.186 E.04349
G1 X144.25 Y72.749 E.54083
G1 X144.25 Y73.609 E.04349
G1 X135.826 Y65.186 E.60236
G1 X134.966 Y65.186 E.04349
G1 X144.25 Y74.469 E.66386
G1 X144.25 Y75.329 E.04349
G1 X134.106 Y65.186 E.72536
G1 X133.246 Y65.186 E.04349
G1 X144.25 Y76.189 E.78686
G1 X144.25 Y77.049 E.04349
G1 X132.386 Y65.186 E.84836
G1 X131.526 Y65.186 E.04349
G1 X144.25 Y77.909 E.90986
G1 X144.25 Y78.769 E.04349
G1 X130.666 Y65.186 E.97136
G1 X129.806 Y65.186 E.04349
M73 P3 R84
G1 X144.25 Y79.629 E1.03285
G1 X144.25 Y80.489 E.04349
M73 Q3 S85
G1 X128.946 Y65.186 E1.09435
G1 X128.086 Y65.186 E.04349
G1 X144.25 Y81.349 E1.15585
G1 X144.25 Y82.209 E.04349
G1 X127.226 Y65.186 E1.21735
G1 X126.366 Y65.186 E.04349
G1 X144.25 Y83.069 E1.27885
G1 X144.25 Y83.929 E.04349
G1 X125.506 Y65.186 E1.34035
G1 X124.646 Y65.185 E.04349
G1 X144.25 Y84.789 E1.40188
G1 X144.25 Y85.649 E.04349
M73 Q3 S84
G1 X123.786 Y65.185 E1.46338
G1 X122.926 Y65.185 E.04349
G1 X144.25 Y86.509 E1.52488
G1 X144.25 Y87.369 E.04349
G1 X122.066 Y65.185 E1.58638
G1 X121.206 Y65.185 E.04349
G1 X144.25 Y88.229 E1.64788
G1 X144.25 Y89.089 E.04349
G1 X120.346 Y65.185 E1.70938
G1 X119.486 Y65.185 E.04349
G1 X144.25 Y89.949 E1.77087
G1 X144.25 Y90.809 E.04349
G1 X118.626 Y65.185 E1.83237
G1 X117.766 Y65.185 E.04349
G1 X144.25 Y91.669 E1.89387
G1 X144.25 Y92.529 E.04349
G1 X116.906 Y65.185 E1.95537
G1 X116.046 Y65.185 E.04349
G1 X144.25 Y93.389 E2.01687
G1 X144.25 Y94.249 E.04349
G1 X115.186 Y65.185 E2.07837
G1 X114.326 Y65.185 E.04349
G1 X144.25 Y95.109 E2.13987
G1 X144.25 Y95.969 E.04349
G1 X113.466 Y65.185 E2.20136
G1 X112.605 Y65.185 E.04354
G1 X144.25 Y96.829 E2.2629
G1 X144.25 Y97.689 E.04349
G1 X111.746 Y65.186 E2.32433
G1 X111.746 Y66.046 E.04349
M73 P3 R83
G1 X143.389 Y97.689 E2.26279
G1 X142.529 Y97.689 E.04349
G1 X111.746 Y66.906 E2.20129
G1 X111.746 Y67.766 E.04349
G1 X141.669 Y97.689 E2.13979
G1 X140.809 Y97.689 E.04349
G1 X111.746 Y68.626 E2.0783
G1 X111.746 Y69.486 E.04349
G1 X139.949 Y97.689 E2.0168
G1 X139.089 Y97.689 E.04349
G1 X111.746 Y70.346 E1.9553
G1 X111.746 Y71.206 E.04349
G1 X138.229 Y97.689 E1.8938
G1 X137.369 Y97.689 E.04349
M73 P4 R83
G1 X111.746 Y72.066 E1.8323
G1 X111.746 Y72.926 E.04349
M73 Q4 S84
G1 X136.509 Y97.689 E1.7708
G1 X135.649 Y97.689 E.04349
G1 X111.746 Y73.786 E1.7093
G1 X111.746 Y74.646 E.04349
G1 X134.789 Y97.689 E1.64781
G1 X133.929 Y97.689 E.04349
G1 X111.746 Y75.506 E1.58631
G1 X111.746 Y76.366 E.04349
G1 X133.069 Y97.689 E1.52481
G1 X132.209 Y97.689 E.04349
G1 X111.746 Y77.226 E1.46331
G1 X111.746 Y78.086 E.04349
G1 X131.349 Y97.689 E1.40181
G1 X130.489 Y97.689 E.04349
G1 X111.746 Y78.946 E1.34031
G1 X111.746 Y79.806 E.04349
G1 X129.629 Y97.689 E1.27881
G1 X128.769 Y97.689 E.04349
G1 X111.746 Y80.666 E1.21731
M73 Q4 S83
G1 X111.746 Y81.526 E.04349
G1 X127.909 Y97.689 E1.15582
G1 X127.049 Y97.689 E.04349
G1 X111.746 Y82.386 E1.09432
G1 X111.746 Y83.246 E.04349
G1 X126.189 Y97.689 E1.03282
G1 X125.329 Y97.689 E.04349
G1 X111.746 Y84.106 E.97132
G1 X111.746 Y84.966 E.04349
G1 X124.469 Y97.689 E.90982
G1 X123.609 Y97.689 E.04349
G1 X111.746 Y85.826 E.84832
G1 X111.746 Y86.686 E.04349
G1 X122.749 Y97.689 E.78682
G1 X121.889 Y97.689 E.04349
G1 X111.746 Y87.546 E.72533
G1 X111.746 Y88.406 E.04349
G1 X121.029 Y97.689 E.66383
G1 X120.169 Y97.689 E.04349
G1 X111.746 Y89.266 E.60233
G1 X111.746 Y90.126 E.04349
G1 X119.309 Y97.689 E.54083
G1 X118.449 Y97.689 E.04349
G1 X111.746 Y90.986 E.47933
G1 X111.746 Y91.846 E.04349
G1 X117.589 Y97.689 E.41783
G1 X116.729 Y97.689 E.04349
G1 X111.746 Y92.706 E.35633
G1 X111.746 Y93.566 E.04349
G1 X115.869 Y97.689 E.29484
G1 X115.009 Y97.689 E.04349
G1 X111.746 Y94.426 E.23334
G1 X111.746 Y95.286 E.04349
G1 X114.149 Y97.689 E.17184
G1 X113.289 Y97.689 E.04349
G1 X111.746 Y96.146 E.11034
G1 X111.746 Y97.006 E.04349
G1 X112.702 Y97.962 E.06836
M204 S1000
;WIPE_START
G1 F8640
G1 X111.746 Y97.006 E-.31218
G1 X111.746 Y96.146 E-.19858
G1 X112.632 Y97.032 E-.28924
;WIPE_END
G1 Z.6 F720
G1 X144.766 Y140.155 F10800
G1 Z.2 F720
G1 E.8 F1500
M204 S800
;TYPE:Perimeter
;WIDTH:0.649999
G1 F1200
G1 X144.766 Y140.205 E.00252
G1 X111.23 Y140.205 E1.69286
G1 X111.23 Y106.669 E1.69286
G1 X144.766 Y106.67 E1.69286
G1 X144.766 Y140.065 E1.68574
M204 S1000
G1 X144.766 Y140.065 F10800
G1 X145.066 Y140.779
M204 S800
;TYPE:External perimeter
G1 F1200
G1 X144.963 Y140.812 E.00546
G1 X111.077 Y140.812 E1.71053
G1 X110.856 Y140.777 E.01129
G1 X110.697 Y140.638 E.01066
G1 X110.623 Y140.402 E.01248
G1 X110.623 Y106.516 E1.71053
G1 X110.657 Y106.295 E.01129
G1 X110.796 Y106.137 E.01062
G1 X111.033 Y106.062 E.01255
G1 X144.893 Y106.063 E1.70921
G1 X145.144 Y106.119 E.01298
G1 X145.305 Y106.232 E.00993
G1 X145.373 Y106.476 E.01279
G1 X145.373 Y140.358 E1.71032
G1 X145.338 Y140.579 E.01129
G1 X145.199 Y140.737 E.01062
G1 X145.152 Y140.752 E.00249
M204 S1000
;WIPE_START
G1 F8640
G1 X145.066 Y140.779 E-.02081
G1 X144.963 Y140.812 E-.02497
G1 X141.697 Y140.812 E-.75422
;WIPE_END
G1 Z.6 F720
G1 X143.294 Y106.913 F10800
G1 Z.2 F720
G1 E.8 F1500
M204 S800
;TYPE:Solid infill
;WIDTH:0.651038
G1 F1200
G1 X144.25 Y107.869 E.06836
G1 X144.25 Y108.729 E.04349
G1 X142.707 Y107.186 E.11034
G1 X141.847 Y107.186 E.04349
G1 X144.25 Y109.589 E.17184
G1 X144.25 Y110.449 E.04349
M73 P4 R82
G1 X140.987 Y107.186 E.23334
G1 X140.127 Y107.186 E.04349
G1 X144.25 Y111.309 E.29484
G1 X144.25 Y112.169 E.04349
G1 X139.267 Y107.186 E.35633
G1 X138.407 Y107.186 E.04349
G1 X144.25 Y113.029 E.41783
G1 X144.25 Y113.889 E.04349
G1 X137.547 Y107.186 E.47933
G1 X136.687 Y107.186 E.04349
G1 X144.25 Y114.749 E.54083
G1 X144.25 Y115.609 E.04349
G1 X135.826 Y107.186 E.60236
G1 X134.966 Y107.186 E.04349
G1 X144.25 Y116.469 E.66386
G1 X144.25 Y117.329 E.04349
G1 X134.106 Y107.186 E.72536
G1 X133.246 Y107.186 E.04349
G1 X144.25 Y118.189 E.78686
G1 X144.25 Y119.049 E.04349
G1 X132.386 Y107.186 E.84836
G1 X131.526 Y107.186 E.04349
M73 P5 R82
G1 X144.25 Y119.909 E.90986
G1 X144.25 Y120.769 E.04349
G1 X130.666 Y107.186 E.97136
G1 X129.806 Y107.186 E.04349
M73 Q5 S83
G1 X144.25 Y121.629 E1.03285
G1 X144.25 Y122.489 E.04349
G1 X128.946 Y107.186 E1.09435
G1 X128.086 Y107.186 E.04349
