; generated by PrusaSlicer 2.8.1+linux-x64-GTK3 on 2024-09-23 at 19:38:08 UTC


;
;
; 

; external perimeters extrusion width = 0.68mm
; perimeters extrusion width = 0.68mm
; infill extrusion width = 0.68mm
; solid infill extrusion width = 0.68mm
; top infill extrusion width = 0.60mm
; first layer extrusion width = 0.65mm

M73 P0 R48
M73 Q0 S48
M201 X1000 Y1000 Z200 E5000 ; sets maximum accelerations, mm/sec^2
M203 X200 Y200 Z12 E120 ; sets maximum feedrates, mm / sec
M204 S1250 T1250 ; sets acceleration (S) and retract acceleration (R), mm/sec^2
M205 X8.00 Y8.00 Z0.40 E4.50 ; sets the jerk limits, mm/sec
M205 S0 T0 ; sets the minimum extruding and travel feed rate, mm/sec

; printing object random_extensions_gridfinity_test-Body.stl id:0 copy 0
; stop printing object random_extensions_gridfinity_test-Body.stl id:0 copy 0

;TYPE:Custom
M862.3 P "MK3S" ; printer model check
M862.1 P0.6 ; nozzle diameter check
M115 U3.13.3 ; tell printer latest fw version
G90 ; use absolute coordinates
M83 ; extruder relative mode
M104 S215 ; set extruder temp
M140 S60 ; set bed temp
M190 S60 ; wait for bed temp
M109 S215 ; wait for extruder temp
G28 W ; home all without mesh bed level
G80 X101.777 Y51.209 W46.4456 H107.582 ; mesh bed levelling

G1 Z0.2 F720
G1 Y-3 F1000 ; go outside print area
G92 E0
G1 X60 E9 F1000 ; intro line
G1 X100 E12.5 F1000 ; intro line
M73 P0 R47

G92 E0
M221 S95

; Don't change E values below. Excessive value can damage the printer.

G21 ; set units to millimeters
G90 ; use absolute coordinates
M83 ; use relative distances for extrusion

M900 K0.04 ; Filament gcode LA 1.5
M900 K18 ; Filament gcode LA 1.0




M107
;LAYER_CHANGE
;Z:0.2
;HEIGHT:0.2
G1 E-.8 F2100
G1 Z.6 F720
G1 X102.472 Y52.532 F10800
G1 Z.2 F720
G1 E.8 F2100
M204 S800
;TYPE:Skirt/Brim
;WIDTH:0.65
G1 F1200
G1 X103.513 Y51.684 E.06778
G1 X104.384 Y51.513 E.04481
G1 X145.616 Y51.513 E2.08134
G1 X146.9 Y51.904 E.06775
G1 X147.748 Y52.945 E.06778
G1 X147.919 Y53.816 E.04481
G1 X147.919 Y156.184 E5.16742
G1 X147.528 Y157.468 E.06775
G1 X146.487 Y158.316 E.06778
G1 X145.616 Y158.487 E.04481
G1 X104.384 Y158.487 E2.08134
G1 X103.1 Y158.096 E.06775
G1 X102.252 Y157.055 E.06778
G1 X102.081 Y156.184 E.04481
G1 X102.081 Y53.816 E5.16742
G1 X102.446 Y52.618 E.06322
M204 S1000
;WIPE_START
G1 F8640
G1 X102.472 Y52.532 E-.02075
G1 X103.513 Y51.684 E-.31003
G1 X104.384 Y51.513 E-.20496
G1 X105.528 Y51.513 E-.26426
;WIPE_END
G1 Z.6 F720
; printing object random_extensions_gridfinity_test-Body.stl id:0 copy 0
G1 X144.484 Y54.948 F10800
G1 Z.2 F720
G1 E.8 F2100
M204 S800
;TYPE:Perimeter
;WIDTH:0.649999
G1 F1200
G1 X144.484 Y74.432 E.98353
G1 X144.484 Y155.052 E4.0696
G1 X105.516 Y155.052 E1.96706
M73 Q0 S47
G1 X105.516 Y54.948 E5.05313
M73 P1 R47
M73 Q1 S47
G1 X144.394 Y54.948 E1.96252
M204 S1000
G1 X144.394 Y54.948 F10800
G1 X145.091 Y54.341
M204 S800
;TYPE:External perimeter
G1 F1200
G1 X145.091 Y74.432 E1.01417
G1 X145.091 Y155.659 E4.10024
G1 X104.909 Y155.659 E2.02834
G1 X104.909 Y54.341 E5.11441
G1 X145.001 Y54.341 E2.0238
M204 S1000
;WIPE_START
G1 F8640
G1 X145.091 Y54.341 E-.02078
G1 X145.091 Y57.716 E-.77922
;WIPE_END
G1 Z.6 F720
G1 X144.241 Y56.426 F10800
G1 Z.2 F720
G1 E.8 F2100
M204 S800
;TYPE:Solid infill
;WIDTH:0.653776
G1 F1200
G1 X143.279 Y55.464 E.0691
G1 X142.415 Y55.464 E.04389
G1 X143.968 Y57.017 E.11156
G1 X143.968 Y57.881 E.04389
G1 X141.551 Y55.464 E.17362
G1 X140.687 Y55.464 E.04389
G1 X143.968 Y58.745 E.23568
G1 X143.968 Y59.609 E.04389
G1 X139.823 Y55.464 E.29774
G1 X138.959 Y55.464 E.04389
G1 X143.968 Y60.472 E.35977
G1 X143.968 Y61.336 E.04389
G1 X138.096 Y55.464 E.4218
G1 X137.232 Y55.464 E.04389
G1 X143.968 Y62.2 E.48386
G1 X143.968 Y63.064 E.04389
G1 X136.368 Y55.464 E.54592
G1 X135.504 Y55.464 E.04389
G1 X143.968 Y63.928 E.60799
G1 X143.968 Y64.792 E.04389
G1 X134.64 Y55.464 E.67005
G1 X133.776 Y55.464 E.04389
G1 X143.968 Y65.656 E.73211
G1 X143.968 Y66.52 E.04389
G1 X132.912 Y55.464 E.79417
G1 X132.048 Y55.464 E.04389
G1 X143.968 Y67.383 E.8562
G1 X143.968 Y68.247 E.04389
M73 P2 R47
M73 Q2 S47
G1 X131.184 Y55.464 E.91826
G1 X130.321 Y55.464 E.04383
G1 X143.968 Y69.111 E.98029
G1 X143.968 Y69.975 E.04389
G1 X129.457 Y55.464 E1.04235
G1 X128.593 Y55.464 E.04389
M73 P2 R46
G1 X143.968 Y70.839 E1.10442
G1 X143.968 Y71.703 E.04389
G1 X127.729 Y55.464 E1.16648
G1 X126.865 Y55.464 E.04389
G1 X143.968 Y72.567 E1.22854
G1 X143.968 Y73.431 E.04389
G1 X126.001 Y55.464 E1.29061
G1 X125.137 Y55.464 E.04389
G1 X143.968 Y74.295 E1.35267
G1 X143.968 Y75.158 E.04383
G1 X124.273 Y55.464 E1.4147
G1 X123.41 Y55.464 E.04383
G1 X143.968 Y76.022 E1.47672
G1 X143.968 Y76.886 E.04389
G1 X122.546 Y55.464 E1.53878
G1 X121.682 Y55.464 E.04389
G1 X143.968 Y77.75 E1.60085
G1 X143.968 Y78.614 E.04389
G1 X120.818 Y55.464 E1.66291
G1 X119.954 Y55.464 E.04389
G1 X143.968 Y79.478 E1.72497
G1 X143.968 Y80.342 E.04389
G1 X119.09 Y55.464 E1.78704
G1 X118.226 Y55.464 E.04389
G1 X143.968 Y81.206 E1.8491
G1 X143.968 Y82.069 E.04383
G1 X117.362 Y55.464 E1.91113
G1 X116.499 Y55.464 E.04383
G1 X143.968 Y82.933 E1.97315
G1 X143.968 Y83.797 E.04389
M73 Q2 S46
G1 X115.635 Y55.464 E2.03522
G1 X114.771 Y55.464 E.04389
M73 P3 R46
M73 Q3 S46
G1 X143.968 Y84.661 E2.09728
G1 X143.968 Y85.525 E.04389
G1 X113.907 Y55.464 E2.15934
G1 X113.043 Y55.464 E.04389
G1 X143.968 Y86.389 E2.2214
G1 X143.968 Y87.253 E.04389
G1 X112.179 Y55.464 E2.28347
G1 X111.315 Y55.464 E.04389
G1 X143.968 Y88.117 E2.34553
G1 X143.968 Y88.981 E.04389
G1 X110.451 Y55.464 E2.40759
G1 X109.587 Y55.464 E.04389
G1 X143.968 Y89.844 E2.46962
G1 X143.968 Y90.708 E.04389
G1 X108.724 Y55.464 E2.53165
G1 X107.86 Y55.464 E.04389
G1 X143.968 Y91.572 E2.59371
G1 X143.968 Y92.436 E.04389
G1 X106.996 Y55.464 E2.65577
G1 X106.132 Y55.464 E.04389
G1 X143.968 Y93.3 E2.71783
G1 X143.968 Y94.164 E.04389
G1 X106.032 Y56.229 E2.72498
G1 X106.032 Y57.092 E.04383
M73 P4 R46
M73 Q4 S46
G1 X143.968 Y95.028 E2.72502
G1 X143.968 Y95.892 E.04389
G1 X106.032 Y57.956 E2.72502
G1 X106.032 Y58.82 E.04389
M73 P4 R45
G1 X143.968 Y96.755 E2.72498
G1 X143.968 Y97.619 E.04389
G1 X106.032 Y59.684 E2.72498
G1 X106.032 Y60.548 E.04389
G1 X143.968 Y98.483 E2.72498
G1 X143.968 Y99.347 E.04389
G1 X106.032 Y61.412 E2.72498
G1 X106.032 Y62.276 E.04389
G1 X143.968 Y100.211 E2.72498
G1 X143.968 Y101.075 E.04389
G1 X106.032 Y63.14 E2.72498
G1 X106.032 Y64.003 E.04383
G1 X143.968 Y101.939 E2.72502
G1 X143.968 Y102.803 E.04389
G1 X106.032 Y64.867 E2.72502
G1 X106.032 Y65.731 E.04389
G1 X143.968 Y103.666 E2.72498
G1 X143.968 Y104.53 E.04389
M73 P5 R45
M73 Q5 S45
G1 X106.032 Y66.595 E2.72498
G1 X106.032 Y67.459 E.04389
G1 X143.968 Y105.394 E2.72498
G1 X143.968 Y106.258 E.04389
G1 X106.032 Y68.323 E2.72498
G1 X106.032 Y69.187 E.04389
G1 X143.968 Y107.122 E2.72498
G1 X143.968 Y107.986 E.04389
G1 X106.032 Y70.051 E2.72498
G1 X106.032 Y70.914 E.04383
G1 X143.968 Y108.85 E2.72502
G1 X143.968 Y109.714 E.04389
G1 X106.032 Y71.778 E2.72502
G1 X106.032 Y72.642 E.04389
G1 X143.968 Y110.578 E2.72502
G1 X143.968 Y111.441 E.04383
G1 X106.032 Y73.506 E2.72498
G1 X106.032 Y74.37 E.04389
G1 X143.968 Y112.305 E2.72498
G1 X143.968 Y113.169 E.04389
M73 P6 R45
G1 X106.032 Y75.234 E2.72498
M73 Q6 S45
G1 X106.032 Y76.098 E.04389
G1 X143.968 Y114.033 E2.72498
G1 X143.968 Y114.897 E.04389
G1 X106.032 Y76.962 E2.72498
G1 X106.032 Y77.826 E.04389
M73 P6 R44
G1 X143.968 Y115.761 E2.72498
G1 X143.968 Y116.625 E.04389
G1 X106.032 Y78.689 E2.72502
G1 X106.032 Y79.553 E.04389
G1 X143.968 Y117.489 E2.72502
G1 X143.968 Y118.352 E.04383
G1 X106.032 Y80.417 E2.72498
G1 X106.032 Y81.281 E.04389
G1 X143.968 Y119.216 E2.72498
G1 X143.968 Y120.08 E.04389
G1 X106.032 Y82.145 E2.72498
G1 X106.032 Y83.009 E.04389
G1 X143.968 Y120.944 E2.72498
G1 X143.968 Y121.808 E.04389
G1 X106.032 Y83.873 E2.72498
G1 X106.032 Y84.737 E.04389
M73 P7 R44
M73 Q7 S45
G1 X143.968 Y122.672 E2.72498
G1 X143.968 Y123.536 E.04389
M73 Q7 S44
G1 X106.032 Y85.6 E2.72502
G1 X106.032 Y86.464 E.04389
G1 X143.968 Y124.4 E2.72502
G1 X143.968 Y125.264 E.04389
G1 X106.032 Y87.328 E2.72502
G1 X106.032 Y88.192 E.04389
G1 X143.968 Y126.127 E2.72498
G1 X143.968 Y126.991 E.04389
G1 X106.032 Y89.056 E2.72498
G1 X106.032 Y89.92 E.04389
G1 X143.968 Y127.855 E2.72498
G1 X143.968 Y128.719 E.04389
G1 X106.032 Y90.784 E2.72498
G1 X106.032 Y91.648 E.04389
G1 X143.968 Y129.583 E2.72498
G1 X143.968 Y130.447 E.04389
G1 X106.032 Y92.512 E2.72498
G1 X106.032 Y93.375 E.04383
M73 P8 R44
G1 X143.968 Y131.311 E2.72502
G1 X143.968 Y132.175 E.04389
M73 Q8 S44
G1 X106.032 Y94.239 E2.72502
G1 X106.032 Y95.103 E.04389
G1 X143.968 Y133.038 E2.72498
G1 X143.968 Y133.902 E.04389
G1 X106.032 Y95.967 E2.72498
G1 X106.032 Y96.831 E.04389
M73 P8 R43
G1 X143.968 Y134.766 E2.72498
G1 X143.968 Y135.63 E.04389
G1 X106.032 Y97.695 E2.72498
G1 X106.032 Y98.559 E.04389
G1 X143.968 Y136.494 E2.72498
G1 X143.968 Y137.358 E.04389
G1 X106.032 Y99.423 E2.72498
G1 X106.032 Y100.286 E.04383
G1 X143.968 Y138.222 E2.72502
G1 X143.968 Y139.086 E.04389
G1 X106.032 Y101.15 E2.72502
G1 X106.032 Y102.014 E.04389
G1 X143.968 Y139.949 E2.72498
G1 X143.968 Y140.813 E.04389
M73 P9 R43
M73 Q9 S44
G1 X106.032 Y102.878 E2.72498
G1 X106.032 Y103.742 E.04389
G1 X143.968 Y141.677 E2.72498
G1 X143.968 Y142.541 E.04389
M73 Q9 S43
G1 X106.032 Y104.606 E2.72498
G1 X106.032 Y105.47 E.04389
G1 X143.968 Y143.405 E2.72498
G1 X143.968 Y144.269 E.04389
G1 X106.032 Y106.334 E2.72498
G1 X106.032 Y107.197 E.04383
G1 X143.968 Y145.133 E2.72502
G1 X143.968 Y145.997 E.04389
G1 X106.032 Y108.061 E2.72502
G1 X106.032 Y108.925 E.04389
G1 X143.968 Y146.861 E2.72502
G1 X143.968 Y147.724 E.04383
G1 X106.032 Y109.789 E2.72498
G1 X106.032 Y110.653 E.04389
G1 X143.968 Y148.588 E2.72498
G1 X143.968 Y149.452 E.04389
M73 P10 R43
G1 X106.032 Y111.517 E2.72498
G1 X106.032 Y112.381 E.04389
M73 Q10 S43
G1 X143.968 Y150.316 E2.72498
G1 X143.968 Y151.18 E.04389
G1 X106.032 Y113.245 E2.72498
G1 X106.032 Y114.109 E.04389
G1 X143.968 Y152.044 E2.72498
G1 X143.968 Y152.908 E.04389
G1 X106.032 Y114.972 E2.72502
G1 X106.032 Y115.836 E.04389
M73 P10 R42
G1 X143.968 Y153.772 E2.72502
G1 X143.968 Y154.536 E.03881
G1 X143.868 Y154.536 E.00508
G1 X106.032 Y116.7 E2.71783
G1 X106.032 Y117.564 E.04389
G1 X143.004 Y154.536 E2.65577
G1 X142.14 Y154.536 E.04389
G1 X106.032 Y118.428 E2.59371
G1 X106.032 Y119.292 E.04389
G1 X141.276 Y154.536 E2.53165
G1 X140.412 Y154.536 E.04389
G1 X106.032 Y120.156 E2.46958
G1 X106.032 Y121.02 E.04389
M73 P11 R42
G1 X139.549 Y154.536 E2.40756
G1 X138.685 Y154.536 E.04389
M73 Q11 S43
G1 X106.032 Y121.883 E2.34553
G1 X106.032 Y122.747 E.04389
G1 X137.821 Y154.536 E2.28347
G1 X136.957 Y154.536 E.04389
M73 Q11 S42
G1 X106.032 Y123.611 E2.2214
G1 X106.032 Y124.475 E.04389
G1 X136.093 Y154.536 E2.15934
G1 X135.229 Y154.536 E.04389
G1 X106.032 Y125.339 E2.09728
G1 X106.032 Y126.203 E.04389
G1 X134.365 Y154.536 E2.03522
G1 X133.501 Y154.536 E.04389
G1 X106.032 Y127.067 E1.97315
G1 X106.032 Y127.931 E.04389
G1 X132.638 Y154.536 E1.91113
G1 X131.774 Y154.536 E.04389
G1 X106.032 Y128.795 E1.84906
G1 X106.032 Y129.658 E.04383
G1 X130.91 Y154.536 E1.78704
G1 X130.046 Y154.536 E.04389
G1 X106.032 Y130.522 E1.72497
G1 X106.032 Y131.386 E.04389
G1 X129.182 Y154.536 E1.66291
G1 X128.318 Y154.536 E.04389
G1 X106.032 Y132.25 E1.60085
G1 X106.032 Y133.114 E.04389
M73 P12 R42
G1 X127.454 Y154.536 E1.53878
G1 X126.59 Y154.536 E.04389
M73 Q12 S42
G1 X106.032 Y133.978 E1.47672
G1 X106.032 Y134.842 E.04389
G1 X125.726 Y154.536 E1.41466
G1 X124.863 Y154.536 E.04383
G1 X106.032 Y135.706 E1.35263
G1 X106.032 Y136.569 E.04383
G1 X123.999 Y154.536 E1.29061
G1 X123.135 Y154.536 E.04389
G1 X106.032 Y137.433 E1.22854
G1 X106.032 Y138.297 E.04389
G1 X122.271 Y154.536 E1.16648
G1 X121.407 Y154.536 E.04389
G1 X106.032 Y139.161 E1.10442
G1 X106.032 Y140.025 E.04389
G1 X120.543 Y154.536 E1.04235
G1 X119.679 Y154.536 E.04389
G1 X106.032 Y140.889 E.98029
G1 X106.032 Y141.753 E.04389
G1 X118.815 Y154.536 E.91823
G1 X117.952 Y154.536 E.04383
M73 P12 R41
G1 X106.032 Y142.617 E.8562
G1 X106.032 Y143.48 E.04383
G1 X117.088 Y154.536 E.79417
G1 X116.224 Y154.536 E.04389
G1 X106.032 Y144.344 E.73211
G1 X106.032 Y145.208 E.04389
G1 X115.36 Y154.536 E.67005
G1 X114.496 Y154.536 E.04389
G1 X106.032 Y146.072 E.60799
G1 X106.032 Y146.936 E.04389
G1 X113.632 Y154.536 E.54592
G1 X112.768 Y154.536 E.04389
G1 X106.032 Y147.8 E.48386
G1 X106.032 Y148.664 E.04389
G1 X111.904 Y154.536 E.4218
G1 X111.04 Y154.536 E.04389
G1 X106.032 Y149.528 E.35973
G1 X106.032 Y150.392 E.04389
G1 X110.177 Y154.536 E.29771
G1 X109.313 Y154.536 E.04389
G1 X106.032 Y151.255 E.23568
G1 X106.032 Y152.119 E.04389
G1 X108.449 Y154.536 E.17362
G1 X107.585 Y154.536 E.04389
G1 X106.032 Y152.983 E.11156
G1 X106.032 Y153.847 E.04389
G1 X106.994 Y154.809 E.0691
M204 S1000
M106 S84.15
;LAYER_CHANGE
;Z:0.6
;HEIGHT:0.4
;BEFORE_LAYER_CHANGE
G92 E0.0
;0.6


;WIPE_START
G1 F8640
G1 X106.032 Y153.847 E-.31414
G1 X106.032 Y152.983 E-.1995
G1 X106.909 Y153.86 E-.28636
;WIPE_END
G1 Z.6 F720
;AFTER_LAYER_CHANGE
;0.6
M104 S210 ; set temperature
; stop printing object random_extensions_gridfinity_test-Body.stl id:0 copy 0
G1 Z1
G1 X106.994 Y158.487 F10800
G1 Z.6 F720
G1 E.8 F2100
;TYPE:Skirt/Brim
;WIDTH:0.65
G1 F3000
G1 X104.384 Y158.487 E.24487
G1 X103.1 Y158.096 E.12593
G1 X102.252 Y157.055 E.12597
G1 X102.081 Y156.184 E.08328
G1 X102.081 Y53.816 E9.60417
G1 X102.472 Y52.532 E.12593
G1 X103.513 Y51.684 E.12597
G1 X104.384 Y51.513 E.08328
G1 X145.616 Y51.513 E3.86839
G1 X146.9 Y51.904 E.12593
G1 X147.748 Y52.945 E.12597
G1 X147.919 Y53.816 E.08328
G1 X147.919 Y156.184 E9.60417
G1 X147.528 Y157.468 E.12593
G1 X146.487 Y158.316 E.12597
G1 X145.616 Y158.487 E.08328
G1 X107.084 Y158.487 E3.61507
;WIPE_START
G1 F8640
M73 P13 R41
G1 X106.994 Y158.487 E-.02078
G1 X104.384 Y158.487 E-.60266
G1 X103.652 Y158.264 E-.17656
;WIPE_END
G1 Z1 F720
; printing object random_extensions_gridfinity_test-Body.stl id:0 copy 0
G1 X144.682 Y54.75 F10800
G1 Z.6 F720
G1 E.8 F2100
M204 S800
;TYPE:Perimeter
;WIDTH:0.68
G1 F2700
G1 X144.682 Y155.25 E9.93031
G1 X105.318 Y155.25 E3.88952
M73 Q13 S42
G1 X105.318 Y54.75 E9.93031
G1 X144.592 Y54.75 E3.88063
M204 S1000
G1 X144.592 Y54.75 F10800
G1 X145.276 Y54.156
M204 S800
;TYPE:External perimeter
G1 F2007.296
G1 X145.276 Y55.176 E.10079
G1 F2100
G1 X145.276 Y154.824 E9.84612
G1 F2006.329
M73 Q13 S41
G1 X145.276 Y155.844 E.10079
G1 F2008.762
G1 X144.256 Y155.844 E.10079
G1 F2099.997
G1 X105.744 Y155.844 E3.80533
G1 F2014.553
G1 X104.724 Y155.844 E.10079
G1 F2007.297
G1 X104.724 Y154.824 E.10079
G1 F2100
G1 X104.724 Y55.176 E9.84612
G1 F2014.552
G1 X104.724 Y54.156 E.10079
G1 F2007.296
G1 X105.744 Y54.156 E.10079
G1 F2100
G1 X144.256 Y54.156 E3.80533
G1 F2014.553
G1 X145.186 Y54.156 E.09189
M204 S1000
;WIPE_START
G1 F8640
G1 X145.276 Y54.156 E-.02078
G1 X145.276 Y55.176 E-.23552
G1 X145.276 Y57.531 E-.5437
;WIPE_END
G1 Z1 F720
G1 X105.985 Y55.304 F10800
G1 Z.6 F720
G1 E.8 F2100
;TYPE:Solid infill
;WIDTH:0.824161
G1 F3047.459
G1 X105.919 Y55.238 E.01146
G1 X105.83 Y55.262 E.01132
G1 X105.806 Y55.351 E.01132
G1 X105.872 Y55.417 E.01146
G1 X105.961 Y55.393 E.01132
;WIDTH:0.68
G1 F3786.865
G1 X106.91 Y55.255 E.09476
G1 X105.727 Y56.447 E.16594
;WIDTH:0.63792
G1 F4075.5
G1 X105.631 Y56.553 E.01313
;WIDTH:0.595841
G1 F4200
G1 X105.586 Y56.508 E.0054
G1 X105.525 Y56.525 E.00537
G1 X105.508 Y56.586 E.00537
G1 X105.553 Y56.631 E.0054
G1 X105.615 Y56.615 E.00543
;WIDTH:0.68
G1 F3786.865
G1 X105.823 Y57.182 E.05968
G1 X107.75 Y55.255 E.26927
G1 X108.59 Y55.255 E.083
G1 X105.823 Y58.022 E.38665
G1 X105.823 Y58.863 E.0831
G1 X109.431 Y55.255 E.50417
G1 X110.271 Y55.255 E.083
G1 X105.823 Y59.703 E.62155
G1 X105.823 Y60.543 E.083
G1 X111.111 Y55.255 E.73893
G1 X111.951 Y55.255 E.083
G1 X105.823 Y61.383 E.85631
G1 X105.823 Y62.224 E.0831
G1 X112.792 Y55.255 E.97383
G1 X113.632 Y55.255 E.083
G1 X105.823 Y63.064 E1.09121
G1 X105.823 Y63.904 E.083
G1 X114.472 Y55.255 E1.20859
G1 X115.313 Y55.255 E.0831
G1 X105.823 Y64.744 E1.32604
G1 X105.823 Y65.585 E.0831
G1 X116.153 Y55.255 E1.44348
