; generated by PrusaSlicer 2.6.0+linux-x64-GTK3 on 2023-08-09 at 15:47:17 UTC


;
;
; 

; external perimeters extrusion width = 0.45mm
; perimeters extrusion width = 0.45mm
; infill extrusion width = 0.45mm
; solid infill extrusion width = 0.45mm
; top infill extrusion width = 0.40mm
; first layer extrusion width = 0.42mm

M73 P0 R88
M73 C67
M73 Q0 S88
M73 D67
M201 X1000 Y1000 Z200 E5000 ; sets maximum accelerations, mm/sec^2
M203 X200 Y200 Z12 E120 ; sets maximum feedrates, mm / sec
M204 S1250 T1250 ; sets acceleration (S) and retract acceleration (R), mm/sec^2
M205 X8.00 Y8.00 Z0.40 E4.50 ; sets the jerk limits, mm/sec
M205 S0 T0 ; sets the minimum extruding and travel feed rate, mm/sec
;TYPE:Custom
M862.3 P "MK3S" ; printer model check
M862.1 P0.4 ; nozzle diameter check
M115 U3.12.2 ; tell printer latest fw version
G90 ; use absolute coordinates
M83 ; extruder relative mode
M104 S215 ; set extruder temp
M140 S60 ; set bed temp
M190 S60 ; wait for bed temp
M109 S215 ; wait for extruder temp
G28 W ; home all without mesh bed level
G80 ; mesh bed leveling

G1 Z0.2 F720
G1 Y-3 F1000 ; go outside print area
G92 E0
G1 X60 E9 F1000 ; intro line
G1 X100 E12.5 F1000 ; intro line

G92 E0
M221 S95

; Don't change E values below. Excessive value can damage the printer.
M907 E430 ; set extruder motor current
G21 ; set units to millimeters
G90 ; use absolute coordinates
M83 ; use relative distances for extrusion
M900 K0.05 ; Filament gcode LA 1.5
M900 K30 ; Filament gcode LA 1.0
M107
;LAYER_CHANGE
;Z:0.2
;HEIGHT:0.2
;BEFORE_LAYER_CHANGE
G92 E0.0
;0.2


G1 E-.8 F2100
G1 Z.4 F720
;AFTER_LAYER_CHANGE
;0.2
G1 X36.83 Y43.946 F10800
G1 Z.2 F720
G1 E.8 F2100
M204 S800
;TYPE:Skirt/Brim
;WIDTH:0.42
G1 F1200
G1 X37.294 Y43.557 E.01898
G1 X38.234 Y43.363 E.03009
G1 X200.234 Y43.363 E5.0794
G1 X201.541 Y43.755 E.04278
G1 X202.418 Y44.801 E.0428
G1 X202.611 Y45.741 E.03009
G1 X202.611 Y77.241 E.98766
G1 X202.22 Y78.548 E.04277
G1 X201.174 Y79.424 E.04278
G1 X200.234 Y79.618 E.03009
G1 X38.234 Y79.618 E5.0794
G1 X36.927 Y79.226 E.04278
M73 P0 R87
G1 X36.051 Y78.18 E.04278
G1 X35.857 Y77.241 E.03006
G1 X35.857 Y45.741 E.98766
G1 X36.249 Y44.433 E.04281
G1 X36.784 Y43.985 E.02188
M204 S1000
; printing object LI.stl id:0 copy 0
;WIPE_START
G1 F8640
G1 X37.294 Y43.557 E-.15373
G1 X38.234 Y43.363 E-.22162
G1 X40.073 Y43.363 E-.42465
;WIPE_END
G1 Z.6 F720
G1 X199.07 Y76.076 F10800
G1 Z.2 F720
G1 E.8 F2100
M204 S800
;TYPE:Perimeter
;WIDTH:0.419999
G1 F1200
G1 X39.398 Y76.076 E5.0064
G1 X39.398 Y46.905 E.91463
M73 C66
G1 X199.07 Y46.905 E5.0064
G1 X199.07 Y76.016 E.91275
M204 S1000
G1 X199.447 Y76.453 F10800
M204 S800
M73 D66
G1 F1200
G1 X39.021 Y76.453 E5.03004
G1 X39.021 Y46.528 E.93828
M73 P1 R87
M73 Q1 S87
G1 X199.447 Y46.528 E5.03004
G1 X199.447 Y76.393 E.93639
M204 S1000
G1 X199.824 Y76.831 F10800
M204 S800
;TYPE:External perimeter
G1 F1200
G1 X38.644 Y76.831 E5.05368
G1 X38.644 Y46.151 E.96195
G1 X199.824 Y46.151 E5.05368
G1 X199.824 Y76.771 E.96007
M204 S1000
M73 P1 R86
G1 X199.425 Y76.805 F10800
;WIPE_START
G1 F8640
G1 X196.359 Y76.772 E-.8
;WIPE_END
G1 Z.6 F720
G1 X198.9 Y47.839 F10800
G1 Z.2 F720
G1 E.8 F2100
M204 S800
;TYPE:Solid infill
;WIDTH:0.421061
G1 F1200
G1 X198.305 Y47.244 E.02646
G1 X197.771 Y47.244 E.01679
G1 X198.731 Y48.204 E.04269
G1 X198.731 Y48.739 E.01682
G1 X197.236 Y47.244 E.06648
G1 X196.701 Y47.244 E.01682
G1 X198.731 Y49.274 E.09027
G1 X198.731 Y49.808 E.01679
G1 X196.166 Y47.244 E.11403
G1 X195.632 Y47.244 E.01679
G1 X198.731 Y50.343 E.1378
G1 X198.731 Y50.878 E.01682
G1 X195.097 Y47.244 E.16159
G1 X194.562 Y47.244 E.01682
G1 X198.731 Y51.413 E.18538
G1 X198.731 Y51.947 E.01679
G1 X194.027 Y47.244 E.20915
G1 X193.492 Y47.244 E.01682
G1 X198.731 Y52.482 E.23294
G1 X198.731 Y53.017 E.01682
G1 X192.958 Y47.244 E.25671
G1 X192.423 Y47.244 E.01682
G1 X198.731 Y53.552 E.28049
G1 X198.731 Y54.086 E.01679
G1 X191.888 Y47.244 E.30426
G1 X191.353 Y47.244 E.01682
M73 C65
G1 X198.731 Y54.621 E.32805
G1 X198.731 Y55.156 E.01682
G1 X190.819 Y47.244 E.35182
G1 X190.284 Y47.244 E.01682
G1 X198.731 Y55.691 E.37561
G1 X198.731 Y56.226 E.01682
G1 X189.749 Y47.244 E.3994
G1 X189.214 Y47.244 E.01682
G1 X198.731 Y56.76 E.42317
G1 X198.731 Y57.295 E.01682
G1 X188.68 Y47.244 E.44693
G1 X188.145 Y47.244 E.01682
G1 X198.731 Y57.83 E.47072
G1 X198.731 Y58.365 E.01682
G1 X187.61 Y47.244 E.49451
G1 X187.075 Y47.244 E.01682
G1 X198.731 Y58.899 E.51828
G1 X198.731 Y59.434 E.01682
G1 X186.54 Y47.244 E.54207
G1 X186.006 Y47.244 E.01679
G1 X198.731 Y59.969 E.56584
G1 X198.731 Y60.504 E.01682
G1 X185.471 Y47.244 E.58963
G1 X184.936 Y47.244 E.01682
G1 X198.731 Y61.039 E.61342
G1 X198.731 Y61.573 E.01679
G1 X184.401 Y47.244 E.63718
G1 X183.867 Y47.244 E.01679
G1 X198.731 Y62.108 E.66095
G1 X198.731 Y62.643 E.01682
G1 X183.332 Y47.244 E.68474
G1 X182.797 Y47.244 E.01682
G1 X198.731 Y63.178 E.70853
G1 X198.731 Y63.712 E.01679
G1 X182.262 Y47.244 E.7323
G1 X181.727 Y47.244 E.01682
M73 P2 R86
M73 Q2 S87
G1 X198.731 Y64.247 E.75609
G1 X198.731 Y64.782 E.01682
M73 D65
G1 X181.193 Y47.244 E.77985
G1 X180.658 Y47.244 E.01682
G1 X198.731 Y65.317 E.80364
G1 X198.731 Y65.851 E.01679
G1 X180.123 Y47.244 E.82741
G1 X179.588 Y47.244 E.01682
M73 Q2 S86
G1 X198.731 Y66.386 E.8512
G1 X198.731 Y66.921 E.01682
G1 X179.054 Y47.244 E.87497
G1 X178.519 Y47.244 E.01682
G1 X198.731 Y67.456 E.89876
G1 X198.731 Y67.991 E.01682
G1 X177.984 Y47.244 E.92255
G1 X177.449 Y47.244 E.01682
G1 X198.731 Y68.525 E.94631
G1 X198.731 Y69.06 E.01682
G1 X176.915 Y47.244 E.97008
G1 X176.38 Y47.244 E.01682
G1 X198.731 Y69.595 E.99387
G1 X198.731 Y70.13 E.01682
G1 X175.845 Y47.244 E1.01766
G1 X175.31 Y47.244 E.01682
G1 X198.731 Y70.664 E1.04143
G1 X198.731 Y71.199 E.01682
G1 X174.775 Y47.244 E1.06522
G1 X174.241 Y47.244 E.01679
G1 X198.731 Y71.734 E1.08898
G1 X198.731 Y72.269 E.01682
G1 X173.706 Y47.244 E1.11277
G1 X173.171 Y47.244 E.01682
G1 X198.731 Y72.803 E1.13654
G1 X198.731 Y73.338 E.01682
G1 X172.636 Y47.244 E1.16033
G1 X172.102 Y47.244 E.01679
G1 X198.731 Y73.873 E1.1841
G1 X198.731 Y74.408 E.01682
G1 X171.567 Y47.244 E1.20789
G1 X171.032 Y47.244 E.01682
G1 X198.731 Y74.943 E1.23168
G1 X198.731 Y75.477 E.01679
G1 X170.497 Y47.244 E1.25544
G1 X169.962 Y47.244 E.01682
G1 X198.455 Y75.737 E1.26698
G1 X197.921 Y75.737 E.01679
M73 P2 R85
G1 X169.428 Y47.244 E1.26698
G1 X168.893 Y47.244 E.01682
G1 X197.386 Y75.737 E1.26698
G1 X196.851 Y75.737 E.01682
G1 X168.358 Y47.244 E1.26698
G1 X167.823 Y47.244 E.01682
M73 C64
G1 X196.316 Y75.737 E1.26698
G1 X195.782 Y75.737 E.01679
G1 X167.289 Y47.244 E1.26698
G1 X166.754 Y47.244 E.01682
G1 X195.247 Y75.737 E1.26698
G1 X194.712 Y75.737 E.01682
G1 X166.219 Y47.244 E1.26698
G1 X165.684 Y47.244 E.01682
G1 X194.177 Y75.737 E1.26698
G1 X193.642 Y75.737 E.01682
M73 P3 R85
M73 Q3 S86
G1 X165.15 Y47.244 E1.26696
G1 X164.615 Y47.244 E.01682
G1 X193.108 Y75.737 E1.26698
G1 X192.573 Y75.737 E.01682
G1 X164.08 Y47.244 E1.26698
G1 X163.545 Y47.244 E.01682
M73 D64
G1 X192.038 Y75.737 E1.26698
G1 X191.503 Y75.737 E.01682
G1 X163.01 Y47.244 E1.26698
G1 X162.476 Y47.244 E.01679
G1 X190.969 Y75.737 E1.26698
G1 X190.434 Y75.737 E.01682
M73 Q3 S85
G1 X161.941 Y47.244 E1.26698
G1 X161.406 Y47.244 E.01682
G1 X189.899 Y75.737 E1.26698
G1 X189.364 Y75.737 E.01682
G1 X160.871 Y47.244 E1.26698
G1 X160.337 Y47.244 E.01679
G1 X188.83 Y75.737 E1.26698
G1 X188.295 Y75.737 E.01682
G1 X159.802 Y47.244 E1.26698
G1 X159.267 Y47.244 E.01682
G1 X187.76 Y75.737 E1.26698
G1 X187.225 Y75.737 E.01682
G1 X158.732 Y47.244 E1.26698
G1 X158.198 Y47.244 E.01679
G1 X186.69 Y75.737 E1.26696
G1 X186.156 Y75.737 E.01679
G1 X157.663 Y47.244 E1.26698
G1 X157.128 Y47.244 E.01682
G1 X185.621 Y75.737 E1.26698
G1 X185.086 Y75.737 E.01682
G1 X156.593 Y47.244 E1.26698
G1 X156.058 Y47.244 E.01682
G1 X184.551 Y75.737 E1.26698
G1 X184.017 Y75.737 E.01679
G1 X155.524 Y47.244 E1.26698
G1 X154.989 Y47.244 E.01682
G1 X183.482 Y75.737 E1.26698
G1 X182.947 Y75.737 E.01682
G1 X154.454 Y47.244 E1.26698
G1 X153.919 Y47.244 E.01682
M73 P3 R84
G1 X182.412 Y75.737 E1.26698
G1 X181.878 Y75.737 E.01679
G1 X153.385 Y47.244 E1.26698
G1 X152.85 Y47.244 E.01682
G1 X181.343 Y75.737 E1.26698
G1 X180.808 Y75.737 E.01682
G1 X152.315 Y47.244 E1.26698
G1 X151.78 Y47.244 E.01682
M73 C63
G1 X180.273 Y75.737 E1.26698
M73 P4 R84
G1 X179.738 Y75.737 E.01682
M73 Q4 S85
G1 X151.245 Y47.244 E1.26698
G1 X150.711 Y47.244 E.01679
G1 X179.204 Y75.737 E1.26698
G1 X178.669 Y75.737 E.01682
G1 X150.176 Y47.244 E1.26698
G1 X149.641 Y47.244 E.01682
G1 X178.134 Y75.737 E1.26698
G1 X177.599 Y75.737 E.01682
G1 X149.106 Y47.244 E1.26698
G1 X148.572 Y47.244 E.01679
G1 X177.065 Y75.737 E1.26698
G1 X176.53 Y75.737 E.01682
M73 D63
G1 X148.037 Y47.244 E1.26698
G1 X147.502 Y47.244 E.01682
G1 X175.995 Y75.737 E1.26698
G1 X175.46 Y75.737 E.01682
G1 X146.967 Y47.244 E1.26698
G1 X146.433 Y47.244 E.01679
M73 Q4 S84
G1 X174.925 Y75.737 E1.26696
G1 X174.391 Y75.737 E.01679
G1 X145.898 Y47.244 E1.26698
G1 X145.363 Y47.244 E.01682
G1 X173.856 Y75.737 E1.26698
G1 X173.321 Y75.737 E.01682
G1 X144.828 Y47.244 E1.26698
G1 X144.293 Y47.244 E.01682
G1 X172.786 Y75.737 E1.26698
G1 X172.252 Y75.737 E.01679
G1 X143.759 Y47.244 E1.26698
G1 X143.224 Y47.244 E.01682
G1 X171.717 Y75.737 E1.26698
G1 X171.182 Y75.737 E.01682
G1 X142.689 Y47.244 E1.26698
G1 X142.154 Y47.244 E.01682
G1 X170.647 Y75.737 E1.26698
G1 X170.113 Y75.737 E.01679
G1 X141.62 Y47.244 E1.26698
G1 X141.085 Y47.244 E.01682
G1 X169.578 Y75.737 E1.26698
G1 X169.043 Y75.737 E.01682
G1 X140.55 Y47.244 E1.26698
G1 X140.015 Y47.244 E.01682
G1 X168.508 Y75.737 E1.26698
G1 X167.973 Y75.737 E.01682
G1 X139.48 Y47.244 E1.26698
G1 X138.946 Y47.244 E.01679
G1 X167.439 Y75.737 E1.26698
G1 X166.904 Y75.737 E.01682
M73 P4 R83
G1 X138.411 Y47.244 E1.26698
G1 X137.876 Y47.244 E.01682
M73 P5 R83
G1 X166.369 Y75.737 E1.26698
G1 X165.834 Y75.737 E.01682
M73 Q5 S84
G1 X137.341 Y47.244 E1.26698
G1 X136.807 Y47.244 E.01679
G1 X165.3 Y75.737 E1.26698
G1 X164.765 Y75.737 E.01682
M73 C62
G1 X136.272 Y47.244 E1.26698
G1 X135.737 Y47.244 E.01682
G1 X164.23 Y75.737 E1.26698
G1 X163.695 Y75.737 E.01682
G1 X135.202 Y47.244 E1.26698
G1 X134.668 Y47.244 E.01679
G1 X163.16 Y75.737 E1.26696
G1 X162.626 Y75.737 E.01679
G1 X134.133 Y47.244 E1.26698
G1 X133.598 Y47.244 E.01682
G1 X162.091 Y75.737 E1.26698
G1 X161.556 Y75.737 E.01682
G1 X133.063 Y47.244 E1.26698
G1 X132.528 Y47.244 E.01682
G1 X161.021 Y75.737 E1.26698
G1 X160.487 Y75.737 E.01679
M73 D62
G1 X131.994 Y47.244 E1.26698
G1 X131.459 Y47.244 E.01682
G1 X159.952 Y75.737 E1.26698
G1 X159.417 Y75.737 E.01682
M73 Q5 S83
G1 X130.924 Y47.244 E1.26698
G1 X130.389 Y47.244 E.01682
G1 X158.882 Y75.737 E1.26698
G1 X158.348 Y75.737 E.01679
G1 X129.855 Y47.244 E1.26698
G1 X129.32 Y47.244 E.01682
G1 X157.813 Y75.737 E1.26698
G1 X157.278 Y75.737 E.01682
G1 X128.785 Y47.244 E1.26698
G1 X128.25 Y47.244 E.01682
G1 X156.743 Y75.737 E1.26698
G1 X156.208 Y75.737 E.01682
G1 X127.715 Y47.244 E1.26698
G1 X127.181 Y47.244 E.01679
G1 X155.674 Y75.737 E1.26698
G1 X155.139 Y75.737 E.01682
G1 X126.646 Y47.244 E1.26698
G1 X126.111 Y47.244 E.01682
G1 X154.604 Y75.737 E1.26698
G1 X154.069 Y75.737 E.01682
G1 X125.576 Y47.244 E1.26698
G1 X125.042 Y47.244 E.01679
G1 X153.535 Y75.737 E1.26698
G1 X153 Y75.737 E.01682
G1 X124.507 Y47.244 E1.26698
G1 X123.972 Y47.244 E.01682
M73 P6 R83
G1 X152.465 Y75.737 E1.26698
G1 X151.93 Y75.737 E.01682
M73 Q6 S83
G1 X123.437 Y47.244 E1.26698
G1 X122.903 Y47.244 E.01679
G1 X151.395 Y75.737 E1.26696
G1 X150.861 Y75.737 E.01679
M73 P6 R82
G1 X122.368 Y47.244 E1.26698
G1 X121.833 Y47.244 E.01682
G1 X150.326 Y75.737 E1.26698
G1 X149.791 Y75.737 E.01682
G1 X121.298 Y47.244 E1.26698
G1 X120.763 Y47.244 E.01682
M73 C61
G1 X149.256 Y75.737 E1.26698
G1 X148.722 Y75.737 E.01679
G1 X120.229 Y47.244 E1.26698
G1 X119.694 Y47.244 E.01682
G1 X148.187 Y75.737 E1.26698
G1 X147.652 Y75.737 E.01682
G1 X119.159 Y47.244 E1.26698
G1 X118.624 Y47.244 E.01682
G1 X147.117 Y75.737 E1.26698
G1 X146.583 Y75.737 E.01679
G1 X118.09 Y47.244 E1.26698
G1 X117.555 Y47.244 E.01682
G1 X146.048 Y75.737 E1.26698
G1 X145.513 Y75.737 E.01682
G1 X117.02 Y47.244 E1.26698
G1 X116.485 Y47.244 E.01682
M73 D61
G1 X144.978 Y75.737 E1.26698
G1 X144.443 Y75.737 E.01682
G1 X115.951 Y47.244 E1.26696
G1 X115.416 Y47.244 E.01682
M73 Q6 S82
G1 X143.909 Y75.737 E1.26698
G1 X143.374 Y75.737 E.01682
G1 X114.881 Y47.244 E1.26698
G1 X114.346 Y47.244 E.01682
G1 X142.839 Y75.737 E1.26698
G1 X142.304 Y75.737 E.01682
G1 X113.811 Y47.244 E1.26698
G1 X113.277 Y47.244 E.01679
G1 X141.77 Y75.737 E1.26698
G1 X141.235 Y75.737 E.01682
G1 X112.742 Y47.244 E1.26698
G1 X112.207 Y47.244 E.01682
G1 X140.7 Y75.737 E1.26698
G1 X140.165 Y75.737 E.01682
G1 X111.672 Y47.244 E1.26698
G1 X111.138 Y47.244 E.01679
G1 X139.631 Y75.737 E1.26698
G1 X139.096 Y75.737 E.01682
G1 X110.603 Y47.244 E1.26698
G1 X110.068 Y47.244 E.01682
M73 P7 R82
M73 Q7 S82
G1 X138.561 Y75.737 E1.26698
G1 X138.026 Y75.737 E.01682
G1 X109.533 Y47.244 E1.26698
G1 X108.998 Y47.244 E.01682
G1 X137.491 Y75.737 E1.26698
G1 X136.957 Y75.737 E.01679
G1 X108.464 Y47.244 E1.26698
G1 X107.929 Y47.244 E.01682
G1 X136.422 Y75.737 E1.26698
G1 X135.887 Y75.737 E.01682
G1 X107.394 Y47.244 E1.26698
G1 X106.859 Y47.244 E.01682
M73 P7 R81
G1 X135.352 Y75.737 E1.26698
G1 X134.818 Y75.737 E.01679
G1 X106.325 Y47.244 E1.26698
G1 X105.79 Y47.244 E.01682
G1 X134.283 Y75.737 E1.26698
G1 X133.748 Y75.737 E.01682
M73 C60
G1 X105.255 Y47.244 E1.26698
G1 X104.72 Y47.244 E.01682
G1 X133.213 Y75.737 E1.26698
G1 X132.678 Y75.737 E.01682
G1 X104.186 Y47.244 E1.26696
G1 X103.651 Y47.244 E.01682
G1 X132.144 Y75.737 E1.26698
G1 X131.609 Y75.737 E.01682
G1 X103.116 Y47.244 E1.26698
G1 X102.581 Y47.244 E.01682
G1 X131.074 Y75.737 E1.26698
G1 X130.539 Y75.737 E.01682
G1 X102.046 Y47.244 E1.26698
G1 X101.512 Y47.244 E.01679
G1 X130.005 Y75.737 E1.26698
G1 X129.47 Y75.737 E.01682
M73 D60
G1 X100.977 Y47.244 E1.26698
G1 X100.442 Y47.244 E.01682
G1 X128.935 Y75.737 E1.26698
G1 X128.4 Y75.737 E.01682
M73 Q7 S81
G1 X99.907 Y47.244 E1.26698
G1 X99.373 Y47.244 E.01679
G1 X127.866 Y75.737 E1.26698
G1 X127.331 Y75.737 E.01682
G1 X98.838 Y47.244 E1.26698
G1 X98.303 Y47.244 E.01682
G1 X126.796 Y75.737 E1.26698
G1 X126.261 Y75.737 E.01682
G1 X97.768 Y47.244 E1.26698
G1 X97.233 Y47.244 E.01682
G1 X125.726 Y75.737 E1.26698
G1 X125.192 Y75.737 E.01679
G1 X96.699 Y47.244 E1.26698
G1 X96.164 Y47.244 E.01682
M73 P8 R81
M73 Q8 S81
G1 X124.657 Y75.737 E1.26698
G1 X124.122 Y75.737 E.01682
G1 X95.629 Y47.244 E1.26698
G1 X95.094 Y47.244 E.01682
G1 X123.587 Y75.737 E1.26698
G1 X123.053 Y75.737 E.01679
G1 X94.56 Y47.244 E1.26698
G1 X94.025 Y47.244 E.01682
G1 X122.518 Y75.737 E1.26698
G1 X121.983 Y75.737 E.01682
G1 X93.49 Y47.244 E1.26698
G1 X92.955 Y47.244 E.01682
G1 X121.448 Y75.737 E1.26698
G1 X120.913 Y75.737 E.01682
G1 X92.421 Y47.244 E1.26696
G1 X91.886 Y47.244 E.01682
G1 X120.379 Y75.737 E1.26698
G1 X119.844 Y75.737 E.01682
M73 P8 R80
G1 X91.351 Y47.244 E1.26698
G1 X90.816 Y47.244 E.01682
G1 X119.309 Y75.737 E1.26698
G1 X118.774 Y75.737 E.01682
G1 X90.281 Y47.244 E1.26698
G1 X89.747 Y47.244 E.01679
M73 C59
G1 X118.24 Y75.737 E1.26698
G1 X117.705 Y75.737 E.01682
G1 X89.212 Y47.244 E1.26698
G1 X88.677 Y47.244 E.01682
G1 X117.17 Y75.737 E1.26698
G1 X116.635 Y75.737 E.01682
G1 X88.142 Y47.244 E1.26698
G1 X87.608 Y47.244 E.01679
G1 X116.101 Y75.737 E1.26698
G1 X115.566 Y75.737 E.01682
G1 X87.073 Y47.244 E1.26698
G1 X86.538 Y47.244 E.01682
G1 X115.031 Y75.737 E1.26698
G1 X114.496 Y75.737 E.01682
G1 X86.003 Y47.244 E1.26698
G1 X85.468 Y47.244 E.01682
M73 D59
G1 X113.961 Y75.737 E1.26698
G1 X113.427 Y75.737 E.01679
G1 X84.934 Y47.244 E1.26698
G1 X84.399 Y47.244 E.01682
G1 X112.892 Y75.737 E1.26698
G1 X112.357 Y75.737 E.01682
M73 Q8 S80
G1 X83.864 Y47.244 E1.26698
G1 X83.329 Y47.244 E.01682
G1 X111.822 Y75.737 E1.26698
G1 X111.288 Y75.737 E.01679
G1 X82.795 Y47.244 E1.26698
M73 P9 R80
G1 X82.26 Y47.244 E.01682
M73 Q9 S80
G1 X110.753 Y75.737 E1.26698
G1 X110.218 Y75.737 E.01682
G1 X81.725 Y47.244 E1.26698
G1 X81.19 Y47.244 E.01682
