; generated by PrusaSlicer 2.6.0+linux-x64-GTK3 on 2023-08-30 at 23:21:51 UTC


;
;
; 

; external perimeters extrusion width = 0.45mm
; perimeters extrusion width = 0.45mm
; infill extrusion width = 0.45mm
; solid infill extrusion width = 0.45mm
; top infill extrusion width = 0.40mm
; support material extrusion width = 0.35mm
; first layer extrusion width = 0.42mm

M73 P0 R62
M73 Q0 S63
M201 X1000 Y1000 Z200 E5000 ; sets maximum accelerations, mm/sec^2
M203 X200 Y200 Z12 E120 ; sets maximum feedrates, mm / sec
M204 S1250 T1250 ; sets acceleration (S) and retract acceleration (R), mm/sec^2
M205 X8.00 Y8.00 Z0.40 E4.50 ; sets the jerk limits, mm/sec
M205 S0 T0 ; sets the minimum extruding and travel feed rate, mm/sec
;TYPE:Custom
M862.3 P "MK3S" ; printer model check
M862.1 P0.4 ; nozzle diameter check
M115 U3.13.0 ; tell printer latest fw version
G90 ; use absolute coordinates
M83 ; extruder relative mode
M104 S215 ; set extruder temp
M140 S60 ; set bed temp
M190 S60 ; wait for bed temp
M109 S215 ; wait for extruder temp
G28 W ; home all without mesh bed level
G80 ; mesh bed leveling

G1 Z0.2 F720
G1 Y-3 F1000 ; go outside print area
G92 E0
G1 X60 E9 F1000 ; intro line
G1 X100 E12.5 F1000 ; intro line

G92 E0
M221 S95

; Don't change E values below. Excessive value can damage the printer.
M907 E430 ; set extruder motor current
G21 ; set units to millimeters
G90 ; use absolute coordinates
M83 ; use relative distances for extrusion
M900 K0.05 ; Filament gcode LA 1.5
M900 K30 ; Filament gcode LA 1.0
M107
;LAYER_CHANGE
;Z:0.2
;HEIGHT:0.2
;BEFORE_LAYER_CHANGE
G92 E0.0
;0.2


G1 E-.8 F2100
G1 Z.4 F720
;AFTER_LAYER_CHANGE
;0.2
G1 X111.583 Y94.334 F10800
G1 Z.2 F720
G1 E.8 F2100
M204 S800
;TYPE:Skirt/Brim
;WIDTH:0.42
G1 F1200
G1 X113.606 Y92.162 E.09307
G1 X115.737 Y90.282 E.0891
G1 X118.144 Y88.544 E.09309
G1 X120.711 Y87.054 E.09306
G1 X123.414 Y85.827 E.09307
G1 X126.226 Y84.876 E.09307
G1 X129.119 Y84.209 E.09309
G1 X132.064 Y83.834 E.09308
G1 X135.031 Y83.753 E.09306
G1 X137.992 Y83.969 E.09309
G1 X140.916 Y84.478 E.09306
G1 X143.776 Y85.276 E.0931
G1 X146.541 Y86.355 E.09306
G1 X149.186 Y87.703 E.09308
G1 X151.683 Y89.309 E.09309
G1 X154.008 Y91.154 E.09306
G1 X156.096 Y93.18 E.09122
G1 X158.05 Y95.493 E.09494
G1 X159.696 Y97.891 E.0912
M73 Q0 S62
G1 X161.127 Y100.493 E.09311
G1 X161.996 Y102.472 E.06777
G1 X162.825 Y104.807 E.07769
G1 X163.552 Y107.685 E.09307
G1 X163.988 Y110.621 E.09307
G1 X164.129 Y113.646 E.09495
G1 X163.975 Y116.551 E.09121
G1 X163.526 Y119.485 E.09306
G1 X162.788 Y122.36 E.09307
G1 X161.766 Y125.148 E.0931
G1 X160.473 Y127.82 E.09307
G1 X158.919 Y130.349 E.09307
G1 X157.122 Y132.712 E.09308
G1 X155.098 Y134.883 E.09306
G1 X152.968 Y136.764 E.0891
G1 X150.561 Y138.502 E.09309
G1 X147.994 Y139.991 E.09305
G1 X145.29 Y141.218 E.0931
G1 X142.478 Y142.17 E.09308
G1 X139.586 Y142.836 E.09305
G1 X136.641 Y143.212 E.09309
G1 X133.674 Y143.292 E.09306
G1 X130.713 Y143.077 E.09308
G1 X127.788 Y142.567 E.09309
G1 X124.929 Y141.769 E.09307
G1 X122.163 Y140.691 E.09308
G1 X119.519 Y139.342 E.09307
G1 X117.022 Y137.737 E.09307
G1 X114.697 Y135.891 E.09308
G1 X112.608 Y133.866 E.09122
G1 X110.691 Y131.6 E.09306
G1 X109.681 Y130.195 E.05425
G1 X108.171 Y127.708 E.09123
G1 X106.867 Y124.976 E.09492
G1 X105.88 Y122.239 E.09123
G1 X105.153 Y119.361 E.09307
G1 X104.717 Y116.424 E.0931
G1 X104.576 Y113.4 E.09492
G1 X104.73 Y110.495 E.09121
G1 X105.178 Y107.56 E.09309
G1 X105.917 Y104.685 E.09307
G1 X106.938 Y101.898 E.09306
G1 X108.232 Y99.226 E.09309
G1 X109.785 Y96.696 E.09308
G1 X111.546 Y94.381 E.0912
M204 S1000
;WIPE_START
G1 F8640
G1 X113.606 Y92.162 E-.69913
G1 X113.934 Y91.873 E-.10087
;WIPE_END
G1 Z.6 F720
G1 X113.547 Y96.138 F10800
G1 Z.2 F720
G1 E.8 F2100
M204 S800
G1 F1200
G1 X114.431 Y95.131 E.04201
G1 X115.372 Y94.161 E.04237
G1 X116.361 Y93.239 E.04239
G1 X117.394 Y92.367 E.04239
G1 X118.47 Y91.548 E.0424
G1 X119.585 Y90.784 E.04238
G1 X120.737 Y90.076 E.0424
G1 X121.923 Y89.426 E.0424
G1 X123.139 Y88.837 E.04236
G1 X124.384 Y88.308 E.04241
G1 X125.653 Y87.843 E.04238
G1 X126.943 Y87.441 E.04237
G1 X128.387 Y87.074 E.04672
G1 X129.71 Y86.81 E.0423
G1 X131.025 Y86.614 E.04169
G1 X132.353 Y86.483 E.04184
G1 X133.681 Y86.418 E.04169
G1 X135.015 Y86.417 E.04183
G1 X136.362 Y86.484 E.04229
G1 X137.707 Y86.618 E.04238
G1 X139.044 Y86.818 E.04239
G1 X140.369 Y87.085 E.04238
G1 X141.679 Y87.418 E.04238
G1 X142.971 Y87.816 E.04239
G1 X144.242 Y88.277 E.04239
G1 X145.48 Y88.798 E.04211
G1 X146.698 Y89.383 E.04237
G1 X147.885 Y90.028 E.04236
G1 X149.04 Y90.732 E.04241
G1 X150.157 Y91.492 E.04236
G1 X151.23 Y92.303 E.04217
G1 X152.265 Y93.169 E.04231
G1 X153.257 Y94.087 E.04238
G1 X154.203 Y95.054 E.04242
G1 X155.098 Y96.066 E.04236
G1 X155.937 Y97.114 E.04209
G1 X156.728 Y98.21 E.04238
G1 X157.463 Y99.344 E.04237
G1 X158.141 Y100.514 E.0424
G1 X158.76 Y101.715 E.04236
G1 X159.315 Y102.94 E.04217
G1 X159.814 Y104.204 E.04261
G1 X160.244 Y105.476 E.0421
G1 X160.613 Y106.776 E.04237
G1 X160.917 Y108.094 E.04241
G1 X161.154 Y109.424 E.04236
G1 X161.324 Y110.756 E.0421
G1 X161.429 Y112.103 E.04236
G1 X161.466 Y113.455 E.04241
G1 X161.435 Y114.806 E.04237
G1 X161.337 Y116.157 E.04247
G1 X161.173 Y117.497 E.04233
G1 X160.942 Y118.829 E.04239
G1 X160.644 Y120.147 E.04237
G1 X160.281 Y121.45 E.04241
G1 X159.854 Y122.732 E.04237
G1 X159.363 Y123.992 E.0424
G1 X158.81 Y125.226 E.0424
G1 X158.195 Y126.433 E.04247
G1 X157.523 Y127.603 E.0423
G1 X156.793 Y128.74 E.04237
G1 X156.006 Y129.84 E.04241
G1 X155.166 Y130.899 E.04238
G1 X154.274 Y131.915 E.04239
G1 X153.332 Y132.885 E.0424
G1 X152.344 Y133.807 E.04237
G1 X151.31 Y134.678 E.04239
G1 X150.235 Y135.497 E.04237
G1 X149.12 Y136.262 E.0424
G1 X147.968 Y136.97 E.0424
G1 X146.782 Y137.619 E.04239
G1 X145.566 Y138.209 E.04238
G1 X144.321 Y138.737 E.0424
G1 X143.052 Y139.202 E.04238
G1 X141.763 Y139.604 E.04234
G1 X140.319 Y139.971 E.04672
G1 X138.995 Y140.236 E.04234
G1 X137.68 Y140.431 E.04168
G1 X136.352 Y140.562 E.04184
G1 X135.034 Y140.628 E.04138
G1 X133.699 Y140.628 E.04186
G1 X132.352 Y140.562 E.04228
G1 X131.007 Y140.429 E.04238
G1 X129.67 Y140.229 E.04239
G1 X128.345 Y139.962 E.04238
G1 X127.035 Y139.63 E.04237
G1 X125.742 Y139.233 E.04241
G1 X124.481 Y138.775 E.04206
G1 X123.232 Y138.251 E.04247
G1 X122.016 Y137.667 E.0423
G1 X120.825 Y137.021 E.04248
G1 X119.673 Y136.319 E.0423
G1 X118.555 Y135.559 E.04239
G1 X117.476 Y134.744 E.0424
G1 X116.44 Y133.876 E.04238
G1 X115.454 Y132.965 E.04209
G1 X114.509 Y131.999 E.04237
G1 X113.619 Y130.994 E.04209
G1 X112.774 Y129.939 E.04238
G1 X111.983 Y128.843 E.04238
G1 X111.247 Y127.709 E.04239
G1 X110.568 Y126.54 E.04239
G1 X109.949 Y125.339 E.04236
G1 X109.389 Y124.105 E.04249
G1 X108.894 Y122.85 E.0423
G1 X108.461 Y121.57 E.04237
G1 X108.092 Y120.269 E.0424
G1 X107.788 Y118.952 E.04238
G1 X107.551 Y117.621 E.04239
G1 X107.38 Y116.28 E.04239
G1 X107.276 Y114.932 E.04239
G1 X107.239 Y113.581 E.04238
G1 X107.269 Y112.239 E.04209
G1 X107.367 Y110.891 E.04238
G1 X107.532 Y109.549 E.04239
G1 X107.763 Y108.217 E.04239
G1 X108.061 Y106.898 E.0424
G1 X108.424 Y105.596 E.04238
G1 X108.851 Y104.313 E.0424
G1 X109.342 Y103.054 E.04237
G1 X109.895 Y101.82 E.0424
G1 X110.508 Y100.615 E.04239
G1 X111.181 Y99.443 E.04237
G1 X111.912 Y98.305 E.04241
G1 X112.698 Y97.206 E.04236
G1 X113.509 Y96.184 E.04091
M204 S1000
G1 X113.804 Y96.419 F10800
M204 S800
G1 F1200
G1 X114.711 Y95.383 E.04317
G1 X115.64 Y94.427 E.0418
G1 X116.615 Y93.518 E.0418
G1 X117.634 Y92.658 E.04181
G1 X118.695 Y91.851 E.0418
G1 X119.794 Y91.097 E.04179
G1 X120.93 Y90.4 E.04179
G1 X122.1 Y89.759 E.04183
G1 X123.299 Y89.178 E.04177
G1 X124.526 Y88.657 E.0418
G1 X125.778 Y88.199 E.0418
G1 X127.051 Y87.803 E.0418
G1 X128.466 Y87.443 E.04578
G1 X129.77 Y87.182 E.0417
G1 X131.067 Y86.989 E.04111
G1 X132.376 Y86.86 E.04124
G1 X133.695 Y86.794 E.04141
G1 X135.01 Y86.794 E.04123
G1 X136.339 Y86.86 E.04172
G1 X137.665 Y86.992 E.04178
G1 X138.984 Y87.191 E.04182
G1 X140.29 Y87.454 E.04177
G1 X141.582 Y87.782 E.04179
G1 X142.856 Y88.175 E.0418
G1 X144.109 Y88.63 E.0418
G1 X145.329 Y89.144 E.04151
G1 X146.53 Y89.721 E.04178
G1 X147.701 Y90.357 E.04178
G1 X148.831 Y91.046 E.0415
G1 X149.934 Y91.796 E.04182
G1 X150.992 Y92.595 E.04157
G1 X152.013 Y93.449 E.04173
G1 X152.991 Y94.354 E.04178
G1 X153.923 Y95.307 E.04179
G1 X154.807 Y96.305 E.0418
G1 X155.634 Y97.339 E.04151
G1 X156.414 Y98.419 E.04177
G1 X157.139 Y99.538 E.04181
G1 X157.808 Y100.691 E.0418
G1 X158.418 Y101.875 E.04176
G1 X158.966 Y103.083 E.04159
G1 X159.458 Y104.329 E.042
G1 X159.885 Y105.592 E.0418
G1 X160.249 Y106.875 E.04182
G1 X160.548 Y108.174 E.04179
G1 X160.782 Y109.486 E.04179
G1 X160.95 Y110.799 E.0415
G1 X161.052 Y112.128 E.04179
G1 X161.089 Y113.46 E.04178
G1 X161.058 Y114.793 E.04181
G1 X160.962 Y116.125 E.04187
G1 X160.799 Y117.446 E.04173
G1 X160.571 Y118.759 E.04178
G1 X160.277 Y120.06 E.04182
G1 X159.919 Y121.344 E.04179
G1 X159.498 Y122.608 E.04177
G1 X159.013 Y123.851 E.04184
G1 X158.468 Y125.067 E.04178
G1 X157.861 Y126.257 E.04189
G1 X157.199 Y127.411 E.04171
G1 X156.478 Y128.532 E.04179
G1 X155.702 Y129.616 E.0418
G1 X154.874 Y130.661 E.0418
G1 X153.994 Y131.662 E.04179
G1 X153.065 Y132.619 E.04182
G1 X152.09 Y133.528 E.0418
G1 X151.071 Y134.387 E.04179
G1 X150.01 Y135.194 E.0418
G1 X148.91 Y135.948 E.04181
G1 X147.774 Y136.646 E.0418
G1 X146.605 Y137.286 E.04179
G1 X145.405 Y137.867 E.0418
G1 X144.178 Y138.388 E.0418
G1 X142.927 Y138.847 E.04178
G1 X141.655 Y139.242 E.04176
G1 X140.24 Y139.603 E.04579
G1 X138.934 Y139.863 E.04175
G1 X137.638 Y140.056 E.04108
G1 X136.329 Y140.186 E.04124
G1 X135.02 Y140.251 E.04109
G1 X133.704 Y140.251 E.04126
G1 X132.375 Y140.186 E.04172
G1 X131.049 Y140.054 E.04178
G1 X129.731 Y139.857 E.04178
G1 X128.424 Y139.593 E.04181
G1 X127.132 Y139.266 E.04179
G1 X125.858 Y138.874 E.04179
G1 X124.614 Y138.422 E.0415
G1 X123.383 Y137.905 E.04186
G1 X122.183 Y137.329 E.04174
G1 X121.009 Y136.692 E.04188
G1 X119.873 Y135.999 E.04172
G1 X118.771 Y135.25 E.04178
G1 X117.708 Y134.446 E.04179
G1 X116.685 Y133.59 E.04182
G1 X115.714 Y132.691 E.04149
G1 X114.781 Y131.738 E.04182
G1 X113.904 Y130.748 E.04147
G1 X113.071 Y129.707 E.0418
G1 X112.291 Y128.627 E.04177
G1 X111.566 Y127.508 E.04181
G1 X110.897 Y126.355 E.0418
G1 X110.287 Y125.17 E.04179
G1 X109.735 Y123.954 E.04187
G1 X109.246 Y122.716 E.04173
G1 X108.819 Y121.453 E.0418
G1 X108.456 Y120.171 E.04178
G1 X108.157 Y118.872 E.04179
G1 X107.923 Y117.56 E.04179
G1 X107.754 Y116.237 E.04182
G1 X107.652 Y114.908 E.04179
G1 X107.616 Y113.575 E.04181
G1 X107.646 Y112.252 E.04149
G1 X107.743 Y110.923 E.04178
G1 X107.905 Y109.6 E.04179
G1 X108.134 Y108.286 E.04182
G1 X108.428 Y106.986 E.04179
G1 X108.786 Y105.702 E.04179
G1 X109.207 Y104.437 E.0418
G1 X109.691 Y103.195 E.04179
G1 X110.237 Y101.978 E.04182
G1 X110.842 Y100.791 E.04177
G1 X111.506 Y99.635 E.0418
G1 X112.227 Y98.513 E.04182
G1 X113.002 Y97.429 E.04178
G1 X113.767 Y96.466 E.03856
M204 S1000
G1 X114.062 Y96.7 F10800
M204 S800
G1 F1200
G1 X114.991 Y95.636 E.04429
G1 X115.907 Y94.693 E.04122
G1 X116.868 Y93.797 E.0412
G1 X117.873 Y92.95 E.04121
G1 X118.919 Y92.154 E.04121
G1 X120.004 Y91.411 E.04123
G1 X121.124 Y90.723 E.04121
G1 X122.276 Y90.092 E.04118
G1 X123.459 Y89.52 E.0412
G1 X124.669 Y89.006 E.04122
G1 X125.903 Y88.554 E.04121
G1 X127.158 Y88.164 E.04121
G1 X128.544 Y87.811 E.04484
G1 X129.831 Y87.554 E.04115
G1 X131.118 Y87.363 E.04079
G1 X132.409 Y87.235 E.04068
G1 X133.708 Y87.171 E.04078
G1 X135.006 Y87.172 E.0407
G1 X136.315 Y87.237 E.04109
G1 X137.623 Y87.367 E.04121
G1 X138.923 Y87.563 E.04122
G1 X140.211 Y87.823 E.0412
G1 X141.476 Y88.144 E.04092
G1 X142.732 Y88.531 E.04121
G1 X143.967 Y88.98 E.0412
G1 X145.178 Y89.489 E.04119
G1 X146.363 Y90.059 E.04123
G1 X147.517 Y90.686 E.04118
G1 X148.631 Y91.366 E.04092
G1 X149.718 Y92.105 E.04121
G1 X150.761 Y92.893 E.04099
G1 X151.767 Y93.735 E.04113
G1 X152.732 Y94.628 E.04122
G1 X153.65 Y95.567 E.04117
G1 X154.521 Y96.552 E.04123
G1 X155.336 Y97.57 E.04089
G1 X156.105 Y98.636 E.04121
G1 X156.82 Y99.739 E.04121
G1 X157.479 Y100.876 E.0412
G1 X158.081 Y102.044 E.0412
G1 X158.621 Y103.234 E.04097
G1 X159.106 Y104.463 E.04143
G1 X159.527 Y105.708 E.04121
G1 X159.885 Y106.973 E.04122
G1 X160.18 Y108.254 E.04122
G1 X160.41 Y109.548 E.04121
G1 X160.575 Y110.842 E.0409
G1 X160.676 Y112.152 E.0412
G1 X160.712 Y113.466 E.04122
G1 X160.682 Y114.78 E.04121
G1 X160.586 Y116.093 E.04128
G1 X160.426 Y117.395 E.04113
G1 X160.2 Y118.69 E.04122
G1 X159.91 Y119.972 E.04121
G1 X159.557 Y121.238 E.04121
G1 X159.141 Y122.485 E.04122
G1 X158.664 Y123.709 E.04119
M73 Q1 S62
G1 X158.126 Y124.908 E.0412
G1 X157.527 Y126.082 E.04132
G1 X156.874 Y127.219 E.04111
G1 X156.163 Y128.324 E.0412
M73 P1 R62
G1 X155.398 Y129.393 E.04122
G1 X154.581 Y130.422 E.0412
G1 X153.714 Y131.41 E.04121
G1 X152.798 Y132.353 E.04122
G1 X151.836 Y133.249 E.04122
G1 X150.831 Y134.096 E.04121
G1 X149.786 Y134.891 E.04117
G1 X148.701 Y135.634 E.04123
G1 X147.581 Y136.322 E.04121
G1 X146.428 Y136.953 E.04121
G1 X145.245 Y137.526 E.04121
G1 X144.035 Y138.039 E.04121
G1 X142.801 Y138.491 E.04121
G1 X141.548 Y138.881 E.04115
G1 X140.162 Y139.234 E.04484
G1 X138.874 Y139.491 E.04118
G1 X137.596 Y139.682 E.04052
G1 X136.306 Y139.809 E.04064
G1 X135.006 Y139.874 E.04081
G1 X133.709 Y139.874 E.04067
G1 X132.399 Y139.809 E.04112
G1 X131.1 Y139.681 E.04093
G1 X129.8 Y139.486 E.04122
G1 X128.512 Y139.227 E.04119
G1 X127.238 Y138.904 E.04121
G1 X125.982 Y138.518 E.0412
G1 X124.747 Y138.069 E.0412
G1 X123.533 Y137.559 E.04129
G1 X122.359 Y136.995 E.04084
G1 X121.202 Y136.367 E.04128
G1 X120.081 Y135.685 E.04114
G1 X118.995 Y134.946 E.04119
G1 X117.946 Y134.154 E.04121
G1 X116.938 Y133.31 E.04122
G1 X115.973 Y132.418 E.0412
G1 X115.054 Y131.478 E.04122
G1 X114.19 Y130.501 E.04089
G1 X113.369 Y129.475 E.0412
G1 X112.6 Y128.41 E.04119
G1 X111.885 Y127.307 E.04121
G1 X111.226 Y126.17 E.0412
G1 X110.624 Y125.002 E.0412
G1 X110.08 Y123.802 E.04131
G1 X109.599 Y122.582 E.04112
G1 X109.178 Y121.337 E.04121
G1 X108.82 Y120.073 E.04119
G1 X108.525 Y118.792 E.04122
G1 X108.295 Y117.498 E.04121
G1 X108.129 Y116.194 E.04122
G1 X108.028 Y114.884 E.0412
G1 X107.993 Y113.57 E.04121
G1 X108.023 Y112.266 E.0409
G1 X108.119 Y110.955 E.04122
G1 X108.279 Y109.65 E.04122
G1 X108.505 Y108.355 E.04122
G1 X108.794 Y107.073 E.0412
G1 X109.148 Y105.808 E.04119
G1 X109.563 Y104.561 E.04121
G1 X110.041 Y103.336 E.04123
G1 X110.579 Y102.137 E.0412
G1 X111.176 Y100.966 E.04121
G1 X111.831 Y99.827 E.0412
G1 X112.541 Y98.721 E.04121
G1 X113.306 Y97.652 E.04122
G1 X114.025 Y96.747 E.03624
M204 S1000
G1 X114.32 Y96.982 F10800
M204 S800
G1 F1200
G1 X115.271 Y95.888 E.04545
G1 X116.174 Y94.959 E.04062
G1 X117.122 Y94.076 E.04062
G1 X118.113 Y93.241 E.04063
G1 X119.144 Y92.457 E.04061
G1 X120.213 Y91.725 E.04062
G1 X121.317 Y91.047 E.04062
G1 X122.453 Y90.425 E.04061
G1 X123.619 Y89.861 E.04061
G1 X124.812 Y89.355 E.04063
G1 X126.029 Y88.91 E.04063
G1 X127.266 Y88.526 E.04061
G1 X128.622 Y88.18 E.04388
G1 X129.891 Y87.926 E.04058
G1 X131.16 Y87.737 E.04023
G1 X132.432 Y87.612 E.04007
G1 X133.713 Y87.548 E.04021
G1 X134.992 Y87.548 E.0401
G1 X136.283 Y87.612 E.04053
G1 X137.572 Y87.741 E.04062
G1 X138.853 Y87.933 E.04061
G1 X140.123 Y88.189 E.04062
G1 X141.369 Y88.506 E.04031
G1 X142.607 Y88.887 E.04061
G1 X143.825 Y89.329 E.04063
G1 X145.019 Y89.831 E.04061
G1 X146.187 Y90.392 E.04063
G1 X147.325 Y91.011 E.04062
G1 X148.423 Y91.68 E.04031
G1 X149.494 Y92.409 E.04062
G1 X150.53 Y93.191 E.0407
G1 X151.521 Y94.021 E.04053
G1 X152.472 Y94.901 E.04063
G1 X153.378 Y95.828 E.04064
G1 X154.236 Y96.798 E.0406
G1 X155.039 Y97.802 E.04031
G1 X155.797 Y98.853 E.04063
G1 X156.501 Y99.94 E.04061
G1 X157.151 Y101.061 E.04063
G1 X157.743 Y102.212 E.04058
G1 X158.275 Y103.385 E.04038
G1 X158.753 Y104.597 E.04085
G1 X159.168 Y105.824 E.04061
G1 X159.521 Y107.071 E.04064
G1 X159.811 Y108.334 E.04063
G1 X160.038 Y109.609 E.04061
G1 X160.2 Y110.885 E.04033
G1 X160.3 Y112.176 E.0406
G1 X160.334 Y113.471 E.04062
