; generated by PrusaSlicer 2.6.1+linux-x64-GTK3 on 2023-11-08 at 01:34:08 UTC


;
;
; 

; external perimeters extrusion width = 0.45mm
; perimeters extrusion width = 0.45mm
; infill extrusion width = 0.45mm
; solid infill extrusion width = 0.45mm
; top infill extrusion width = 0.40mm
; support material extrusion width = 0.35mm
; first layer extrusion width = 0.42mm

; external perimeters extrusion width = 0.45mm
; perimeters extrusion width = 0.45mm
; infill extrusion width = 0.45mm
; solid infill extrusion width = 0.45mm
; top infill extrusion width = 0.40mm
; support material extrusion width = 0.35mm
; first layer extrusion width = 0.42mm

; external perimeters extrusion width = 0.45mm
; perimeters extrusion width = 0.45mm
; infill extrusion width = 0.45mm
; solid infill extrusion width = 0.45mm
; top infill extrusion width = 0.40mm
; support material extrusion width = 0.35mm
; first layer extrusion width = 0.42mm

; external perimeters extrusion width = 0.45mm
; perimeters extrusion width = 0.45mm
; infill extrusion width = 0.45mm
; solid infill extrusion width = 0.45mm
; top infill extrusion width = 0.40mm
; support material extrusion width = 0.35mm
; first layer extrusion width = 0.42mm

; external perimeters extrusion width = 0.45mm
; perimeters extrusion width = 0.45mm
; infill extrusion width = 0.45mm
; solid infill extrusion width = 0.45mm
; top infill extrusion width = 0.40mm
; support material extrusion width = 0.35mm
; first layer extrusion width = 0.42mm

M73 P0 R76
M73 Q0 S77
M201 X1000 Y1000 Z200 E5000 ; sets maximum accelerations, mm/sec^2
M203 X200 Y200 Z12 E120 ; sets maximum feedrates, mm / sec
M204 S1250 T1250 ; sets acceleration (S) and retract acceleration (R), mm/sec^2
M205 X8.00 Y8.00 Z0.40 E4.50 ; sets the jerk limits, mm/sec
M205 S0 T0 ; sets the minimum extruding and travel feed rate, mm/sec
;TYPE:Custom
M862.3 P "MK3S" ; printer model check
M862.1 P0.4 ; nozzle diameter check
M115 U3.13.1 ; tell printer latest fw version
G90 ; use absolute coordinates
M83 ; extruder relative mode
M104 S240 ; set extruder temp
M140 S85 ; set bed temp
M190 S85 ; wait for bed temp
M109 S240 ; wait for extruder temp
G28 W ; home all without mesh bed level
G80 ; mesh bed leveling

G1 Z0.2 F720
G1 Y-3 F1000 ; go outside print area
G92 E0
G1 X60 E9 F1000 ; intro line
G1 X100 E12.5 F1000 ; intro line

G92 E0
M221 S95

; Don't change E values below. Excessive value can damage the printer.

M907 E538 ; set extruder motor current
G21 ; set units to millimeters
G90 ; use absolute coordinates
M83 ; use relative distances for extrusion
M900 K0.08 ; Filament gcode LA 1.5
M900 K45 ; Filament gcode LA 1.0

M107
;LAYER_CHANGE
;Z:0.2
;HEIGHT:0.2
;BEFORE_LAYER_CHANGE
G92 E0.0
;0.2


G1 E-1 F2100
G1 Z.2 F720
;AFTER_LAYER_CHANGE
;0.2
G1 Z.4
G1 X93.18 Y48.784 F10800
G1 Z.2 F720
G1 E1 F2100
M204 S800
;TYPE:Skirt/Brim
;WIDTH:0.42
G1 F1200
G1 X93.695 Y48.013 E.02907
G1 X103.013 Y38.696 E.41315
G1 X103.784 Y38.18 E.02909
G1 X105.658 Y37.404 E.0636
G1 X106.568 Y37.223 E.02909
G1 X122.431 Y37.223 E.49737
G1 X123.341 Y37.404 E.02909
G1 X125.215 Y38.18 E.0636
G1 X125.986 Y38.696 E.02909
G1 X135.352 Y48.063 E.41533
G1 X154.158 Y68.014 E.85965
M73 Q0 S76
G1 X155.452 Y69.745 E.06776
G1 X156.563 Y71.835 E.07421
G1 X157.263 Y73.837 E.0665
G1 X157.692 Y76.124 E.07296
G1 X157.771 Y77.286 E.03652
G1 X157.748 Y78.63 E.04215
G1 X153.258 Y158.565 E2.51026
G1 X153.081 Y159.341 E.02496
G1 X152.305 Y161.216 E.06363
G1 X151.789 Y161.987 E.02909
G1 X142.472 Y171.304 E.41313
G1 X141.701 Y171.82 E.02909
G1 X139.826 Y172.596 E.06363
G1 X138.916 Y172.777 E.02909
G1 X123.053 Y172.777 E.49737
G1 X122.144 Y172.596 E.02906
G1 X120.269 Y171.82 E.06363
G1 X119.498 Y171.304 E.02909
G1 X110.18 Y161.987 E.41315
G1 X109.72 Y161.338 E.02494
G1 X95.885 Y132.503 E1.00278
G1 X95.561 Y131.468 E.034
G1 X95.346 Y130.443 E.03284
G1 X93.196 Y115.303 E.47947
G1 X92.924 Y106.727 E.26903
G1 X92.223 Y77.489 E.917
G1 X92.222 Y51.568 E.81273
G1 X92.403 Y50.659 E.02906
G1 X93.157 Y48.84 E.06174
M204 S1000
;WIPE_START
G1 F8640
G1 X93.695 Y48.013 E-.22781
G1 X96.06 Y45.648 E-.77219
;WIPE_END
G1 Z.4 F720
G1 X95.638 Y50.179 F10800
G1 Z.2 F720
G1 E1 F2100
M204 S800
G1 F1200
G1 X96.037 Y49.438 E.02639
G1 X104.409 Y41.066 E.37123
G1 X105.649 Y40.291 E.04585
G1 X107.296 Y39.886 E.05318
G1 X121.758 Y39.89 E.45345
G1 X123.269 Y40.257 E.04875
G1 X124.593 Y41.069 E.0487
G1 X132.97 Y49.446 E.37145
G1 X133.896 Y51.153 E.06089
G1 X134.113 Y52.364 E.03857
G1 X134.113 Y69.498 E.53722
G1 X134.693 Y68.885 E.02646
G1 X135.388 Y68.281 E.02887
G1 X136.36 Y67.571 E.03774
G1 X137.4 Y66.961 E.0378
G1 X138.481 Y66.463 E.03732
G1 X139.714 Y66.043 E.04084
G1 X140.872 Y65.777 E.03725
G1 X142.033 Y65.628 E.0367
G1 X143.294 Y65.592 E.03955
G1 X144.487 Y65.681 E.03751
G1 X145.646 Y65.881 E.03688
G1 X146.763 Y66.188 E.03632
G1 X147.882 Y66.616 E.03756
G1 X148.944 Y67.148 E.03724
G1 X149.859 Y67.718 E.0338
G1 X150.819 Y68.45 E.03785
G1 X151.678 Y69.251 E.03683
G1 X152.403 Y70.066 E.0342
G1 X153.036 Y70.92 E.03333
G1 X153.627 Y71.889 E.03559
G1 X154.183 Y73.048 E.0403
G1 X154.602 Y74.22 E.03903
G1 X154.884 Y75.354 E.03664
G1 X155.056 Y76.529 E.03723
G1 X155.113 Y77.753 E.03842
G1 X155.049 Y78.949 E.03755
G1 X154.871 Y80.112 E.03689
G1 X154.576 Y81.27 E.03747
G1 X154.174 Y82.378 E.03696
G1 X153.661 Y83.452 E.03732
G1 X153.093 Y84.399 E.03462
G1 X152.381 Y85.366 E.03765
G1 X151.558 Y86.275 E.03845
G1 X150.649 Y87.095 E.03838
G1 X149.659 Y87.821 E.03849
G1 X148.6 Y88.444 E.03852
G1 X147.482 Y88.956 E.03856
G1 X146.34 Y89.346 E.03784
G1 X145.128 Y89.627 E.03901
G1 X143.805 Y89.796 E.04182
G1 X149.386 Y95.377 E.24747
G1 X150.173 Y96.601 E.04563
G1 X150.57 Y98.027 E.04641
G1 X150.598 Y135.725 E1.18199
G1 X150.239 Y137.124 E.04529
G1 X150.589 Y138.462 E.04336
G1 X150.516 Y158.318 E.62258
G1 X150.107 Y159.54 E.0404
M73 P0 R75
G1 X149.372 Y160.637 E.0414
G1 X141.074 Y168.935 E.36795
G1 X139.832 Y169.71 E.0459
G1 X138.409 Y170.087 E.04616
G1 X123.283 Y170.05 E.47427
G1 X121.993 Y169.645 E.04239
G1 X120.847 Y168.886 E.0431
G1 X112.45 Y160.455 E.37309
G1 X111.75 Y159.293 E.04253
G1 X111.4 Y157.972 E.04285
G1 X111.394 Y138.369 E.61464
G1 X111.739 Y137.15 E.03972
G1 X111.383 Y135.818 E.04323
G1 X111.363 Y135.301 E.01622
G1 X110.726 Y135.752 E.02447
G1 X109.988 Y136.17 E.02659
G1 X109.29 Y136.482 E.02397
G1 X108.576 Y136.725 E.02365
G1 X107.737 Y136.924 E.02704
G1 X106.884 Y137.035 E.02697
G1 X106.043 Y137.058 E.02638
G1 X105.198 Y136.996 E.02657
G1 X104.386 Y136.853 E.02585
G1 X103.607 Y136.637 E.02535
G1 X102.806 Y136.325 E.02695
G1 X102.133 Y135.985 E.02364
G1 X101.466 Y135.568 E.02466
G1 X100.787 Y135.043 E.02691
G1 X100.172 Y134.458 E.02661
G1 X99.639 Y133.84 E.02559
G1 X99.201 Y133.221 E.02378
G1 X98.812 Y132.551 E.02429
G1 X98.461 Y131.782 E.0265
G1 X98.186 Y130.971 E.02685
G1 X97.998 Y130.151 E.02638
G1 X97.894 Y129.318 E.02632
G1 X97.875 Y128.454 E.0271
G1 X97.936 Y127.661 E.02494
G1 X98.071 Y126.877 E.02494
G1 X98.287 Y126.092 E.02553
G1 X98.582 Y125.323 E.02582
G1 X98.94 Y124.606 E.02513
G1 X99.386 Y123.897 E.02626
G1 X99.914 Y123.22 E.02692
G1 X100.518 Y122.592 E.02732
G1 X100.907 Y122.263 E.01597
G1 X99.646 Y121.489 E.04639
G1 X98.907 Y120.903 E.02957
G1 X98.225 Y120.236 E.02991
G1 X97.447 Y119.269 E.03891
G1 X96.724 Y118.044 E.0446
G1 X96.214 Y116.766 E.04314
G1 X95.902 Y115.445 E.04256
G1 X95.788 Y114.195 E.03936
G1 X95.785 Y108.598 E.17549
G1 X95.753 Y107.98 E.0194
G1 X95.587 Y106.656 E.04184
G1 X95.587 Y103.349 E.10369
G1 X95.774 Y101.75 E.05048
G1 X95.807 Y95.422 E.19841
G1 X95.976 Y94.144 E.04042
G1 X96.228 Y93.189 E.03097
G1 X96.595 Y92.235 E.03205
G1 X97.231 Y91.053 E.04209
G1 X98.077 Y89.928 E.04413
G1 X99.059 Y88.966 E.0431
G1 X100.149 Y88.177 E.04219
G1 X101.369 Y87.544 E.04309
G1 X102.643 Y87.106 E.04224
G1 X103.432 Y86.956 E.02518
G1 X96.028 Y79.553 E.32828
G1 X95.022 Y77.598 E.06894
G1 X94.886 Y76.633 E.03056
G1 X94.886 Y52.346 E.7615
G1 X95.08 Y51.212 E.03607
G1 X95.609 Y50.231 E.03495
M204 S1000
G1 X95.933 Y50.407 F10800
M204 S800
G1 F1200
G1 X96.323 Y49.685 E.02573
G1 X104.66 Y41.348 E.36968
G1 X105.822 Y40.627 E.04288
G1 X107.318 Y40.264 E.04827
G1 X121.736 Y40.267 E.45207
G1 X123.099 Y40.595 E.04396
G1 X124.342 Y41.352 E.04563
G1 X132.684 Y49.693 E.36988
G1 X133.549 Y51.304 E.05733
G1 X133.736 Y52.38 E.03424
G1 X133.736 Y70.451 E.5666
G1 X134.948 Y69.164 E.05543
G1 X135.629 Y68.57 E.02833
M73 P1 R75
G1 X136.559 Y67.891 E.0361
G1 X137.566 Y67.3 E.03661
G1 X138.63 Y66.81 E.03673
M73 Q1 S76
G1 X139.808 Y66.408 E.03903
G1 X140.929 Y66.15 E.03607
G1 X142.072 Y66.003 E.03613
G1 X143.295 Y65.97 E.03836
G1 X144.432 Y66.054 E.03575
G1 X145.556 Y66.248 E.03576
G1 X146.637 Y66.544 E.03514
G1 X147.721 Y66.957 E.03637
G1 X148.767 Y67.481 E.03668
G1 X149.652 Y68.033 E.0327
G1 X150.568 Y68.732 E.03613
G1 X151.415 Y69.521 E.03629
G1 X152.105 Y70.298 E.03258
G1 X152.718 Y71.123 E.03223
G1 X153.3 Y72.077 E.03504
G1 X153.832 Y73.184 E.03851
G1 X154.238 Y74.32 E.03782
G1 X154.515 Y75.436 E.03605
G1 X154.682 Y76.574 E.03606
G1 X154.736 Y77.76 E.03722
G1 X154.673 Y78.919 E.03639
G1 X154.5 Y80.046 E.03575
G1 X154.213 Y81.167 E.03628
G1 X153.823 Y82.241 E.03583
G1 X153.325 Y83.281 E.03615
G1 X152.784 Y84.182 E.03295
G1 X152.095 Y85.12 E.03649
G1 X151.298 Y86.001 E.03725
G1 X150.418 Y86.797 E.0372
G1 X149.459 Y87.501 E.0373
G1 X148.417 Y88.113 E.03789
G1 X147.334 Y88.609 E.03735
G1 X146.228 Y88.986 E.03664
G1 X145.052 Y89.257 E.03784
G1 X143.89 Y89.405 E.03673
G1 X142.907 Y89.431 E.03083
G1 X149.105 Y95.629 E.27483
G1 X149.84 Y96.78 E.04282
G1 X150.193 Y98.052 E.04139
G1 X150.221 Y135.701 E1.18046
G1 X149.849 Y137.125 E.04615
G1 X150.212 Y138.486 E.04416
G1 X150.149 Y158.227 E.61897
G1 X149.757 Y159.396 E.03866
G1 X149.093 Y160.383 E.0373
G1 X140.823 Y168.653 E.36671
G1 X139.659 Y169.375 E.04295
G1 X138.338 Y169.716 E.04278
G1 X123.314 Y169.673 E.47107
G1 X122.134 Y169.294 E.03886
G1 X121.101 Y168.607 E.0389
G1 X112.76 Y160.239 E.37045
G1 X112.107 Y159.168 E.03933
G1 X111.777 Y157.947 E.03966
G1 X111.771 Y138.396 E.61301
G1 X112.13 Y137.155 E.04051
G1 X111.754 Y135.746 E.04572
G1 X111.747 Y134.476 E.03982
G1 X111.177 Y134.969 E.02363
G1 X110.531 Y135.429 E.02487
G1 X109.826 Y135.83 E.02543
G1 X109.144 Y136.134 E.02341
G1 X108.48 Y136.36 E.02199
G1 X107.678 Y136.551 E.02585
G1 X106.845 Y136.66 E.02634
G1 X106.043 Y136.681 E.02515
G1 X105.254 Y136.623 E.02481
G1 X104.478 Y136.487 E.0247
G1 X103.717 Y136.276 E.02476
G1 X102.951 Y135.977 E.02578
G1 X102.325 Y135.66 E.022
G1 X101.689 Y135.263 E.02351
G1 X101.04 Y134.763 E.02569
G1 X100.451 Y134.205 E.02544
G1 X99.941 Y133.614 E.02448
G1 X99.522 Y133.024 E.02269
G1 X99.151 Y132.385 E.02317
G1 X98.815 Y131.651 E.02531
G1 X98.551 Y130.877 E.02564
G1 X98.371 Y130.095 E.02516
G1 X98.27 Y129.28 E.02575
G1 X98.252 Y128.456 E.02584
G1 X98.311 Y127.699 E.02381
G1 X98.437 Y126.968 E.02326
G1 X98.648 Y126.201 E.02494
G1 X98.931 Y125.467 E.02467
G1 X99.273 Y124.783 E.02398
G1 X99.7 Y124.106 E.0251
G1 X100.204 Y123.46 E.02569
G1 X100.782 Y122.861 E.0261
G1 X101.643 Y122.137 E.03527
G1 X100.912 Y121.824 E.02493
G1 X99.853 Y121.173 E.03898
G1 X99.163 Y120.626 E.02761
G1 X98.511 Y119.991 E.02854
G1 X97.749 Y119.043 E.03814
G1 X97.069 Y117.89 E.04197
G1 X96.577 Y116.665 E.04139
G1 X96.276 Y115.397 E.04086
G1 X96.165 Y114.186 E.03813
G1 X96.162 Y108.588 E.17552
G1 X96.129 Y107.947 E.02012
G1 X95.964 Y106.644 E.04118
G1 X95.964 Y103.36 E.10297
G1 X96.151 Y101.773 E.0501
G1 X96.184 Y95.436 E.19869
G1 X96.344 Y94.228 E.03821
G1 X96.583 Y93.315 E.02959
G1 X96.933 Y92.402 E.03066
G1 X97.542 Y91.268 E.04036
G1 X98.352 Y90.186 E.04238
G1 X99.292 Y89.263 E.04131
G1 X100.336 Y88.505 E.04045
G1 X101.505 Y87.896 E.04133
G1 X102.752 Y87.467 E.04135
G1 X104.206 Y87.198 E.04636
G1 X96.315 Y79.307 E.3499
G1 X95.39 Y77.513 E.06329
G1 X95.263 Y76.62 E.02828
G1 X95.263 Y52.362 E.76059
G1 X95.446 Y51.307 E.03357
G1 X95.904 Y50.459 E.03022
M204 S1000
G1 X96.233 Y50.635 F10800
M204 S800
G1 F1200
G1 X96.61 Y49.932 E.02501
G1 X104.911 Y41.63 E.3681
G1 X105.994 Y40.964 E.03986
G1 X107.34 Y40.641 E.0434
G1 X121.712 Y40.644 E.45062
G1 X122.98 Y40.954 E.04093
G1 X124.091 Y41.634 E.04084
G1 X132.397 Y49.94 E.3683
G1 X133.202 Y51.453 E.05374
G1 X133.359 Y52.395 E.02994
G1 X133.359 Y71.207 E.58984
G1 X133.613 Y71.294 E.00842
G1 X134.433 Y70.244 E.04177
G1 X135.201 Y69.443 E.03479
G1 X135.858 Y68.87 E.02733
G1 X136.759 Y68.211 E.035
G1 X137.732 Y67.638 E.0354
G1 X138.778 Y67.157 E.0361
G1 X139.902 Y66.774 E.03723
G1 X141.005 Y66.52 E.03549
G1 X142.11 Y66.378 E.03493
G1 X143.295 Y66.347 E.03717
G1 X144.377 Y66.427 E.03402
G1 X145.465 Y66.614 E.03461
G1 X146.529 Y66.905 E.03459
G1 X147.561 Y67.299 E.03464
G1 X148.591 Y67.814 E.03611
G1 X149.444 Y68.348 E.03155
G1 X150.318 Y69.015 E.03447
G1 X151.151 Y69.791 E.0357
G1 X151.808 Y70.53 E.031
G1 X152.401 Y71.327 E.03115
G1 X152.973 Y72.265 E.03445
G1 X153.48 Y73.321 E.03673
G1 X153.875 Y74.42 E.03662
G1 X154.147 Y75.518 E.03547
G1 X154.307 Y76.619 E.03488
G1 X154.359 Y77.768 E.03606
G1 X154.297 Y78.889 E.0352
G1 X154.129 Y79.979 E.03458
G1 X153.85 Y81.064 E.03513
G1 X153.472 Y82.103 E.03467
G1 X152.989 Y83.11 E.03502
G1 X152.475 Y83.966 E.03131
G1 X151.808 Y84.875 E.03535
G1 X151.038 Y85.728 E.03603
G1 X150.186 Y86.499 E.03603
G1 X149.259 Y87.181 E.03608
G1 X148.251 Y87.775 E.03668
G1 X147.203 Y88.255 E.03614
G1 X146.133 Y88.621 E.03546
G1 X144.996 Y88.885 E.0366
G1 X143.852 Y89.029 E.03615
G1 X142.71 Y89.058 E.03582
G1 X141.947 Y89.004 E.02398
G1 X148.824 Y95.881 E.30494
G1 X149.485 Y96.91 E.03835
G1 X149.816 Y98.079 E.03809
G1 X149.844 Y135.676 E1.17883
G1 X149.505 Y136.95 E.04134
G1 X149.419 Y137.124 E.00609
G1 X149.504 Y137.297 E.00604
G1 X149.835 Y138.511 E.03945
G1 X149.781 Y158.138 E.61539
G1 X149.429 Y159.208 E.03532
M73 Q1 S75
G1 X148.813 Y160.13 E.03477
G1 X140.572 Y168.37 E.3654
G1 X139.487 Y169.038 E.03995
G1 X138.269 Y169.345 E.03938
G1 X123.345 Y169.296 E.46793
G1 X122.277 Y168.944 E.03526
G1 X121.355 Y168.328 E.03477
G1 X113.069 Y160.022 E.36786
G1 X112.463 Y159.041 E.03615
G1 X112.154 Y157.921 E.03643
G1 X112.148 Y138.424 E.61131
G1 X112.54 Y137.1 E.04329
G1 X112.458 Y136.935 E.00578
G1 X112.125 Y135.675 E.04086
G1 X112.128 Y133.523 E.06747
G1 X111.507 Y134.184 E.02844
G1 X110.951 Y134.668 E.02311
G1 X110.32 Y135.116 E.02426
G1 X109.648 Y135.497 E.02422
G1 X108.999 Y135.786 E.02228
G1 X108.368 Y136 E.02089
G1 X107.601 Y136.182 E.02472
G1 X106.807 Y136.284 E.0251
G1 X106.043 Y136.304 E.02396
G1 X105.291 Y136.247 E.02365
G1 X104.552 Y136.118 E.02352
G1 X103.828 Y135.915 E.02358
G1 X103.097 Y135.629 E.02461
G1 X102.517 Y135.336 E.02037
G1 X101.911 Y134.959 E.02238
G1 X101.292 Y134.482 E.0245
G1 X100.718 Y133.938 E.0248
G1 X100.233 Y133.375 E.0233
G1 X99.835 Y132.813 E.02159
G1 X99.49 Y132.219 E.02154
G1 X99.169 Y131.52 E.02412
G1 X98.917 Y130.782 E.02445
G1 X98.741 Y130.02 E.02452
G1 X98.645 Y129.244 E.02452
G1 X98.629 Y128.457 E.02468
G1 X98.684 Y127.754 E.02211
G1 X98.804 Y127.059 E.02211
G1 X99.004 Y126.327 E.02379
G1 X99.272 Y125.627 E.0235
G1 X99.597 Y124.976 E.02281
G1 X100.003 Y124.33 E.02392
G1 X100.483 Y123.715 E.02446
G1 X101.034 Y123.142 E.02492
G1 X101.601 Y122.661 E.02331
G1 X102.451 Y122.069 E.03248
G1 X101.097 Y121.495 E.04611
G1 X100.06 Y120.858 E.03816
G1 X99.405 Y120.337 E.02624
G1 X98.798 Y119.745 E.02658
G1 X98.051 Y118.817 E.03735
G1 X97.413 Y117.736 E.03936
G1 X96.941 Y116.564 E.03962
G1 X96.65 Y115.349 E.03917
G1 X96.542 Y114.177 E.0369
G1 X96.539 Y108.578 E.17555
G1 X96.504 Y107.913 E.02088
G1 X96.341 Y106.631 E.04052
G1 X96.341 Y103.371 E.10222
G1 X96.528 Y101.796 E.04973
G1 X96.561 Y95.45 E.19898
G1 X96.716 Y94.29 E.03669
G1 X96.945 Y93.421 E.02818
G1 X97.272 Y92.569 E.02861
G1 X97.853 Y91.482 E.03865
G1 X98.627 Y90.445 E.04057
G1 X99.526 Y89.559 E.03958
G1 X100.522 Y88.833 E.03864
G1 X101.666 Y88.237 E.04045
G1 X102.861 Y87.829 E.03959
G1 X104.075 Y87.606 E.0387
G1 X105.11 Y87.568 E.03247
G1 X96.602 Y79.061 E.37724
G1 X95.759 Y77.428 E.05762
G1 X95.64 Y76.606 E.02604
G1 X95.64 Y52.377 E.75968
