; generated by PrusaSlicer 2.7.4+win64 on 2024-05-30 at 22:25:21 UTC


;
;
; 

; external perimeters extrusion width = 0.65mm
; perimeters extrusion width = 0.65mm
; infill extrusion width = 0.65mm
; solid infill extrusion width = 0.65mm
; top infill extrusion width = 0.60mm
; first layer extrusion width = 0.65mm

; external perimeters extrusion width = 0.65mm
; perimeters extrusion width = 0.65mm
; infill extrusion width = 0.65mm
; solid infill extrusion width = 0.65mm
; top infill extrusion width = 0.60mm
; first layer extrusion width = 0.65mm

M73 P0 R177
M73 Q0 S177
M201 X1000 Y1000 Z200 E5000 ; sets maximum accelerations, mm/sec^2
M203 X200 Y200 Z12 E120 ; sets maximum feedrates, mm / sec
M204 S1250 T1250 ; sets acceleration (S) and retract acceleration (R), mm/sec^2
M205 X8.00 Y8.00 Z0.40 E4.50 ; sets the jerk limits, mm/sec
M205 S0 T0 ; sets the minimum extruding and travel feed rate, mm/sec

; printing object Ridge_left_plate.stl id:0 copy 0
; stop printing object Ridge_left_plate.stl id:0 copy 0
; printing object Ridge_right_plate.stl id:1 copy 0
; stop printing object Ridge_right_plate.stl id:1 copy 0

;TYPE:Custom
M862.3 P "MK3S" ; printer model check
M862.1 P0.6 ; nozzle diameter check
M115 U3.13.3 ; tell printer latest fw version
G90 ; use absolute coordinates
M83 ; extruder relative mode
M104 S235 ; set extruder temp
M140 S90 ; set bed temp
M190 S90 ; wait for bed temp
M109 S235 ; wait for extruder temp
G28 W ; home all without mesh bed level
G80 X53.4511 Y54.2139 W136.36 H101.397 ; mesh bed levelling

G1 Z0.2 F720
G1 Y-3 F1000 ; go outside print area
G92 E0
G1 X60 E9 F1000 ; intro line
G1 X100 E12.5 F1000 ; intro line
M73 P0 R176

G92 E0
M221 S95
G21 ; set units to millimeters
G90 ; use absolute coordinates
M83 ; use relative distances for extrusion

M900 K0.04 ; Filament gcode LA 1.5
M900 K24 ; Filament gcode LA 1.0




M107
;LAYER_CHANGE
;Z:0.2
;HEIGHT:0.2
G1 E-1 F2100
G1 Z.4 F720
G1 X56.731 Y57.696 F10800
G1 Z.2 F720
G1 E1 F1500
M204 S800
;TYPE:Skirt/Brim
;WIDTH:0.65
G1 F1200
G1 X57.599 Y56.899 E.05948
G1 X58.551 Y56.204 E.0595
G1 X59.574 Y55.62 E.05946
G1 X60.657 Y55.155 E.05949
G1 X61.784 Y54.813 E.05945
G1 X63.227 Y54.568 E.07388
G1 X112.35 Y54.519 E2.47967
G1 X179.888 Y54.731 E3.40926
G1 X181.619 Y55.025 E.08863
G1 X182.605 Y55.33 E.0521
G1 X183.818 Y55.863 E.06688
G1 X184.711 Y56.38 E.05209
G1 X185.663 Y57.075 E.0595
G1 X186.531 Y57.872 E.05948
G1 X187.392 Y58.878 E.06684
G1 X188.337 Y60.382 E.08966
G1 X188.964 Y61.865 E.08128
G1 X189.404 Y63.737 E.09707
G1 X189.506 Y65.061 E.06703
G1 X189.506 Y144.939 E4.03215
G1 X189.425 Y146.119 E.05971
G1 X189.211 Y147.277 E.05944
G1 X188.87 Y148.405 E.05949
G1 X188.404 Y149.488 E.05951
G1 X187.82 Y150.511 E.05946
G1 X187.125 Y151.463 E.0595
G1 X186.328 Y152.331 E.05948
G1 X185.322 Y153.192 E.06684
G1 X183.818 Y154.137 E.08966
G1 X182.335 Y154.764 E.08128
G1 X180.463 Y155.204 E.09707
G1 X179.139 Y155.306 E.06703
G1 X130.927 Y155.307 E2.43369
G1 X64.123 Y155.131 E3.3722
G1 X62.943 Y155.049 E.05971
G1 X61.784 Y154.836 E.05948
G1 X60.656 Y154.494 E.0595
G1 X59.574 Y154.029 E.05945
G1 X58.551 Y153.445 E.05946
G1 X57.599 Y152.75 E.0595
G1 X56.731 Y151.953 E.05948
G1 X55.87 Y150.947 E.06684
G1 X54.925 Y149.442 E.08971
G1 X54.297 Y147.96 E.08125
G1 X53.857 Y146.088 E.09707
G1 X53.755 Y144.69 E.07076
G1 X53.756 Y64.885 E4.02847
G1 X53.837 Y63.706 E.05965
G1 X54.087 Y62.405 E.06687
G1 X54.674 Y60.728 E.08969
G1 X55.215 Y59.682 E.05945
G1 X55.958 Y58.586 E.06684
G1 X56.672 Y57.764 E.05496
M204 S1000
;WIPE_START
G1 F8640
G1 X56.731 Y57.696 E-.02079
G1 X57.599 Y56.899 E-.2721
G1 X58.551 Y56.204 E-.27216
G1 X59.574 Y55.62 E-.27199
G1 X60.222 Y55.341 E-.16296
;WIPE_END
G1 Z.4 F720
G1 X123.614 Y64.208 F10800
G1 Z.2 F720
G1 E1 F1500
M204 S800
G1 F1200
G1 X123.785 Y63.333 E.045
G1 X124.037 Y62.545 E.04176
G1 X124.604 Y61.375 E.06563
G1 X125.134 Y60.603 E.04727
G1 X125.734 Y59.927 E.04563
G1 X126.429 Y59.314 E.04678
G1 X127.191 Y58.794 E.04657
G1 X128.712 Y58.107 E.08425
G1 X129.495 Y57.901 E.04087
G1 X130.779 Y57.752 E.06525
G1 X179.877 Y57.799 E2.47841
G1 X181.451 Y58.162 E.08154
G1 X182.867 Y58.829 E.07901
G1 X183.556 Y59.302 E.04219
G1 X184.29 Y59.951 E.04946
G1 X184.902 Y60.649 E.04686
G1 X185.686 Y61.907 E.07482
G1 X186.003 Y62.651 E.04082
G1 X186.388 Y64.22 E.08155
G1 X186.451 Y65.072 E.04313
G1 X186.449 Y72.706 E.38536
G1 X186.32 Y73.485 E.03986
G1 X186.016 Y74.315 E.04462
G1 X185.524 Y75.121 E.04767
G1 X184.803 Y75.877 E.05273
G1 X184.072 Y76.387 E.04499
G1 X183.403 Y76.692 E.03711
G1 X182.686 Y76.893 E.03759
G1 X181.065 Y77.01 E.08204
G1 X180.182 Y77.163 E.04524
G1 X179.296 Y77.423 E.04661
G1 X178.044 Y77.995 E.06948
G1 X177.271 Y78.491 E.04636
G1 X176.56 Y79.073 E.04638
G1 X175.629 Y80.087 E.06949
G1 X175.111 Y80.846 E.04639
G1 X174.682 Y81.658 E.04636
G1 X174.349 Y82.514 E.04636
G1 X174.115 Y83.402 E.04636
G1 X173.984 Y84.312 E.04641
G1 X173.958 Y85.223 E.046
G1 X174.115 Y86.598 E.06986
G1 X174.349 Y87.486 E.04636
G1 X174.682 Y88.342 E.04636
G1 X175.359 Y89.541 E.06951
G1 X175.92 Y90.268 E.04635
G1 X176.56 Y90.927 E.04637
G1 X177.271 Y91.509 E.04638
G1 X178.044 Y92.005 E.04636
G1 X179.296 Y92.577 E.06948
G1 X180.628 Y92.927 E.06952
G1 X182.743 Y93.117 E.10719
G1 X183.408 Y93.31 E.03495
G1 X184.135 Y93.65 E.04051
G1 X184.923 Y94.229 E.04936
G1 X185.668 Y95.071 E.05675
G1 X186.232 Y96.22 E.06461
G1 X186.405 Y96.894 E.03513
G1 X186.453 Y144.863 E2.42142
G1 X186.387 Y145.789 E.04686
G1 X186.219 Y146.65 E.04428
G1 X185.974 Y147.428 E.04117
G1 X185.398 Y148.622 E.06692
G1 X184.867 Y149.395 E.04734
G1 X184.268 Y150.071 E.04559
G1 X183.568 Y150.688 E.0471
G1 X182.82 Y151.2 E.04576
G1 X181.625 Y151.775 E.06694
G1 X180.85 Y152.019 E.04101
G1 X180.029 Y152.181 E.04224
G1 X179.152 Y152.25 E.04441
G1 X130.936 Y152.253 E2.43389
G1 X130.05 Y152.192 E.04483
M73 Q0 S176
G1 X129.171 Y152.025 E.04516
G1 X127.922 Y151.588 E.0668
G1 X127.2 Y151.211 E.04112
G1 X126.438 Y150.693 E.04651
G1 X125.733 Y150.073 E.04739
G1 X125.138 Y149.402 E.04527
G1 X124.607 Y148.631 E.04726
G1 X124.025 Y147.426 E.06755
G1 X123.778 Y146.639 E.04164
G1 X123.612 Y145.776 E.04436
G1 X123.547 Y144.863 E.0462
G1 X123.547 Y65.136 E4.02453
G1 X123.607 Y64.298 E.04241
M204 S1000
G1 X123.607 Y64.298 F10800
G1 X124.211 Y64.34
M204 S800
G1 F1200
G1 X124.213 Y64.305 E.00177
G1 X124.369 Y63.499 E.04144
G1 X124.601 Y62.771 E.03857
G1 X125.129 Y61.678 E.06127
G1 X125.623 Y60.964 E.04383
G1 X126.175 Y60.345 E.04187
G1 X126.787 Y59.804 E.04123
G1 X127.489 Y59.324 E.04293
G1 X128.884 Y58.69 E.07735
G1 X129.607 Y58.498 E.03776
G1 X130.811 Y58.358 E.06119
G1 X179.189 Y58.358 E2.44207
G1 X180.4 Y58.499 E.06154
G1 X181.27 Y58.742 E.0456
G1 X182.563 Y59.355 E.07223
G1 X183.846 Y60.366 E.08246
G1 X184.433 Y61.035 E.04493
G1 X185.133 Y62.16 E.06688
G1 X185.65 Y63.575 E.07605
G1 X185.845 Y65.105 E.07786
G1 X185.846 Y72.636 E.38016
G1 X185.74 Y73.305 E.03419
G1 X185.457 Y74.076 E.04146
G1 X185.025 Y74.774 E.04144
G1 X184.431 Y75.396 E.04342
G1 X183.749 Y75.872 E.04198
G1 X182.61 Y76.29 E.06124
G1 X180.525 Y76.474 E.10566
G1 X179.562 Y76.698 E.04991
G1 X178.632 Y77.03 E.04985
G1 X177.322 Y77.721 E.07476
G1 X176.523 Y78.302 E.04987
G1 X175.795 Y78.97 E.04987
G1 X175.148 Y79.716 E.04985
G1 X174.591 Y80.532 E.04987
G1 X174.129 Y81.406 E.0499
G1 X173.771 Y82.326 E.04983
G1 X173.52 Y83.282 E.04989
G1 X173.379 Y84.26 E.04988
G1 X173.385 Y85.794 E.07744
G1 X173.52 Y86.718 E.04714
G1 X173.771 Y87.674 E.04989
G1 X174.348 Y89.038 E.07476
G1 X175.148 Y90.284 E.07474
G1 X176.149 Y91.375 E.07474
G1 X176.914 Y92 E.04987
G1 X177.745 Y92.534 E.04986
G1 X179.092 Y93.149 E.07475
G1 X180.525 Y93.526 E.0748
G1 X182.608 Y93.71 E.10556
G1 X183.805 Y94.16 E.06455
G1 X184.494 Y94.659 E.04294
G1 X185.158 Y95.402 E.0503
G1 X185.661 Y96.428 E.05768
G1 X185.808 Y97.006 E.03011
G1 X185.846 Y144.853 E2.41526
G1 X185.635 Y146.485 E.08307
G1 X185.41 Y147.203 E.03798
G1 X184.872 Y148.319 E.06254
G1 X184.399 Y149.008 E.04219
G1 X183.851 Y149.63 E.04185
G1 X183.208 Y150.199 E.04334
G1 X182.517 Y150.673 E.0423
G1 X181.4 Y151.211 E.06258
G1 X180.685 Y151.435 E.03782
G1 X179.118 Y151.644 E.0798
G1 X130.947 Y151.646 E2.43162
G1 X129.33 Y151.439 E.08229
G1 X128.163 Y151.03 E.06242
G1 X127.498 Y150.682 E.03789
G1 X126.796 Y150.202 E.04293
G1 X126.174 Y149.655 E.04181
G1 X125.627 Y149.041 E.04151
G1 X125.133 Y148.327 E.04383
G1 X124.589 Y147.201 E.06313
G1 X124.363 Y146.475 E.03838
G1 X124.154 Y144.852 E.0826
G1 X124.154 Y65.147 E4.02342
G1 X124.205 Y64.43 E.03628
M73 P0 R175
M204 S1000
G1 X124.205 Y64.43 F10800
G1 X124.844 Y64.513
M204 S800
G1 F1200
G1 X124.954 Y63.664 E.04321
G1 X125.165 Y62.996 E.03536
G1 X125.656 Y61.982 E.05687
G1 X126.591 Y60.786 E.07663
G1 X127.788 Y59.852 E.07664
G1 X129.058 Y59.271 E.0705
G1 X129.72 Y59.094 E.03459
G1 X130.843 Y58.965 E.05706
G1 X179.738 Y59.005 E2.46817
G1 X181.088 Y59.321 E.06999
G1 X182.234 Y59.865 E.06404
G1 X182.81 Y60.26 E.03526
G1 X183.404 Y60.782 E.03992
G1 X183.945 Y61.396 E.04131
G1 X184.581 Y62.413 E.06055
G1 X184.872 Y63.095 E.03743
G1 X185.188 Y64.407 E.06812
G1 X185.238 Y65.136 E.03689
G1 X185.239 Y72.61 E.37728
G1 X185.146 Y73.176 E.02895
G1 X184.9 Y73.832 E.03537
G1 X184.529 Y74.422 E.03518
G1 X184.018 Y74.951 E.03713
G1 X183.431 Y75.354 E.03594
G1 X182.478 Y75.697 E.05113
G1 X180.941 Y75.801 E.07776
G1 X179.903 Y75.981 E.05318
G1 X178.395 Y76.471 E.08004
G1 X176.994 Y77.21 E.07996
G1 X176.138 Y77.832 E.05341
G1 X175.36 Y78.547 E.05334
G1 X174.667 Y79.346 E.05339
G1 X174.07 Y80.218 E.05335
G1 X173.371 Y81.641 E.08003
G1 X172.925 Y83.161 E.07996
G1 X172.774 Y84.208 E.0534
G1 X172.744 Y85.257 E.05297
G1 X172.925 Y86.839 E.08038
G1 X173.193 Y87.861 E.05333
G1 X173.577 Y88.847 E.05341
G1 X174.356 Y90.227 E.07999
G1 X175.002 Y91.064 E.05337
G1 X175.739 Y91.822 E.05337
G1 X176.994 Y92.79 E.08001
G1 X177.914 Y93.31 E.05335
G1 X178.888 Y93.721 E.05336
G1 X180.421 Y94.124 E.08001
G1 X182.477 Y94.303 E.10418
G1 X183.479 Y94.673 E.05392
G1 X184.067 Y95.092 E.03645
G1 X184.65 Y95.736 E.04385
G1 X185.09 Y96.636 E.05057
G1 X185.21 Y97.116 E.02498
G1 X185.239 Y144.843 E2.40921
G1 X185.05 Y146.322 E.07527
G1 X184.845 Y146.98 E.03479
G1 X184.346 Y148.016 E.05805
G1 X183.409 Y149.213 E.07673
G1 X182.214 Y150.147 E.07656
G1 X181.177 Y150.646 E.05809
G1 X180.522 Y150.85 E.03463
G1 X179.085 Y151.037 E.07315
G1 X130.957 Y151.039 E2.42945
G1 X129.489 Y150.853 E.0747
G1 X128.404 Y150.473 E.05803
G1 X127.797 Y150.153 E.03464
G1 X126.591 Y149.213 E.07719
G1 X125.659 Y148.024 E.07626
G1 X125.154 Y146.978 E.05863
G1 X124.948 Y146.313 E.03514
G1 X124.761 Y144.842 E.07485
G1 X124.761 Y65.157 E4.02241
G1 X124.833 Y64.602 E.02825
M204 S1000
G1 X124.833 Y64.602 F10800
G1 X125.43 Y64.678
M204 S800
G1 F1200
G1 X125.539 Y63.828 E.04326
G1 X125.729 Y63.22 E.03215
G1 X126.181 Y62.286 E.05238
G1 X127.032 Y61.205 E.06945
G1 X128.088 Y60.38 E.06764
G1 X129.234 Y59.853 E.06367
G1 X129.834 Y59.691 E.03137
G1 X130.873 Y59.571 E.0528
G1 X179.127 Y59.571 E2.43581
G1 X180.168 Y59.691 E.0529
G1 X180.904 Y59.9 E.03862
G1 X181.906 Y60.376 E.056
G1 X182.425 Y60.73 E.03171
G1 X183.457 Y61.758 E.07353
G1 X184.03 Y62.667 E.05424
G1 X184.307 Y63.317 E.03567
G1 X184.583 Y64.466 E.05965
G1 X184.632 Y65.167 E.03547
G1 X184.632 Y72.583 E.37435
G1 X184.553 Y73.042 E.02351
G1 X184.345 Y73.587 E.02945
G1 X184.068 Y74.027 E.02625
G1 X183.644 Y74.472 E.03103
G1 X183.158 Y74.811 E.02991
G1 X182.35 Y75.103 E.04337
G1 X180.879 Y75.197 E.07441
G1 X179.765 Y75.389 E.05706
G1 X178.159 Y75.911 E.08524
G1 X176.665 Y76.699 E.08526
G1 X175.754 Y77.361 E.05685
G1 X174.924 Y78.123 E.05688
G1 X174.186 Y78.975 E.0569
G1 X173.55 Y79.905 E.05687
G1 X172.805 Y81.42 E.08522
G1 X172.329 Y83.041 E.08528
G1 X172.169 Y84.156 E.05686
G1 X172.137 Y85.275 E.05651
G1 X172.329 Y86.959 E.08556
G1 X172.616 Y88.049 E.0569
G1 X173.025 Y89.099 E.05688
G1 X173.855 Y90.569 E.08522
G1 X174.543 Y91.462 E.0569
G1 X175.328 Y92.269 E.05683
G1 X176.665 Y93.301 E.08526
G1 X177.646 Y93.855 E.05687
G1 X178.684 Y94.293 E.05687
G1 X180.317 Y94.723 E.08524
G1 X182.352 Y94.898 E.1031
G1 X183.158 Y95.189 E.04326
G1 X183.645 Y95.529 E.02998
G1 X184.145 Y96.074 E.03733
G1 X184.519 Y96.843 E.04317
G1 X184.611 Y97.223 E.01974
G1 X184.632 Y144.833 E2.4033
G1 X184.464 Y146.161 E.06757
G1 X184.281 Y146.756 E.03142
G1 X183.82 Y147.712 E.05358
G1 X182.969 Y148.795 E.06953
G1 X181.911 Y149.621 E.06776
G1 X180.954 Y150.082 E.05362
G1 X180.36 Y150.265 E.03138
G1 X179.053 Y150.431 E.06651
G1 X130.967 Y150.432 E2.42733
G1 X129.647 Y150.267 E.06715
G1 X128.647 Y149.916 E.0535
G1 X128.096 Y149.625 E.03145
G1 X127.031 Y148.794 E.06819
G1 X126.184 Y147.719 E.06908
G1 X125.719 Y146.755 E.05403
G1 X125.534 Y146.152 E.03184
G1 X125.368 Y144.833 E.06711
G1 X125.368 Y65.167 E4.02145
G1 X125.419 Y64.768 E.0203
M204 S1000
G1 X125.419 Y64.768 F10800
G1 X126.017 Y64.842
M204 S800
G1 F1200
G1 X126.124 Y63.991 E.0433
G1 X126.294 Y63.443 E.02896
G1 X126.706 Y62.591 E.04777
G1 X127.449 Y61.646 E.06068
G1 X128.39 Y60.907 E.0604
G1 X129.411 Y60.434 E.0568
G1 X129.948 Y60.287 E.0281
G1 X130.902 Y60.178 E.04847
G1 X179.571 Y60.208 E2.45676
G1 X180.688 Y60.468 E.05789
G1 X181.604 Y60.903 E.05119
G1 X182.066 Y61.22 E.02828
G1 X182.97 Y62.12 E.06439
G1 X183.492 Y62.95 E.04949
G1 X183.741 Y63.536 E.03214
G1 X183.983 Y64.558 E.05302
G1 X184.025 Y65.177 E.03132
G1 X184.025 Y72.555 E.37243
G1 X183.962 Y72.901 E.01775
G1 X183.607 Y73.63 E.04093
G1 X182.887 Y74.267 E.04853
G1 X182.231 Y74.507 E.03526
G1 X180.806 Y74.594 E.07207
G1 X179.628 Y74.798 E.06035
G1 X177.923 Y75.352 E.0905
G1 X176.337 Y76.188 E.0905
G1 X175.37 Y76.891 E.06035
G1 X174.488 Y77.7 E.06041
G1 X173.705 Y78.604 E.06037
G1 X173.03 Y79.591 E.06036
G1 X172.239 Y81.2 E.0905
G1 X171.734 Y82.92 E.09049
G1 X171.564 Y84.104 E.06038
G1 X171.53 Y85.294 E.06009
G1 X171.734 Y87.08 E.09074
G1 X172.038 Y88.237 E.06039
G1 X172.472 Y89.351 E.06035
G1 X173.354 Y90.912 E.09051
G1 X174.084 Y91.859 E.06036
G1 X174.917 Y92.717 E.06037
G1 X176.337 Y93.812 E.09052
G1 X177.378 Y94.4 E.06035
G1 X178.48 Y94.865 E.06038
G1 X180.214 Y95.321 E.09051
G1 X182.231 Y95.493 E.10219
G1 X182.887 Y95.733 E.03526
G1 X183.224 Y95.968 E.02074
G1 X183.643 Y96.416 E.03096
G1 X184.012 Y97.326 E.04957
G1 X184.025 Y144.823 E2.3976
G1 X183.879 Y146 E.05987
G1 X183.715 Y146.535 E.02825
G1 X183.294 Y147.408 E.04892
G1 X182.552 Y148.353 E.06065
G1 X181.606 Y149.095 E.06069
M73 Q0 S175
G1 X180.732 Y149.516 E.04897
G1 X180.2 Y149.679 E.02809
G1 X179.023 Y149.825 E.05987
G1 X130.977 Y149.825 E2.42531
G1 X129.804 Y149.68 E.05966
G1 X128.89 Y149.36 E.04888
G1 X128.398 Y149.098 E.02814
G1 X127.448 Y148.353 E.06094
G1 X126.709 Y147.414 E.06032
G1 X126.284 Y146.533 E.04938
G1 X126.119 Y145.992 E.02855
G1 X125.975 Y144.822 E.05951
G1 X125.975 Y65.177 E4.02039
G1 X126.006 Y64.932 E.01247
M73 P1 R175
M73 Q1 S175
M204 S1000
G1 X126.006 Y64.932 F10800
G1 X126.605 Y65.005
M204 S800
G1 F1200
G1 X126.709 Y64.152 E.04338
G1 X127.231 Y62.897 E.06861
G1 X127.867 Y62.087 E.05199
G1 X128.694 Y61.433 E.05322
G1 X129.59 Y61.014 E.04993
G1 X130.932 Y60.784 E.06873
G1 X179.068 Y60.784 E2.42985
G1 X179.936 Y60.883 E.0441
G1 X180.472 Y61.036 E.02814
G1 X181.3 Y61.429 E.04627
G1 X181.707 Y61.71 E.02497
G1 X182.483 Y62.483 E.05529
G1 X182.954 Y63.231 E.04462
G1 X183.174 Y63.754 E.02864
G1 X183.382 Y64.647 E.04628
G1 X183.418 Y65.187 E.02732
G1 X183.373 Y72.753 E.38193
G1 X183.145 Y73.235 E.02692
G1 X182.807 Y73.59 E.02474
G1 X182.289 Y73.867 E.02965
G1 X180.737 Y73.991 E.07859
G1 X179.49 Y74.206 E.06388
G1 X178.276 Y74.563 E.06388
G1 X177.111 Y75.055 E.06384
G1 X175.486 Y76.035 E.09579
G1 X174.053 Y77.277 E.09572
G1 X173.224 Y78.233 E.06387
G1 X172.51 Y79.277 E.06385
G1 X171.673 Y80.979 E.09574
G1 X171.139 Y82.799 E.09574
G1 X170.959 Y84.052 E.0639
G1 X170.923 Y85.313 E.06368
G1 X171.139 Y87.201 E.09593
G1 X171.461 Y88.424 E.06384
G1 X171.92 Y89.604 E.06391
G1 X172.852 Y91.255 E.0957
G1 X173.625 Y92.257 E.06388
G1 X174.507 Y93.164 E.06386
G1 X175.486 Y93.965 E.06385
G1 X176.551 Y94.649 E.06389
G1 X178.276 Y95.437 E.09573
G1 X180.11 Y95.919 E.09572
