; generated by PrusaSlicer 2.6.1+linux-x64-GTK3 on 2023-11-11 at 18:16:10 UTC


;
;
; 

; external perimeters extrusion width = 0.45mm
; perimeters extrusion width = 0.45mm
; infill extrusion width = 0.45mm
; solid infill extrusion width = 0.45mm
; top infill extrusion width = 0.40mm
; first layer extrusion width = 0.42mm

M73 P0 R147
M73 Q0 S148
M201 X1000 Y1000 Z200 E5000 ; sets maximum accelerations, mm/sec^2
M203 X200 Y200 Z12 E120 ; sets maximum feedrates, mm / sec
M204 S1250 T1250 ; sets acceleration (S) and retract acceleration (R), mm/sec^2
M205 X8.00 Y8.00 Z0.40 E4.50 ; sets the jerk limits, mm/sec
M205 S0 T0 ; sets the minimum extruding and travel feed rate, mm/sec
;TYPE:Custom
M862.3 P "MK3S" ; printer model check
M862.1 P0.4 ; nozzle diameter check
M115 U3.13.2 ; tell printer latest fw version
G90 ; use absolute coordinates
M83 ; extruder relative mode
M104 S240 ; set extruder temp
M140 S85 ; set bed temp
M190 S85 ; wait for bed temp
M109 S240 ; wait for extruder temp
G28 W ; home all without mesh bed level
G80 ; mesh bed leveling

G1 Z0.2 F720
G1 Y-3 F1000 ; go outside print area
G92 E0
G1 X60 E9 F1000 ; intro line
G1 X100 E12.5 F1000 ; intro line

G92 E0
M221 S95

; Don't change E values below. Excessive value can damage the printer.

M907 E538 ; set extruder motor current
G21 ; set units to millimeters
G90 ; use absolute coordinates
M83 ; use relative distances for extrusion
M900 K0.08 ; Filament gcode LA 1.5
M900 K45 ; Filament gcode LA 1.0

M107
;LAYER_CHANGE
;Z:0.2
;HEIGHT:0.2
;BEFORE_LAYER_CHANGE
G92 E0.0
;0.2


G1 E-1 F2100
G1 Z.2 F720
;AFTER_LAYER_CHANGE
;0.2
G1 Z.4
G1 X31.912 Y40.431 F10800
G1 Z.2 F720
G1 E1 F2100
M204 S800
;TYPE:Skirt/Brim
;WIDTH:0.42
G1 F1200
G1 X32.84 Y39.853 E.03428
G1 X33.833 Y39.422 E.03394
G1 X35.113 Y39.1 E.04138
G1 X36.206 Y39.01 E.03439
G1 X136.324 Y39.01 E3.13913
G1 X137.646 Y39.14 E.04165
G1 X139.027 Y39.546 E.04513
G1 X140.312 Y40.218 E.04547
G1 X141.262 Y40.96 E.0378
G1 X142.185 Y41.984 E.04322
G1 X142.953 Y43.274 E.04707
G1 X143.406 Y44.537 E.04207
G1 X143.63 Y45.966 E.04535
G1 X143.636 Y111.69 E2.06073
G1 X143.553 Y112.526 E.02634
G1 X143.341 Y113.471 E.03037
G1 X142.743 Y114.915 E.049
G1 X141.77 Y116.296 E.05297
G1 X140.609 Y117.348 E.04912
G1 X139.472 Y118.029 E.04156
G1 X138.462 Y118.428 E.03405
G1 X137.405 Y118.674 E.03403
G1 X136.324 Y118.762 E.03401
G1 X36.207 Y118.762 E3.1391
G1 X34.53 Y118.555 E.05298
G1 X33.725 Y118.311 E.02637
G1 X32.84 Y117.919 E.03035
G1 X32.119 Y117.487 E.02635
G1 X31.359 Y116.894 E.03022
G1 X30.303 Y115.729 E.0493
G1 X29.622 Y114.593 E.04153
G1 X29.224 Y113.584 E.03401
G1 X28.979 Y112.534 E.03381
G1 X28.889 Y111.444 E.03429
G1 X28.889 Y46.328 E2.04167
G1 X29.096 Y44.65 E.05301
G1 X29.34 Y43.846 E.02634
M73 Q0 S147
G1 X29.732 Y42.96 E.03038
G1 X30.6 Y41.661 E.04899
G1 X31.261 Y40.967 E.03005
G1 X31.866 Y40.469 E.02457
M204 S1000
; printing object Memory Case.stl id:0 copy 0
;WIPE_START
G1 F8640
G1 X32.84 Y39.853 E-.2661
G1 X33.833 Y39.422 E-.24995
G1 X35.113 Y39.1 E-.30476
G1 X35.886 Y39.036 E-.17919
;WIPE_END
G1 Z.4 F720
G1 X139.785 Y112.858 F10800
G1 Z.2 F720
G1 E1 F2100
M204 S800
;TYPE:Perimeter
;WIDTH:0.419999
G1 F1200
G1 X139.534 Y113.373 E.01796
G1 X139.237 Y113.809 E.01654
G1 X138.84 Y114.226 E.01805
G1 X138.386 Y114.58 E.01805
G1 X137.922 Y114.833 E.01657
G1 X137.378 Y115.051 E.01838
G1 X136.865 Y115.162 E.01646
G1 X136.239 Y115.222 E.01972
G1 X36.303 Y115.222 E3.13342
G1 X35.703 Y115.178 E.01886
G1 X35.153 Y115.054 E.01768
G1 X34.626 Y114.851 E.01771
G1 X34.136 Y114.573 E.01766
G1 X33.7 Y114.233 E.01734
G1 X33.18 Y113.66 E.02426
G1 X32.891 Y113.203 E.01695
G1 X32.661 Y112.649 E.01881
G1 X32.507 Y112.146 E.01649
G1 X32.435 Y111.562 E.01845
G1 X32.435 Y46.221 E2.04872
G1 X32.549 Y45.455 E.02428
G1 X32.802 Y44.748 E.02354
G1 X33.104 Y44.244 E.01842
G1 X33.417 Y43.82 E.01652
G1 X33.824 Y43.432 E.01763
G1 X34.459 Y43.007 E.02396
G1 X35.153 Y42.72 E.02355
G1 X35.901 Y42.571 E.02391
G1 X36.774 Y42.55 E.02738
G1 X136.081 Y42.55 E3.1137
G1 X136.547 Y42.574 E.01463
M73 P0 R146
G1 X137.103 Y42.656 E.01762
G1 X137.641 Y42.819 E.01763
G1 X138.252 Y43.118 E.02133
G1 X138.688 Y43.415 E.01654
G1 X139.106 Y43.812 E.01808
G1 X139.46 Y44.266 E.01805
G1 X139.713 Y44.729 E.01654
G1 X139.93 Y45.274 E.01839
G1 X140.041 Y45.786 E.01643
G1 X140.101 Y46.509 E.02275
G1 X140.101 Y111.2 E2.02834
G1 X140.078 Y111.668 E.01469
G1 X139.995 Y112.223 E.0176
G1 X139.811 Y112.804 E.01911
M204 S1000
G1 X140.121 Y113.03 F10800
M204 S800
G1 F1200
G1 X139.919 Y113.456 E.01478
G1 X139.645 Y113.892 E.01615
G1 X139.307 Y114.282 E.01618
G1 X138.849 Y114.697 E.01938
G1 X138.428 Y114.995 E.01617
G1 X137.968 Y115.225 E.01613
G1 X137.488 Y115.412 E.01615
G1 X136.93 Y115.533 E.0179
G1 X136.249 Y115.599 E.02145
G1 X36.289 Y115.599 E3.13417
G1 X35.647 Y115.552 E.02018
G1 X35.043 Y115.416 E.01941
G1 X34.465 Y115.193 E.01942
G1 X33.926 Y114.888 E.01942
G1 X33.443 Y114.51 E.01923
G1 X32.879 Y113.889 E.0263
G1 X32.555 Y113.377 E.019
G1 X32.313 Y112.793 E.01982
G1 X32.136 Y112.215 E.01895
G1 X32.058 Y111.585 E.0199
G1 X32.058 Y46.193 E2.05032
G1 X32.181 Y45.363 E.02631
G1 X32.459 Y44.586 E.02587
G1 X32.781 Y44.05 E.01961
G1 X33.14 Y43.563 E.01897
G1 X33.588 Y43.136 E.01941
G1 X34.281 Y42.673 E.02613
G1 X35.043 Y42.357 E.02586
G1 X35.859 Y42.195 E.02608
G1 X36.77 Y42.173 E.02857
G1 X136.081 Y42.173 E3.11382
G1 X136.574 Y42.198 E.01548
G1 X137.186 Y42.288 E.0194
G1 X137.777 Y42.468 E.01937
G1 X138.335 Y42.732 E.01935
G1 X138.772 Y43.007 E.01619
G1 X139.161 Y43.344 E.01614
G1 X139.576 Y43.802 E.01938
G1 X139.874 Y44.223 E.01617
G1 X140.153 Y44.792 E.01987
G1 X140.349 Y45.356 E.01872
G1 X140.458 Y45.98 E.01986
G1 X140.478 Y46.509 E.0166
G1 X140.478 Y111.2 E2.02834
G1 X140.454 Y111.696 E.01557
G1 X140.363 Y112.306 E.01934
G1 X140.146 Y112.976 E.02208
M204 S1000
G1 X140.461 Y113.191 F10800
M204 S800
;TYPE:External perimeter
G1 F1200
G1 X140.248 Y113.642 E.01564
G1 X139.947 Y114.117 E.01763
G1 X139.58 Y114.542 E.01761
G1 X139.081 Y114.994 E.02111
G1 X138.622 Y115.318 E.01762
G1 X138.121 Y115.57 E.01758
G1 X137.597 Y115.772 E.01761
G1 X136.994 Y115.905 E.01936
G1 X136.258 Y115.976 E.02318
G1 X36.276 Y115.976 E3.13486
G1 X35.592 Y115.926 E.0215
G1 X34.933 Y115.778 E.02118
G1 X34.303 Y115.535 E.02117
G1 X33.716 Y115.202 E.02116
G1 X33.185 Y114.788 E.02111
G1 X32.578 Y114.118 E.02835
G1 X32.219 Y113.551 E.02104
G1 X31.965 Y112.937 E.02083
G1 X31.764 Y112.284 E.02142
G1 X31.681 Y111.609 E.02132
G1 X31.681 Y46.165 E2.05195
G1 X31.814 Y45.271 E.02834
G1 X32.117 Y44.424 E.02821
G1 X32.457 Y43.856 E.02076
G1 X32.863 Y43.306 E.02143
G1 X33.351 Y42.841 E.02113
G1 X34.102 Y42.339 E.02832
G1 X34.933 Y41.995 E.0282
G1 X35.818 Y41.819 E.02829
G1 X36.765 Y41.796 E.0297
G1 X136.081 Y41.796 E3.11398
G1 X136.602 Y41.821 E.01635
G1 X137.268 Y41.92 E.02111
G1 X137.913 Y42.116 E.02114
G1 X138.521 Y42.404 E.02109
G1 X138.996 Y42.704 E.01761
G1 X139.421 Y43.071 E.01761
G1 X139.874 Y43.57 E.02113
G1 X140.197 Y44.029 E.0176
G1 X140.497 Y44.639 E.02131
G1 X140.717 Y45.268 E.02089
G1 X140.833 Y45.939 E.02135
G1 X140.855 Y46.509 E.01789
G1 X140.855 Y111.2 E2.02834
G1 X140.83 Y111.723 E.01642
G1 X140.731 Y112.388 E.02108
G1 X140.536 Y113.033 E.02113
G1 X140.486 Y113.137 E.00362
M204 S1000
G1 X140.064 Y113.239 F10800
;WIPE_START
G1 F8640
G1 X140.248 Y113.642 E-.12891
G1 X139.947 Y114.117 E-.12985
G1 X139.58 Y114.542 E-.12966
G1 X139.081 Y114.994 E-.15546
G1 X138.622 Y115.318 E-.12973
G1 X138.121 Y115.57 E-.12949
G1 X137.597 Y115.772 E-.12967
G1 X137.313 Y115.835 E-.06723
;WIPE_END
G1 Z.4 F720
G1 X137.96 Y43.148 F10800
G1 Z.2 F720
G1 E1 F2100
M204 S800
;TYPE:Solid infill
;WIDTH:0.421047
G1 F1200
G1 X138.855 Y44.042 E.03977
G1 X139.179 Y44.458 E.01658
G1 X139.339 Y44.725 E.00979
G1 X139.586 Y45.308 E.01991
G1 X137.348 Y43.07 E.09951
G1 X136.778 Y42.931 E.01845
G1 X136.666 Y42.923 E.00353
G1 X139.732 Y45.989 E.13633
G1 X139.762 Y46.553 E.01776
G1 X136.098 Y42.89 E.1629
G1 X135.563 Y42.89 E.01682
G1 X139.762 Y47.088 E.18669
G1 X139.762 Y47.623 E.01682
G1 X135.028 Y42.89 E.21047
G1 X134.494 Y42.89 E.01679
G1 X139.762 Y48.158 E.23424
G1 X139.762 Y48.692 E.01679
G1 X133.959 Y42.89 E.25801
G1 X133.424 Y42.89 E.01682
G1 X139.762 Y49.227 E.2818
G1 X139.762 Y49.762 E.01682
G1 X132.889 Y42.89 E.30558
G1 X132.355 Y42.89 E.01679
G1 X139.762 Y50.297 E.32935
G1 X139.762 Y50.831 E.01679
M73 Q0 S146
G1 X131.82 Y42.89 E.35312
G1 X131.285 Y42.89 E.01682
G1 X139.762 Y51.366 E.37691
G1 X139.762 Y51.901 E.01682
G1 X130.75 Y42.89 E.40069
G1 X130.216 Y42.89 E.01679
G1 X139.762 Y52.436 E.42446
G1 X139.762 Y52.97 E.01679
G1 X129.681 Y42.89 E.44823
G1 X129.146 Y42.89 E.01682
M73 P1 R146
M73 Q1 S146
G1 X139.762 Y53.505 E.47202
G1 X139.762 Y54.04 E.01682
G1 X128.611 Y42.89 E.49581
G1 X128.077 Y42.89 E.01679
G1 X139.762 Y54.575 E.51957
G1 X139.762 Y55.109 E.01679
G1 X127.542 Y42.89 E.54334
G1 X127.007 Y42.89 E.01682
G1 X139.762 Y55.644 E.56713
G1 X139.762 Y56.179 E.01682
G1 X126.472 Y42.89 E.59092
G1 X125.938 Y42.89 E.01679
G1 X139.762 Y56.714 E.61468
G1 X139.762 Y57.248 E.01679
G1 X125.403 Y42.89 E.63845
G1 X124.868 Y42.89 E.01682
G1 X139.762 Y57.783 E.66224
G1 X139.762 Y58.318 E.01682
G1 X124.333 Y42.89 E.68603
G1 X123.799 Y42.89 E.01679
G1 X139.762 Y58.853 E.70979
G1 X139.762 Y59.387 E.01679
M73 P1 R145
G1 X123.264 Y42.89 E.73356
G1 X122.729 Y42.89 E.01682
G1 X139.762 Y59.922 E.75735
G1 X139.762 Y60.457 E.01682
G1 X122.194 Y42.89 E.78114
G1 X121.66 Y42.89 E.01679
G1 X139.762 Y60.992 E.8049
G1 X139.762 Y61.526 E.01679
G1 X121.125 Y42.89 E.82867
G1 X120.59 Y42.89 E.01682
G1 X139.762 Y62.061 E.85246
G1 X139.762 Y62.596 E.01682
G1 X120.055 Y42.89 E.87625
G1 X119.521 Y42.89 E.01679
G1 X139.762 Y63.131 E.90001
G1 X139.762 Y63.665 E.01679
G1 X118.986 Y42.89 E.92378
G1 X118.451 Y42.89 E.01682
G1 X139.762 Y64.2 E.94757
G1 X139.762 Y64.735 E.01682
G1 X117.916 Y42.89 E.97136
G1 X117.382 Y42.89 E.01679
G1 X139.762 Y65.27 E.99512
G1 X139.762 Y65.804 E.01679
G1 X116.847 Y42.89 E1.01889
G1 X116.312 Y42.89 E.01682
G1 X139.762 Y66.339 E1.04268
G1 X139.762 Y66.874 E.01682
G1 X115.777 Y42.89 E1.06647
G1 X115.243 Y42.89 E.01679
G1 X139.762 Y67.409 E1.09023
G1 X139.762 Y67.944 E.01682
G1 X114.708 Y42.89 E1.11402
G1 X114.173 Y42.89 E.01682
G1 X139.762 Y68.478 E1.13779
G1 X139.762 Y69.013 E.01682
G1 X113.638 Y42.89 E1.16158
G1 X113.104 Y42.89 E.01679
G1 X139.762 Y69.548 E1.18534
G1 X139.762 Y70.083 E.01682
G1 X112.569 Y42.89 E1.20913
G1 X112.034 Y42.89 E.01682
G1 X139.762 Y70.617 E1.2329
G1 X139.762 Y71.152 E.01682
G1 X111.499 Y42.89 E1.25669
G1 X110.965 Y42.89 E.01679
G1 X139.762 Y71.687 E1.28045
G1 X139.762 Y72.222 E.01682
G1 X110.43 Y42.89 E1.30424
G1 X109.895 Y42.89 E.01682
G1 X139.762 Y72.756 E1.32801
G1 X139.762 Y73.291 E.01682
G1 X109.36 Y42.89 E1.3518
G1 X108.826 Y42.89 E.01679
M73 Q1 S145
G1 X139.762 Y73.826 E1.37556
G1 X139.762 Y74.361 E.01682
G1 X108.291 Y42.89 E1.39935
G1 X107.756 Y42.89 E.01682
G1 X139.762 Y74.895 E1.42312
G1 X139.762 Y75.43 E.01682
G1 X107.221 Y42.89 E1.44691
G1 X106.687 Y42.89 E.01679
G1 X139.762 Y75.965 E1.47067
G1 X139.762 Y76.5 E.01682
G1 X106.152 Y42.89 E1.49446
G1 X105.617 Y42.89 E.01682
M73 P1 R144
G1 X139.762 Y77.034 E1.51823
G1 X139.762 Y77.569 E.01682
G1 X105.082 Y42.89 E1.54202
G1 X104.548 Y42.89 E.01679
G1 X139.762 Y78.104 E1.56578
G1 X139.762 Y78.639 E.01682
G1 X104.013 Y42.89 E1.58957
G1 X103.478 Y42.89 E.01682
G1 X139.762 Y79.173 E1.61334
G1 X139.762 Y79.708 E.01682
G1 X102.943 Y42.89 E1.63713
G1 X102.409 Y42.89 E.01679
G1 X139.762 Y80.243 E1.6609
G1 X139.762 Y80.778 E.01682
M73 P2 R144
M73 Q2 S145
G1 X101.874 Y42.89 E1.68468
G1 X101.339 Y42.89 E.01682
G1 X139.762 Y81.312 E1.70845
G1 X139.762 Y81.847 E.01682
G1 X100.804 Y42.89 E1.73224
G1 X100.27 Y42.89 E.01679
G1 X139.762 Y82.382 E1.75601
G1 X139.762 Y82.917 E.01682
G1 X99.735 Y42.89 E1.77979
G1 X99.2 Y42.89 E.01682
G1 X139.762 Y83.451 E1.80356
G1 X139.762 Y83.986 E.01682
G1 X98.665 Y42.89 E1.82735
G1 X98.131 Y42.89 E.01679
G1 X139.762 Y84.521 E1.85112
G1 X139.762 Y85.056 E.01682
G1 X97.596 Y42.89 E1.8749
G1 X97.061 Y42.89 E.01682
G1 X139.762 Y85.59 E1.89867
G1 X139.762 Y86.125 E.01682
M73 Q2 S144
G1 X96.526 Y42.89 E1.92246
G1 X95.992 Y42.89 E.01679
G1 X139.762 Y86.66 E1.94623
G1 X139.762 Y87.195 E.01682
G1 X95.457 Y42.89 E1.97001
G1 X94.922 Y42.89 E.01682
G1 X139.762 Y87.729 E1.99378
G1 X139.762 Y88.264 E.01682
M73 P2 R143
G1 X94.387 Y42.89 E2.01757
G1 X93.853 Y42.89 E.01679
G1 X139.762 Y88.799 E2.04134
G1 X139.762 Y89.334 E.01682
G1 X93.318 Y42.89 E2.06513
G1 X92.783 Y42.89 E.01682
G1 X139.762 Y89.868 E2.08889
G1 X139.762 Y90.403 E.01682
G1 X92.248 Y42.89 E2.11268
G1 X91.714 Y42.89 E.01679
G1 X139.762 Y90.938 E2.13645
G1 X139.762 Y91.473 E.01682
G1 X91.179 Y42.89 E2.16024
G1 X90.644 Y42.89 E.01682
G1 X139.762 Y92.007 E2.184
G1 X139.762 Y92.542 E.01682
G1 X90.109 Y42.89 E2.20779
G1 X89.575 Y42.89 E.01679
G1 X139.762 Y93.077 E2.23156
G1 X139.762 Y93.612 E.01682
G1 X89.04 Y42.89 E2.25535
G1 X88.505 Y42.89 E.01682
G1 X139.762 Y94.146 E2.27911
G1 X139.762 Y94.681 E.01682
G1 X87.97 Y42.89 E2.3029
G1 X87.435 Y42.89 E.01682
G1 X139.762 Y95.216 E2.32669
G1 X139.762 Y95.751 E.01682
M73 P3 R143
M73 Q3 S143
G1 X86.901 Y42.89 E2.35046
G1 X86.366 Y42.89 E.01682
G1 X139.762 Y96.285 E2.37422
G1 X139.762 Y96.82 E.01682
G1 X85.831 Y42.89 E2.39801
G1 X85.296 Y42.89 E.01682
M73 P3 R142
G1 X139.762 Y97.355 E2.4218
G1 X139.762 Y97.89 E.01682
G1 X84.762 Y42.89 E2.44557
G1 X84.227 Y42.89 E.01682
G1 X139.762 Y98.424 E2.46933
G1 X139.762 Y98.959 E.01682
G1 X83.692 Y42.89 E2.49312
G1 X83.157 Y42.89 E.01682
G1 X139.762 Y99.494 E2.51691
G1 X139.762 Y100.029 E.01682
G1 X82.623 Y42.89 E2.54068
G1 X82.088 Y42.89 E.01682
G1 X139.762 Y100.563 E2.56444
G1 X139.762 Y101.098 E.01682
G1 X81.553 Y42.89 E2.58823
G1 X81.018 Y42.89 E.01682
G1 X139.762 Y101.633 E2.61202
G1 X139.762 Y102.168 E.01682
G1 X80.484 Y42.89 E2.63579
G1 X79.949 Y42.89 E.01682
G1 X139.762 Y102.702 E2.65955
G1 X139.762 Y103.237 E.01682
G1 X79.414 Y42.89 E2.68334
G1 X78.879 Y42.89 E.01682
M73 Q3 S142
G1 X139.762 Y103.772 E2.70713
G1 X139.762 Y104.307 E.01682
G1 X78.345 Y42.89 E2.7309
G1 X77.81 Y42.89 E.01682
G1 X139.762 Y104.841 E2.75466
G1 X139.762 Y105.376 E.01682
M73 P3 R141
G1 X77.275 Y42.89 E2.77845
G1 X76.74 Y42.89 E.01682
G1 X139.762 Y105.911 E2.80224
G1 X139.762 Y106.446 E.01682
G1 X76.206 Y42.89 E2.82601
G1 X75.671 Y42.89 E.01682
M73 P4 R141
G1 X139.762 Y106.98 E2.84977
G1 X139.762 Y107.515 E.01682
M73 Q4 S142
G1 X75.136 Y42.89 E2.87356
G1 X74.601 Y42.89 E.01682
G1 X139.762 Y108.05 E2.89735
G1 X139.762 Y108.585 E.01682
G1 X74.067 Y42.89 E2.92112
G1 X73.532 Y42.89 E.01682
G1 X139.762 Y109.119 E2.94488
G1 X139.762 Y109.654 E.01682
G1 X72.997 Y42.89 E2.96867
G1 X72.462 Y42.89 E.01682
G1 X139.762 Y110.189 E2.99246
G1 X139.762 Y110.724 E.01682
M73 Q4 S141
G1 X71.928 Y42.89 E3.01623
G1 X71.393 Y42.89 E.01682
G1 X139.762 Y111.258 E3.03999
G1 X139.73 Y111.762 E.01588
G1 X70.858 Y42.89 E3.06238
G1 X70.323 Y42.89 E.01682
M73 P4 R140
G1 X139.649 Y112.215 E3.08255
G1 X139.608 Y112.399 E.00593
G1 X139.522 Y112.623 E.00754
G1 X69.789 Y42.89 E3.10067
G1 X69.254 Y42.89 E.01682
G1 X139.358 Y112.994 E3.11716
G1 X139.165 Y113.335 E.01232
G1 X68.719 Y42.89 E3.13235
G1 X68.184 Y42.89 E.01682
G1 X138.932 Y113.637 E3.14578
G1 X138.671 Y113.911 E.0119
G1 X67.65 Y42.89 E3.15794
G1 X67.115 Y42.89 E.01682
G1 X138.38 Y114.154 E3.16876
G1 X138.193 Y114.3 E.00746
G1 X138.067 Y114.376 E.00463
G1 X66.58 Y42.89 E3.17864
G1 X66.045 Y42.89 E.01682
G1 X137.711 Y114.555 E3.18659
G1 X137.331 Y114.71 E.0129
M73 P5 R140
M73 Q5 S140
G1 X65.511 Y42.89 E3.19346
G1 X64.976 Y42.89 E.01682
G1 X136.898 Y114.812 E3.198
G1 X136.592 Y114.865 E.00976
G1 X136.425 Y114.873 E.00526
G1 X64.441 Y42.89 E3.20073
G1 X63.906 Y42.89 E.01682
M73 P5 R139
G1 X135.899 Y114.882 E3.20113
G1 X135.365 Y114.882 E.01679
G1 X63.372 Y42.89 E3.20113
G1 X62.837 Y42.89 E.01682
G1 X134.83 Y114.882 E3.20113
G1 X134.295 Y114.882 E.01682
G1 X62.302 Y42.89 E3.20113
G1 X61.767 Y42.89 E.01682
G1 X133.76 Y114.882 E3.20113
G1 X133.226 Y114.882 E.01679
G1 X61.233 Y42.89 E3.20113
