; generated by PrusaSlicer 2.6.1+linux-x64-GTK3 on 2023-11-11 at 16:12:42 UTC


;
;
; 

; external perimeters extrusion width = 0.45mm
; perimeters extrusion width = 0.45mm
; infill extrusion width = 0.45mm
; solid infill extrusion width = 0.45mm
; top infill extrusion width = 0.40mm
; first layer extrusion width = 0.42mm

M73 P0 R10
M73 Q0 S10
M201 X1000 Y1000 Z200 E5000 ; sets maximum accelerations, mm/sec^2
M203 X200 Y200 Z12 E120 ; sets maximum feedrates, mm / sec
M204 S1250 T1250 ; sets acceleration (S) and retract acceleration (R), mm/sec^2
M205 X8.00 Y8.00 Z0.40 E4.50 ; sets the jerk limits, mm/sec
M205 S0 T0 ; sets the minimum extruding and travel feed rate, mm/sec
;TYPE:Custom
M862.3 P "MK3S" ; printer model check
M862.1 P0.4 ; nozzle diameter check
M115 U3.13.2 ; tell printer latest fw version
G90 ; use absolute coordinates
M83 ; extruder relative mode
M104 S240 ; set extruder temp
M140 S85 ; set bed temp
M190 S85 ; wait for bed temp
M109 S240 ; wait for extruder temp
G28 W ; home all without mesh bed level
G80 ; mesh bed leveling

G1 Z0.2 F720
G1 Y-3 F1000 ; go outside print area
G92 E0
G1 X60 E9 F1000 ; intro line
G1 X100 E12.5 F1000 ; intro line

G92 E0
M221 S95

; Don't change E values below. Excessive value can damage the printer.

M907 E538 ; set extruder motor current
G21 ; set units to millimeters
G90 ; use absolute coordinates
M83 ; use relative distances for extrusion
M900 K0.08 ; Filament gcode LA 1.5
M900 K45 ; Filament gcode LA 1.0

M107
;LAYER_CHANGE
;Z:0.2
;HEIGHT:0.2
;BEFORE_LAYER_CHANGE
G92 E0.0
;0.2


G1 E-1 F2100
M73 P1 R9
M73 Q1 S9
G1 Z.2 F720
;AFTER_LAYER_CHANGE
;0.2
G1 Z.4
G1 X108.419 Y86.407 F10800
G1 Z.2 F720
G1 E1 F2100
M204 S800
;TYPE:Skirt/Brim
;WIDTH:0.42
G1 F1200
G1 X111.407 Y83.419 E.13249
G1 X113.088 Y82.723 E.05705
G1 X136.912 Y82.723 E.74698
G1 X138.593 Y83.419 E.05705
G1 X141.581 Y86.407 E.13249
G1 X142.277 Y88.088 E.05705
G1 X142.277 Y121.912 E1.06053
G1 X141.581 Y123.593 E.05705
G1 X138.593 Y126.581 E.13249
G1 X136.912 Y127.277 E.05705
G1 X113.088 Y127.277 E.74698
G1 X111.407 Y126.581 E.05705
M73 P2 R9
M73 Q2 S9
G1 X108.419 Y123.593 E.13249
G1 X107.723 Y121.912 E.05705
G1 X107.723 Y88.088 E1.06053
G1 X108.396 Y86.462 E.05518
M204 S1000
;WIPE_START
G1 F8640
G1 X111.407 Y83.419 E-.98847
G1 X111.453 Y83.4 E-.01153
;WIPE_END
G1 Z.4 F720
G1 X111.059 Y87.711 F10800
G1 Z.2 F720
G1 E1 F2100
M204 S800
G1 F1200
G1 X111.853 Y86.736 E.03942
G1 X112.604 Y86.117 E.03051
G1 X114.736 Y85.386 E.07067
G1 X135.19 Y85.39 E.64132
G1 X136.21 Y85.584 E.03255
G1 X137.188 Y86 E.03332
G1 X138.312 Y86.896 E.04507
G1 X139.205 Y88.234 E.05044
G1 X139.613 Y89.779 E.0501
G1 X139.613 Y120.219 E.95442
G1 X139.297 Y121.53 E.04228
M73 Q3 S9
G1 X138.938 Y122.295 E.0265
G1 X138.147 Y123.264 E.03922
G1 X137.397 Y123.883 E.03049
M73 P3 R9
G1 X135.265 Y124.613 E.07066
G1 X114.781 Y124.613 E.64226
G1 X113.47 Y124.297 E.04228
G1 X112.705 Y123.938 E.0265
G1 X111.736 Y123.147 E.03922
G1 X111.117 Y122.397 E.03049
G1 X110.387 Y120.265 E.07066
G1 X110.387 Y89.781 E.9558
G1 X110.703 Y88.47 E.04228
G1 X111.033 Y87.765 E.02441
M204 S1000
G1 X111.374 Y87.927 F10800
M204 S800
G1 F1200
G1 X112.132 Y86.991 E.03776
G1 X112.816 Y86.431 E.02772
G1 X114.767 Y85.764 E.06465
G1 X135.171 Y85.767 E.63975
G1 X136.117 Y85.95 E.03021
G1 X137.015 Y86.336 E.03065
G1 X138.053 Y87.171 E.04177
G1 X138.849 Y88.362 E.04492
G1 X139.236 Y89.804 E.04681
G1 X139.236 Y120.196 E.95292
G1 X138.936 Y121.421 E.03954
M73 P4 R9
M73 Q4 S9
G1 X138.608 Y122.112 E.02398
G1 X137.868 Y123.009 E.03646
G1 X137.184 Y123.569 E.02772
G1 X135.234 Y124.236 E.06462
G1 X114.804 Y124.236 E.64057
G1 X113.579 Y123.936 E.03954
G1 X112.888 Y123.608 E.02398
G1 X111.991 Y122.868 E.03646
G1 X111.431 Y122.184 E.02772
G1 X110.764 Y120.234 E.06462
G1 X110.764 Y89.804 E.95411
G1 X111.064 Y88.579 E.03954
G1 X111.348 Y87.981 E.02076
M204 S1000
G1 X111.687 Y88.144 F10800
M204 S800
G1 F1200
G1 X111.721 Y88.073 E.00247
G1 X112.409 Y87.247 E.03371
G1 X113.027 Y86.745 E.02496
G1 X114.798 Y86.141 E.05867
G1 X135.152 Y86.144 E.63819
G1 X136.024 Y86.316 E.02787
G1 X136.84 Y86.671 E.0279
G1 X137.793 Y87.445 E.03849
G1 X138.517 Y88.543 E.04124
G1 X138.859 Y89.828 E.04169
G1 X138.859 Y120.172 E.95141
G1 X138.575 Y121.31 E.03678
M73 P5 R9
M73 Q5 S9
G1 X138.279 Y121.927 E.02146
G1 X137.591 Y122.753 E.03371
G1 X136.973 Y123.255 E.02496
G1 X135.203 Y123.859 E.05864
G1 X114.828 Y123.859 E.63884
G1 X113.69 Y123.575 E.03678
G1 X113.073 Y123.279 E.02146
G1 X112.247 Y122.591 E.03371
G1 X111.745 Y121.973 E.02496
G1 X111.141 Y120.203 E.05864
G1 X111.141 Y89.828 E.95239
G1 X111.425 Y88.69 E.03678
G1 X111.661 Y88.198 E.01711
M204 S1000
G1 X112 Y88.363 F10800
M204 S800
G1 F1200
G1 X112.05 Y88.26 E.00359
G1 X112.685 Y87.504 E.03096
G1 X113.238 Y87.059 E.02226
G1 X114.829 Y86.518 E.05269
G1 X135.133 Y86.521 E.63662
G1 X135.929 Y86.681 E.02546
G1 X136.664 Y87.005 E.02519
G1 X137.53 Y87.717 E.03515
G1 X138.185 Y88.723 E.03764
G1 X138.482 Y89.852 E.0366
G1 X138.482 Y120.148 E.94991
G1 X138.215 Y121.197 E.03394
M73 P6 R9
M73 Q6 S9
G1 X137.95 Y121.74 E.01894
G1 X137.315 Y122.496 E.03096
G1 X136.762 Y122.941 E.02226
G1 X135.172 Y123.482 E.05266
G1 X114.852 Y123.482 E.63712
G1 X113.803 Y123.215 E.03394
G1 X113.26 Y122.95 E.01894
G1 X112.504 Y122.315 E.03096
G1 X112.059 Y121.762 E.02226
G1 X111.518 Y120.172 E.05266
G1 X111.518 Y89.852 E.95066
G1 X111.785 Y88.803 E.03394
G1 X111.973 Y88.416 E.01349
M204 S1000
G1 X112.31 Y88.583 F10800
M204 S800
G1 F1200
G1 X112.377 Y88.449 E.0047
G1 X112.96 Y87.763 E.02823
G1 X113.447 Y87.375 E.01952
G1 X114.86 Y86.895 E.04679
G1 X135.115 Y86.898 E.63508
G1 X135.796 Y87.035 E.02178
G1 X136.487 Y87.339 E.02367
G1 X137.267 Y87.988 E.03181
G1 X137.829 Y88.85 E.03226
G1 X138.105 Y89.878 E.03337
G1 X138.105 Y120.124 E.94834
G1 X137.855 Y121.083 E.03107
M73 P7 R9
M73 Q7 S9
G1 X137.623 Y121.551 E.01638
G1 X137.04 Y122.237 E.02823
G1 X136.553 Y122.625 E.01952
G1 X135.141 Y123.105 E.04676
G1 X114.876 Y123.105 E.63539
G1 X113.917 Y122.855 E.03107
G1 X113.449 Y122.623 E.01638
G1 X112.763 Y122.04 E.02823
G1 X112.375 Y121.553 E.01952
G1 X111.895 Y120.141 E.04676
G1 X111.895 Y89.876 E.94894
G1 X112.145 Y88.917 E.03107
G1 X112.284 Y88.637 E.0098
M204 S1000
G1 X112.619 Y88.806 F10800
M204 S800
G1 F1200
G1 X112.702 Y88.64 E.00582
G1 X113.233 Y88.023 E.02552
G1 X113.654 Y87.691 E.01681
G1 X114.89 Y87.272 E.04092
G1 X135.095 Y87.276 E.63351
G1 X135.699 Y87.4 E.01933
G1 X136.308 Y87.672 E.02091
G1 X137.001 Y88.257 E.02844
G1 X137.495 Y89.028 E.02871
G1 X137.728 Y89.902 E.02836
G1 X137.728 Y120.098 E.94677
G1 X137.496 Y120.965 E.02814
M73 P8 R9
M73 Q8 S9
G1 X137.298 Y121.36 E.01385
G1 X136.767 Y121.977 E.02552
G1 X136.346 Y122.309 E.01681
G1 X135.11 Y122.728 E.04092
G1 X114.902 Y122.728 E.63361
G1 X114.035 Y122.496 E.02814
G1 X113.64 Y122.298 E.01385
G1 X113.023 Y121.767 E.02552
G1 X112.691 Y121.346 E.01681
G1 X112.272 Y120.11 E.04092
G1 X112.272 Y89.902 E.94715
G1 X112.504 Y89.035 E.02814
G1 X112.592 Y88.859 E.00617
M204 S1000
G1 X112.926 Y89.03 F10800
M204 S800
G1 F1200
G1 X113.027 Y88.834 E.00691
G1 X113.505 Y88.286 E.0228
G1 X113.861 Y88.008 E.01416
G1 X114.921 Y87.649 E.03509
G1 X135.075 Y87.653 E.63191
G1 X135.599 Y87.764 E.01679
G1 X136.127 Y88.004 E.01819
G1 X136.734 Y88.525 E.02508
G1 X137.139 Y89.156 E.02351
G1 X137.351 Y89.928 E.0251
G1 X137.351 Y120.072 E.94514
G1 X137.138 Y120.845 E.02514
M73 P9 R9
M73 Q9 S9
G1 X136.973 Y121.166 E.01132
G1 X136.495 Y121.714 E.0228
G1 X136.139 Y121.992 E.01416
G1 X135.079 Y122.351 E.03509
G1 X114.928 Y122.351 E.63182
G1 X114.155 Y122.138 E.02514
G1 X113.834 Y121.973 E.01132
G1 X113.286 Y121.495 E.0228
G1 X113.008 Y121.139 E.01416
G1 X112.649 Y120.079 E.03509
G1 X112.649 Y89.928 E.94536
G1 X112.862 Y89.155 E.02514
G1 X112.898 Y89.084 E.0025
M204 S1000
G1 X113.229 Y89.258 F10800
M204 S800
G1 F1200
G1 X113.349 Y89.03 E.00808
G1 X113.774 Y88.55 E.0201
G1 X114.065 Y88.326 E.01151
G1 X114.952 Y88.026 E.02936
G1 X135.053 Y88.03 E.63025
G1 X135.497 Y88.127 E.01425
G1 X135.943 Y88.334 E.01542
G1 X136.466 Y88.791 E.02178
G1 X136.785 Y89.286 E.01846
G1 X136.974 Y89.955 E.0218
G1 X136.974 Y120.045 E.94345
G1 X136.782 Y120.722 E.02206
M73 P10 R9
M73 Q10 S9
G1 X136.651 Y120.97 E.00879
G1 X136.226 Y121.45 E.0201
G1 X135.935 Y121.674 E.01151
G1 X135.048 Y121.974 E.02936
G1 X114.955 Y121.974 E.63
G1 X114.278 Y121.782 E.02206
G1 X114.03 Y121.651 E.00879
G1 X113.55 Y121.226 E.0201
G1 X113.326 Y120.935 E.01151
G1 X113.026 Y120.048 E.02936
G1 X113.026 Y89.955 E.94354
G1 X113.208 Y89.314 E.02089
M204 S1000
G1 X113.569 Y89.421 F10800
M204 S800
G1 F1200
G1 X113.669 Y89.231 E.00673
G1 X114.041 Y88.816 E.01747
G1 X114.268 Y88.645 E.00891
G1 X114.983 Y88.403 E.02367
G1 X135.031 Y88.407 E.62859
G1 X135.391 Y88.49 E.01158
M73 P10 R8
G1 X135.756 Y88.662 E.01265
G1 X136.196 Y89.054 E.01848
G1 X136.431 Y89.42 E.01364
G1 X136.597 Y89.983 E.0184
G1 X136.597 Y120.017 E.94169
G1 X136.426 Y120.594 E.01887
M73 Q10 S8
G1 X136.331 Y120.769 E.00624
G1 X135.959 Y121.184 E.01747
G1 X135.732 Y121.355 E.00891
G1 X135.017 Y121.597 E.02367
G1 X114.983 Y121.597 E.62815
G1 X114.406 Y121.426 E.01887
M73 P11 R8
M73 Q11 S8
G1 X114.231 Y121.331 E.00624
G1 X113.816 Y120.959 E.01747
G1 X113.645 Y120.732 E.00891
G1 X113.403 Y120.017 E.02367
G1 X113.403 Y89.983 E.94169
G1 X113.552 Y89.478 E.01651
M204 S1000
G1 X113.911 Y89.589 F10800
M204 S800
G1 F1200
G1 X113.985 Y89.438 E.00527
G1 X114.306 Y89.085 E.01496
G1 X114.467 Y88.966 E.00628
G1 X115.014 Y88.78 E.01812
G1 X135.009 Y88.784 E.62693
G1 X135.247 Y88.839 E.00766
G1 X135.568 Y88.991 E.01114
G1 X135.923 Y89.315 E.01507
G1 X136.079 Y89.557 E.00903
G1 X136.22 Y90.012 E.01494
G1 X136.22 Y119.988 E.93988
G1 X136.073 Y120.46 E.0155
G1 X136.015 Y120.562 E.00368
G1 X135.694 Y120.915 E.01496
G1 X135.533 Y121.034 E.00628
G1 X134.986 Y121.22 E.01812
G1 X115.012 Y121.22 E.62627
G1 X114.54 Y121.073 E.0155
M73 P12 R8
M73 Q12 S8
G1 X114.438 Y121.015 E.00368
G1 X114.085 Y120.694 E.01496
G1 X113.966 Y120.533 E.00628
G1 X113.78 Y119.986 E.01812
G1 X113.78 Y90.012 E.93981
G1 X113.894 Y89.647 E.01199
M204 S1000
G1 X114.25 Y89.764 F10800
M204 S800
G1 F1200
G1 X114.295 Y89.652 E.00378
G1 X114.568 Y89.357 E.0126
G1 X114.663 Y89.289 E.00366
G1 X115.046 Y89.157 E.0127
G1 X134.987 Y89.161 E.62524
G1 X135.104 Y89.188 E.00376
G1 X135.378 Y89.318 E.00951
G1 X135.647 Y89.573 E.01162
G1 X135.73 Y89.7 E.00476
G1 X135.843 Y90.044 E.01135
G1 X135.843 Y119.956 E.93787
G1 X135.705 Y120.348 E.01303
G1 X135.432 Y120.643 E.0126
G1 X135.337 Y120.711 E.00366
G1 X134.954 Y120.843 E.0127
G1 X115.044 Y120.843 E.62426
G1 X114.652 Y120.705 E.01303
G1 X114.357 Y120.432 E.0126
G1 X114.289 Y120.337 E.00366
G1 X114.157 Y119.954 E.0127
G1 X114.157 Y90.044 E.93781
G1 X114.231 Y89.821 E.00737
M204 S1000
M73 P13 R8
M73 Q13 S8
G1 X114.582 Y89.947 F10800
M204 S800
G1 F1200
G1 X114.611 Y89.866 E.0027
G1 X114.828 Y89.632 E.01001
G1 X115.079 Y89.534 E.00845
G1 X134.935 Y89.534 E.62257
G1 X135.185 Y89.644 E.00856
G1 X135.366 Y89.825 E.00803
G1 X135.466 Y90.079 E.00856
G1 X135.466 Y119.921 E.93567
G1 X135.389 Y120.134 E.0071
G1 X135.172 Y120.368 E.01001
G1 X134.921 Y120.466 E.00845
G1 X115.079 Y120.466 E.62213
G1 X114.866 Y120.389 E.0071
G1 X114.632 Y120.172 E.01001
G1 X114.534 Y119.921 E.00845
G1 X114.534 Y90.079 E.93567
G1 X114.562 Y90.003 E.00254
M204 S1000
M73 P14 R8
M73 Q14 S8
G1 X114.911 Y90.121 F10800
M204 S800
G1 F1200
G1 X114.94 Y90.052 E.00235
G1 X115.052 Y89.94 E.00497
G1 X115.121 Y89.911 E.00235
G1 X134.879 Y89.911 E.6195
G1 X134.948 Y89.94 E.00235
G1 X135.06 Y90.052 E.00497
G1 X135.089 Y90.121 E.00235
G1 X135.089 Y119.879 E.93304
G1 X135.06 Y119.948 E.00235
G1 X134.948 Y120.06 E.00497
G1 X134.879 Y120.089 E.00235
G1 X115.121 Y120.089 E.6195
G1 X115.052 Y120.06 E.00235
G1 X114.94 Y119.948 E.00497
G1 X114.911 Y119.879 E.00235
G1 X114.911 Y90.181 E.93116
M204 S1000
; printing object Small_SD_Test-Part.stl id:0 copy 0
;WIPE_START
G1 F8640
G1 X114.94 Y90.052 E-.03053
G1 X115.052 Y89.94 E-.03657
G1 X115.121 Y89.911 E-.01728
G1 X119.086 Y89.911 E-.91562
;WIPE_END
G1 Z.4 F720
G1 X134.213 Y119.213 F10800
G1 Z.2 F720
G1 E1 F2100
M204 S800
;TYPE:Perimeter
;WIDTH:0.419999
G1 F1200
G1 X115.787 Y119.213 E.57773
G1 X115.787 Y90.787 E.89128
M73 P15 R8
M73 Q15 S8
G1 X134.213 Y90.787 E.57773
G1 X134.213 Y119.153 E.88939
M204 S1000
G1 X134.59 Y119.59 F10800
M204 S800
;TYPE:External perimeter
G1 F1200
G1 X115.41 Y119.59 E.60137
G1 X115.41 Y90.41 E.91492
G1 X134.59 Y90.41 E.60137
M73 P16 R8
M73 Q16 S8
G1 X134.59 Y119.53 E.91304
M204 S1000
G1 X134.212 Y119.46 F10800
;WIPE_START
G1 F8640
G1 X130.259 Y119.544 E-1
;WIPE_END
G1 Z.4 F720
G1 X134.043 Y91.726 F10800
G1 Z.2 F720
G1 E1 F2100
M204 S800
;TYPE:Solid infill
;WIDTH:0.423181
G1 F1200
G1 X133.444 Y91.126 E.02681
G1 X132.906 Y91.126 E.01701
G1 X133.874 Y92.094 E.04328
G1 X133.874 Y92.632 E.01701
G1 X132.368 Y91.126 E.06734
G1 X131.831 Y91.126 E.01698
G1 X133.874 Y93.169 E.09135
G1 X133.874 Y93.707 E.01701
G1 X131.293 Y91.126 E.11541
G1 X130.755 Y91.126 E.01701
G1 X133.874 Y94.245 E.13947
G1 X133.874 Y94.783 E.01701
G1 X130.217 Y91.126 E.16353
G1 X129.68 Y91.126 E.01698
G1 X133.874 Y95.32 E.18754
G1 X133.874 Y95.858 E.01701
G1 X129.142 Y91.126 E.2116
G1 X128.604 Y91.126 E.01701
M73 Q17 S8
G1 X133.874 Y96.396 E.23565
G1 X133.874 Y96.934 E.01701
M73 P17 R8
G1 X128.066 Y91.126 E.25971
G1 X127.528 Y91.126 E.01701
G1 X133.874 Y97.472 E.28377
G1 X133.874 Y98.009 E.01698
G1 X126.991 Y91.126 E.30778
G1 X126.453 Y91.126 E.01701
G1 X133.874 Y98.547 E.33184
G1 X133.874 Y99.085 E.01701
G1 X125.915 Y91.126 E.35589
G1 X125.377 Y91.126 E.01701
G1 X133.874 Y99.623 E.37995
G1 X133.874 Y100.16 E.01698
G1 X124.84 Y91.126 E.40396
G1 X124.302 Y91.126 E.01701
G1 X133.874 Y100.698 E.42802
G1 X133.874 Y101.236 E.01701
G1 X123.764 Y91.126 E.45208
G1 X123.226 Y91.126 E.01701
G1 X133.874 Y101.774 E.47613
G1 X133.874 Y102.312 E.01701
M73 P18 R8
M73 Q18 S8
G1 X122.689 Y91.126 E.50017
G1 X122.151 Y91.126 E.01701
G1 X133.874 Y102.849 E.5242
G1 X133.874 Y103.387 E.01701
G1 X121.613 Y91.126 E.54826
G1 X121.075 Y91.126 E.01701
G1 X133.874 Y103.925 E.57232
G1 X133.874 Y104.463 E.01701
G1 X120.537 Y91.126 E.59637
G1 X120 Y91.126 E.01698
G1 X133.874 Y105 E.62039
G1 X133.874 Y105.538 E.01701
M73 Q19 S8
G1 X119.462 Y91.126 E.64444
M73 P19 R8
G1 X118.924 Y91.126 E.01701
G1 X133.874 Y106.076 E.6685
G1 X133.874 Y106.614 E.01701
G1 X118.386 Y91.126 E.69256
G1 X117.849 Y91.126 E.01698
G1 X133.874 Y107.151 E.71657
G1 X133.874 Y107.689 E.01701
G1 X117.311 Y91.126 E.74063
G1 X116.773 Y91.126 E.01701
G1 X133.874 Y108.227 E.76468
G1 X133.874 Y108.765 E.01701
M73 P20 R8
M73 Q20 S8
G1 X116.235 Y91.126 E.78874
G1 X116.126 Y91.126 E.00345
G1 X116.126 Y91.555 E.01356
G1 X133.874 Y109.303 E.79362
G1 X133.874 Y109.84 E.01698
M73 P20 R7
G1 X116.126 Y92.093 E.79359
G1 X116.126 Y92.631 E.01701
M73 Q20 S7
G1 X133.874 Y110.378 E.79359
G1 X133.874 Y110.916 E.01701
M73 P21 R7
M73 Q21 S7
G1 X116.126 Y93.169 E.79359
G1 X116.126 Y93.706 E.01698
G1 X133.874 Y111.454 E.79362
G1 X133.874 Y111.991 E.01698
G1 X116.126 Y94.244 E.79359
G1 X116.126 Y94.782 E.01701
G1 X133.874 Y112.529 E.79359
G1 X133.874 Y113.067 E.01701
G1 X116.126 Y95.32 E.79359
G1 X116.126 Y95.858 E.01701
M73 P22 R7
M73 Q22 S7
G1 X133.874 Y113.605 E.79359
G1 X133.874 Y114.142 E.01698
G1 X116.126 Y96.395 E.79359
G1 X116.126 Y96.933 E.01701
G1 X133.874 Y114.68 E.79359
G1 X133.874 Y115.218 E.01701
G1 X116.126 Y97.471 E.79359
G1 X116.126 Y98.009 E.01701
G1 X133.874 Y115.756 E.79359
G1 X133.874 Y116.294 E.01701
M73 P23 R7
M73 Q23 S7
G1 X116.126 Y98.546 E.79362
G1 X116.126 Y99.084 E.01701
G1 X133.874 Y116.831 E.79359
G1 X133.874 Y117.369 E.01701
G1 X116.126 Y99.622 E.79359
G1 X116.126 Y100.16 E.01701
G1 X133.874 Y117.907 E.79359
G1 X133.874 Y118.445 E.01701
M73 P24 R7
M73 Q24 S7
G1 X116.126 Y100.698 E.79359
G1 X116.126 Y101.235 E.01698
G1 X133.765 Y118.874 E.78874
G1 X133.227 Y118.874 E.01701
G1 X116.126 Y101.773 E.76468
G1 X116.126 Y102.311 E.01701
G1 X132.689 Y118.874 E.74063
G1 X132.151 Y118.874 E.01701
G1 X116.126 Y102.849 E.71657
G1 X116.126 Y103.386 E.01698
