; generated by PrusaSlicer 2.7.4+win64 on 2024-04-14 at 15:52:39 UTC


;
;
; 

; external perimeters extrusion width = 0.45mm
; perimeters extrusion width = 0.45mm
; infill extrusion width = 0.45mm
; solid infill extrusion width = 0.45mm
; top infill extrusion width = 0.40mm
; first layer extrusion width = 0.42mm

M73 P0 R68
M73 Q0 S69
M201 X1000 Y1000 Z200 E5000 ; sets maximum accelerations, mm/sec^2
M203 X200 Y200 Z12 E120 ; sets maximum feedrates, mm / sec
M204 S1250 T1250 ; sets acceleration (S) and retract acceleration (R), mm/sec^2
M205 X8.00 Y8.00 Z0.40 E4.50 ; sets the jerk limits, mm/sec
M205 S0 T0 ; sets the minimum extruding and travel feed rate, mm/sec

; printing object SGPV Side Logo Right.stl id:0 copy 0
; stop printing object SGPV Side Logo Right.stl id:0 copy 0

;TYPE:Custom
M862.3 P "MK3S" ; printer model check
M862.1 P0.4 ; nozzle diameter check
M115 U3.13.3 ; tell printer latest fw version
G90 ; use absolute coordinates
M83 ; extruder relative mode
M104 S215 ; set extruder temp
M140 S60 ; set bed temp
M190 S60 ; wait for bed temp
M109 S215 ; wait for extruder temp
G28 W ; home all without mesh bed level
G80 X95.4463 Y66.639 W59.1074 H76.7219 ; mesh bed levelling

G1 Z0.2 F720
G1 Y-3 F1000 ; go outside print area
G92 E0
G1 X60 E9 F1000 ; intro line
G1 X100 E12.5 F1000 ; intro line

G92 E0
M221 S95

; Don't change E values below. Excessive value can damage the printer.
M907 E430 ; set extruder motor current
G21 ; set units to millimeters
G90 ; use absolute coordinates
M83 ; use relative distances for extrusion

M900 K0.05 ; Filament gcode LA 1.5
M900 K30 ; Filament gcode LA 1.0




M107
;LAYER_CHANGE
;Z:0.2
;HEIGHT:0.2
G1 E-.8 F2100
G1 Z.6 F720
G1 X102.311 Y86.358 F10800
G1 Z.2 F720
G1 E.8 F2100
M204 S800
;TYPE:Skirt/Brim
;WIDTH:0.42
G1 F1200
G1 X118.123 Y69.085 E.73424
G1 X119.136 Y68.223 E.0417
G1 X120.832 Y67.317 E.06029
G1 X122.242 Y66.937 E.04579
G1 X123.466 Y66.828 E.03853
G1 X126.767 Y66.839 E.1035
G1 X128.215 Y67.028 E.04579
G1 X129.598 Y67.495 E.04577
G1 X130.864 Y68.223 E.04579
G1 X131.877 Y69.085 E.0417
G1 X146.155 Y84.634 E.66189
G1 X147.818 Y86.515 E.07872
G1 X149.314 Y88.533 E.07876
G1 X150.532 Y90.493 E.07235
G1 X151.678 Y92.727 E.07872
G1 X152.629 Y95.051 E.07873
G1 X153.378 Y97.448 E.07874
G1 X153.919 Y99.901 E.07876
G1 X154.249 Y102.39 E.07872
G1 X154.365 Y104.898 E.07872
G1 X154.267 Y107.408 E.07876
G1 X153.954 Y109.899 E.07872
G1 X153.43 Y112.355 E.07874
G1 X152.629 Y114.949 E.08512
G1 X151.678 Y117.273 E.07873
G1 X150.532 Y119.507 E.07872
G1 X149.199 Y121.635 E.07873
G1 X147.689 Y123.642 E.07875
G1 X131.877 Y140.915 E.73424
G1 X130.864 Y141.777 E.0417
G1 X129.168 Y142.683 E.06029
G1 X127.758 Y143.063 E.04579
G1 X126.534 Y143.172 E.03853
G1 X123.466 Y143.172 E.09619
G1 X121.785 Y142.972 E.05308
G1 X120.402 Y142.505 E.04577
G1 X119.136 Y141.777 E.04579
G1 X118.123 Y140.915 E.0417
G1 X103.845 Y125.366 E.66189
G1 X102.311 Y123.642 E.07236
M73 Q0 S68
G1 X100.801 Y121.635 E.07875
G1 X99.468 Y119.507 E.07873
G1 X98.322 Y117.273 E.07872
G1 X97.371 Y114.949 E.07873
G1 X96.622 Y112.552 E.07874
G1 X96.081 Y110.1 E.07873
G1 X95.751 Y107.61 E.07875
G1 X95.635 Y105.102 E.07872
G1 X95.733 Y102.592 E.07876
G1 X96.046 Y100.101 E.07872
G1 X96.57 Y97.645 E.07874
G1 X97.371 Y95.051 E.08512
G1 X98.322 Y92.727 E.07873
G1 X99.468 Y90.493 E.07872
G1 X100.801 Y88.365 E.07873
G1 X102.275 Y86.406 E.07687
M204 S1000
;WIPE_START
G1 F8640
G1 X102.311 Y86.358 E-.01385
G1 X104.61 Y83.847 E-.78615
;WIPE_END
G1 Z.6 F720
; printing object SGPV Side Logo Right.stl id:0 copy 0
G1 X123.541 Y70.746 F10800
G1 Z.2 F720
G1 E.8 F2100
M204 S800
;TYPE:Perimeter
;WIDTH:0.419999
G1 F1200
G1 X126.525 Y70.752 E.09356
G1 X127.223 Y70.821 E.02199
G1 X127.885 Y71.022 E.02169
G1 X128.495 Y71.348 E.02169
G1 X129.031 Y71.788 E.02174
G1 X129.47 Y72.323 E.0217
G1 X129.796 Y72.933 E.02169
G1 X129.997 Y73.596 E.02172
G1 X130.072 Y74.547 E.02991
G1 X130.091 Y75.423 E.02747
G1 X130.192 Y76.375 E.03002
G1 X130.498 Y77.464 E.03547
G1 X130.984 Y78.485 E.03545
G1 X131.638 Y79.408 E.03547
G1 X132.438 Y80.206 E.03543
G1 X133.364 Y80.857 E.03549
G1 X134.214 Y81.276 E.02971
G1 X136.269 Y82.184 E.07044
G1 X138.178 Y83.23 E.06825
G1 X139.989 Y84.435 E.0682
G1 X141.692 Y85.791 E.06826
G1 X143.272 Y87.287 E.06822
G1 X144.718 Y88.913 E.06823
G1 X146.02 Y90.657 E.06824
G1 X147.169 Y92.505 E.06823
G1 X148.155 Y94.445 E.06823
G1 X148.973 Y96.462 E.06824
G1 X149.614 Y98.541 E.06821
G1 X150.076 Y100.668 E.06825
G1 X150.355 Y102.826 E.06823
G1 X150.428 Y104.526 E.05335
G1 X150.428 Y105.474 E.02972
G1 X150.355 Y107.174 E.05335
G1 X150.076 Y109.332 E.06823
G1 X149.614 Y111.459 E.06825
G1 X148.973 Y113.538 E.06821
G1 X148.155 Y115.555 E.06824
G1 X147.169 Y117.495 E.06823
G1 X146.02 Y119.343 E.06823
G1 X144.718 Y121.087 E.06824
G1 X143.272 Y122.713 E.06823
G1 X141.692 Y124.209 E.06822
G1 X139.989 Y125.565 E.06826
G1 X138.178 Y126.77 E.0682
G1 X136.269 Y127.816 E.06825
G1 X133.99 Y128.834 E.07826
G1 X133.128 Y129.291 E.03059
G1 X132.268 Y129.942 E.03382
G1 X131.495 Y130.767 E.03545
G1 X130.874 Y131.712 E.03545
G1 X130.422 Y132.749 E.03547
G1 X130.154 Y133.847 E.03544
G1 X130.072 Y134.853 E.03165
G1 X130.072 Y135.64 E.02468
G1 X129.997 Y136.404 E.02407
G1 X129.796 Y137.067 E.02172
G1 X129.47 Y137.677 E.02169
G1 X129.031 Y138.212 E.0217
G1 X128.496 Y138.652 E.02172
G1 X127.885 Y138.978 E.02171
G1 X127.223 Y139.179 E.02169
G1 X126.458 Y139.254 E.0241
G1 X123.542 Y139.254 E.09143
G1 X122.777 Y139.179 E.0241
G1 X122.115 Y138.978 E.02169
G1 X121.504 Y138.652 E.02171
G1 X120.969 Y138.212 E.02172
G1 X120.53 Y137.677 E.0217
G1 X120.204 Y137.067 E.02169
G1 X120.003 Y136.404 E.02172
G1 X119.928 Y135.453 E.02991
G1 X119.909 Y134.581 E.02735
G1 X119.808 Y133.625 E.03014
G1 X119.502 Y132.536 E.03547
G1 X119.016 Y131.515 E.03545
G1 X118.362 Y130.592 E.03547
G1 X117.562 Y129.794 E.03543
G1 X116.637 Y129.143 E.03547
G1 X115.786 Y128.724 E.02974
G1 X113.731 Y127.816 E.07044
G1 X111.822 Y126.77 E.06825
G1 X110.011 Y125.565 E.0682
G1 X108.308 Y124.209 E.06826
G1 X106.728 Y122.713 E.06822
G1 X105.282 Y121.087 E.06823
G1 X103.98 Y119.343 E.06824
G1 X102.831 Y117.495 E.06823
G1 X101.845 Y115.555 E.06823
G1 X101.027 Y113.538 E.06824
G1 X100.386 Y111.459 E.06821
G1 X99.924 Y109.332 E.06825
G1 X99.645 Y107.174 E.06823
G1 X99.552 Y105 E.06823
G1 X99.645 Y102.826 E.06823
G1 X99.924 Y100.668 E.06823
G1 X100.386 Y98.541 E.06825
G1 X101.027 Y96.462 E.06821
G1 X101.845 Y94.445 E.06824
G1 X102.831 Y92.505 E.06823
G1 X103.98 Y90.657 E.06823
G1 X105.282 Y88.913 E.06824
G1 X106.728 Y87.287 E.06823
G1 X108.308 Y85.791 E.06822
G1 X110.011 Y84.435 E.06826
G1 X111.822 Y83.23 E.0682
G1 X113.731 Y82.184 E.06825
G1 X115.837 Y81.252 E.07221
G1 X116.637 Y80.857 E.02797
G1 X116.942 Y80.658 E.01142
G1 X117.732 Y80.058 E.0311
G1 X118.505 Y79.233 E.03545
G1 X119.126 Y78.288 E.03545
G1 X119.578 Y77.251 E.03547
G1 X119.846 Y76.153 E.03544
G1 X119.928 Y75.147 E.03165
G1 X119.928 Y74.36 E.02468
G1 X120.003 Y73.596 E.02407
G1 X120.204 Y72.933 E.02172
G1 X120.53 Y72.323 E.02169
G1 X120.969 Y71.788 E.0217
G1 X121.505 Y71.348 E.02174
G1 X122.115 Y71.022 E.02169
G1 X122.777 Y70.821 E.02169
G1 X123.481 Y70.752 E.02218
M204 S1000
G1 X123.523 Y70.369 F10800
M204 S800
G1 F1200
G1 X126.544 Y70.375 E.09472
G1 X127.296 Y70.45 E.0237
G1 X128.03 Y70.672 E.02404
G1 X128.706 Y71.033 E.02403
G1 X129.299 Y71.52 E.02406
G1 X129.785 Y72.112 E.02402
G1 X130.146 Y72.788 E.02403
G1 X130.369 Y73.522 E.02405
G1 X130.449 Y74.547 E.03224
G1 X130.467 Y75.39 E.02644
G1 X130.557 Y76.279 E.02802
G1 X130.841 Y77.308 E.03347
G1 X131.296 Y78.272 E.03342
G1 X131.908 Y79.145 E.03343
G1 X132.661 Y79.902 E.03348
G1 X133.53 Y80.519 E.03342
G1 X134.367 Y80.931 E.02925
G1 X136.437 Y81.845 E.07095
G1 X138.373 Y82.907 E.06923
G1 X140.212 Y84.13 E.06925
G1 X141.939 Y85.506 E.06923
G1 X143.543 Y87.025 E.06927
G1 X145.011 Y88.675 E.06925
G1 X146.332 Y90.444 E.06922
G1 X147.498 Y92.32 E.06926
G1 X148.499 Y94.288 E.06923
G1 X149.328 Y96.335 E.06925
G1 X149.98 Y98.445 E.06924
G1 X150.448 Y100.603 E.06924
G1 X150.731 Y102.794 E.06927
G1 X150.804 Y104.51 E.05385
G1 X150.804 Y105.49 E.03073
G1 X150.731 Y107.206 E.05385
G1 X150.448 Y109.397 E.06927
G1 X149.98 Y111.555 E.06924
G1 X149.328 Y113.665 E.06924
G1 X148.499 Y115.712 E.06925
G1 X147.498 Y117.68 E.06923
G1 X146.332 Y119.556 E.06926
G1 X145.011 Y121.325 E.06922
G1 X143.543 Y122.975 E.06925
G1 X141.939 Y124.494 E.06927
G1 X140.212 Y125.87 E.06923
G1 X138.373 Y127.093 E.06925
G1 X136.437 Y128.155 E.06923
G1 X134.157 Y129.172 E.07828
G1 X133.35 Y129.596 E.02858
G1 X132.539 Y130.204 E.03178
G1 X131.806 Y130.979 E.03345
G1 X131.217 Y131.868 E.03344
G1 X130.787 Y132.844 E.03344
G1 X130.529 Y133.879 E.03344
G1 X130.449 Y134.853 E.03064
G1 X130.449 Y135.658 E.02524
G1 X130.369 Y136.478 E.02583
G1 X130.146 Y137.212 E.02405
G1 X129.785 Y137.888 E.02403
G1 X129.299 Y138.48 E.02402
G1 X128.706 Y138.967 E.02406
G1 X128.03 Y139.328 E.02403
G1 X127.296 Y139.55 E.02404
G1 X126.476 Y139.631 E.02584
G1 X123.524 Y139.631 E.09256
G1 X122.704 Y139.55 E.02584
G1 X121.97 Y139.328 E.02404
G1 X121.294 Y138.967 E.02403
G1 X120.701 Y138.48 E.02406
G1 X120.215 Y137.888 E.02402
G1 X119.854 Y137.212 E.02403
G1 X119.631 Y136.478 E.02405
G1 X119.551 Y135.453 E.03224
G1 X119.533 Y134.613 E.02634
G1 X119.443 Y133.721 E.02811
G1 X119.159 Y132.692 E.03347
G1 X118.704 Y131.728 E.03342
G1 X118.092 Y130.855 E.03343
G1 X117.339 Y130.098 E.03348
G1 X116.47 Y129.481 E.03342
G1 X115.633 Y129.069 E.02925
G1 X113.563 Y128.155 E.07095
G1 X111.627 Y127.093 E.06923
G1 X109.788 Y125.87 E.06925
G1 X108.061 Y124.494 E.06923
G1 X106.457 Y122.975 E.06927
G1 X104.989 Y121.325 E.06925
G1 X103.668 Y119.556 E.06922
G1 X102.502 Y117.68 E.06926
G1 X101.501 Y115.712 E.06923
G1 X100.672 Y113.665 E.06925
G1 X100.02 Y111.555 E.06924
G1 X99.552 Y109.397 E.06924
G1 X99.269 Y107.206 E.06927
G1 X99.175 Y105 E.06923
G1 X99.269 Y102.794 E.06923
G1 X99.552 Y100.603 E.06927
G1 X100.02 Y98.445 E.06924
G1 X100.672 Y96.335 E.06924
G1 X101.501 Y94.288 E.06925
G1 X102.502 Y92.32 E.06923
G1 X103.668 Y90.444 E.06926
G1 X104.989 Y88.675 E.06922
G1 X106.457 Y87.025 E.06925
G1 X108.061 Y85.506 E.06927
G1 X109.788 Y84.13 E.06923
G1 X111.627 Y82.907 E.06925
G1 X113.563 Y81.845 E.06923
G1 X115.67 Y80.914 E.07223
G1 X116.47 Y80.519 E.02797
G1 X116.72 Y80.353 E.00941
G1 X117.461 Y79.796 E.02907
G1 X118.194 Y79.021 E.03345
G1 X118.783 Y78.132 E.03344
G1 X119.213 Y77.156 E.03344
G1 X119.471 Y76.121 E.03344
G1 X119.551 Y75.147 E.03064
G1 X119.551 Y74.342 E.02524
G1 X119.631 Y73.522 E.02583
G1 X119.854 Y72.788 E.02405
G1 X120.215 Y72.112 E.02403
G1 X120.701 Y71.52 E.02402
G1 X121.294 Y71.033 E.02406
G1 X121.97 Y70.672 E.02403
G1 X122.704 Y70.45 E.02404
G1 X123.463 Y70.375 E.02391
M204 S1000
G1 X123.463 Y70.375 F10800
G1 X123.504 Y69.992
M204 S800
G1 F1200
G1 X126.563 Y69.998 E.09591
G1 X127.37 Y70.078 E.02543
G1 X128.175 Y70.322 E.02637
G1 X128.917 Y70.718 E.02637
G1 X129.566 Y71.252 E.02635
G1 X130.1 Y71.902 E.02638
G1 X130.496 Y72.643 E.02634
G1 X130.74 Y73.448 E.02637
G1 X130.827 Y74.547 E.03457
G1 X130.843 Y75.358 E.02543
G1 X130.922 Y76.184 E.02602
G1 X131.184 Y77.151 E.03141
G1 X131.607 Y78.06 E.03144
G1 X132.179 Y78.883 E.03142
G1 X132.883 Y79.597 E.03144
G1 X133.697 Y80.181 E.03141
G1 X134.519 Y80.586 E.02873
G1 X136.604 Y81.507 E.07147
G1 X138.568 Y82.584 E.07023
G1 X140.434 Y83.825 E.07026
G1 X142.187 Y85.221 E.07026
G1 X143.814 Y86.762 E.07026
G1 X145.303 Y88.436 E.07025
G1 X146.644 Y90.231 E.07025
G1 X147.827 Y92.134 E.07026
G1 X148.842 Y94.132 E.07027
G1 X149.684 Y96.208 E.07024
G1 X150.345 Y98.349 E.07026
G1 X150.82 Y100.539 E.07026
G1 X151.107 Y102.761 E.07025
G1 X151.203 Y105 E.07027
G1 X151.181 Y105.506 E.01588
G1 X151.107 Y107.239 E.05439
G1 X150.82 Y109.461 E.07025
G1 X150.345 Y111.651 E.07026
G1 X149.684 Y113.792 E.07026
G1 X148.842 Y115.868 E.07024
G1 X147.827 Y117.866 E.07027
G1 X146.644 Y119.769 E.07026
G1 X145.303 Y121.564 E.07025
G1 X143.814 Y123.238 E.07025
G1 X142.187 Y124.779 E.07026
G1 X140.434 Y126.175 E.07026
G1 X138.568 Y127.416 E.07026
G1 X136.604 Y128.493 E.07023
G1 X134.324 Y129.51 E.07828
G1 X133.572 Y129.901 E.02658
G1 X132.81 Y130.467 E.02976
G1 X132.118 Y131.192 E.03142
G1 X131.56 Y132.025 E.03144
G1 X131.152 Y132.94 E.03141
G1 X130.905 Y133.912 E.03144
G1 X130.827 Y134.853 E.02961
G1 X130.827 Y135.677 E.02584
G1 X130.74 Y136.552 E.02757
G1 X130.496 Y137.357 E.02637
G1 X130.1 Y138.098 E.02634
G1 X129.566 Y138.748 E.02638
G1 X128.917 Y139.282 E.02635
G1 X128.175 Y139.678 E.02637
M73 Q1 S68
G1 X127.37 Y139.922 E.02637
G1 X126.495 Y140.008 E.02757
M73 P1 R68
G1 X123.505 Y140.008 E.09375
G1 X122.63 Y139.922 E.02757
G1 X121.825 Y139.678 E.02637
G1 X121.083 Y139.282 E.02637
G1 X120.434 Y138.748 E.02635
G1 X119.9 Y138.098 E.02638
G1 X119.504 Y137.357 E.02634
G1 X119.26 Y136.552 E.02637
G1 X119.173 Y135.453 E.03457
G1 X119.158 Y134.646 E.02531
G1 X119.078 Y133.816 E.02614
G1 X118.816 Y132.849 E.03141
G1 X118.393 Y131.94 E.03144
G1 X117.821 Y131.117 E.03142
G1 X117.117 Y130.403 E.03144
G1 X116.303 Y129.819 E.03141
G1 X115.481 Y129.414 E.02873
G1 X113.396 Y128.493 E.07147
G1 X111.432 Y127.416 E.07023
G1 X109.566 Y126.175 E.07026
G1 X107.813 Y124.779 E.07026
G1 X106.186 Y123.238 E.07026
G1 X104.697 Y121.564 E.07025
G1 X103.356 Y119.769 E.07025
G1 X102.173 Y117.866 E.07026
G1 X101.158 Y115.868 E.07027
G1 X100.316 Y113.792 E.07024
G1 X99.655 Y111.651 E.07026
G1 X99.18 Y109.461 E.07026
G1 X98.893 Y107.239 E.07025
G1 X98.797 Y105 E.07027
G1 X98.893 Y102.761 E.07027
G1 X99.18 Y100.539 E.07025
G1 X99.655 Y98.349 E.07026
G1 X100.316 Y96.208 E.07026
G1 X101.158 Y94.132 E.07024
G1 X102.173 Y92.134 E.07027
G1 X103.356 Y90.231 E.07026
G1 X104.697 Y88.436 E.07025
G1 X106.186 Y86.762 E.07025
G1 X107.813 Y85.221 E.07026
G1 X109.566 Y83.825 E.07026
G1 X111.432 Y82.584 E.07026
G1 X113.396 Y81.507 E.07023
G1 X115.503 Y80.576 E.07223
G1 X116.303 Y80.181 E.02797
G1 X117.19 Y79.533 E.03444
G1 X117.882 Y78.808 E.03142
G1 X118.44 Y77.976 E.03141
G1 X118.848 Y77.06 E.03144
G1 X119.095 Y76.088 E.03144
G1 X119.173 Y75.147 E.02961
G1 X119.173 Y74.323 E.02584
G1 X119.26 Y73.448 E.02757
G1 X119.504 Y72.643 E.02637
G1 X119.9 Y71.902 E.02634
G1 X120.434 Y71.252 E.02638
G1 X121.083 Y70.718 E.02635
G1 X121.825 Y70.322 E.02637
G1 X122.63 Y70.078 E.02637
G1 X123.445 Y69.998 E.02568
M204 S1000
G1 X123.445 Y69.998 F10800
G1 X123.468 Y69.616
M204 S800
;TYPE:External perimeter
G1 F1200
G1 X123.486 Y69.615 E.00057
G1 X126.582 Y69.621 E.09707
G1 X127.444 Y69.706 E.02716
G1 X128.32 Y69.972 E.0287
G1 X129.127 Y70.403 E.02869
G1 X129.834 Y70.984 E.02869
G1 X130.415 Y71.691 E.02869
G1 X130.846 Y72.498 E.02869
G1 X131.112 Y73.374 E.0287
G1 X131.174 Y74.004 E.01985
G1 X131.218 Y75.326 E.04147
G1 X131.286 Y76.088 E.02399
G1 X131.527 Y76.995 E.02943
G1 X131.919 Y77.847 E.02941
G1 X132.45 Y78.621 E.02943
G1 X133.105 Y79.292 E.0294
G1 X133.864 Y79.843 E.02941
G1 X134.671 Y80.241 E.02821
G1 X136.771 Y81.168 E.07197
G1 X138.764 Y82.261 E.07127
G1 X140.656 Y83.52 E.07126
G1 X142.434 Y84.936 E.07127
G1 X144.085 Y86.499 E.07128
G1 X145.595 Y88.197 E.07125
G1 X146.956 Y90.018 E.07128
G1 X148.155 Y91.949 E.07127
G1 X149.186 Y93.975 E.07128
G1 X150.039 Y96.082 E.07127
G1 X150.71 Y98.254 E.07128
G1 X151.192 Y100.475 E.07126
G1 X151.483 Y102.729 E.07126
G1 X151.58 Y105 E.07127
G1 X151.558 Y105.522 E.01638
G1 X151.483 Y107.271 E.05489
G1 X151.192 Y109.525 E.07126
G1 X150.71 Y111.746 E.07126
G1 X150.039 Y113.918 E.07128
G1 X149.186 Y116.025 E.07127
G1 X148.155 Y118.051 E.07128
G1 X146.956 Y119.982 E.07127
G1 X145.595 Y121.803 E.07128
G1 X144.085 Y123.501 E.07125
G1 X142.434 Y125.064 E.07128
G1 X140.656 Y126.48 E.07127
G1 X138.764 Y127.739 E.07126
G1 X136.771 Y128.832 E.07127
G1 X134.491 Y129.848 E.07826
G1 X133.794 Y130.205 E.02455
G1 X133.08 Y130.729 E.02777
G1 X132.429 Y131.404 E.0294
G1 X131.903 Y132.181 E.02942
G1 X131.516 Y133.036 E.02943
G1 X131.281 Y133.944 E.02941
G1 X131.204 Y134.853 E.0286
G1 X131.204 Y135.695 E.0264
G1 X131.112 Y136.626 E.02933
G1 X130.846 Y137.502 E.0287
