; generated by PrusaSlicer 2.7.4+win64 on 2024-05-12 at 00:18:36 UTC


;
;
; 

; external perimeters extrusion width = 0.68mm
; perimeters extrusion width = 0.68mm
; infill extrusion width = 0.68mm
; solid infill extrusion width = 0.68mm
; top infill extrusion width = 0.60mm
; support material extrusion width = 0.55mm
; first layer extrusion width = 0.65mm

M73 P0 R162
M73 Q0 S166
M201 X1000 Y1000 Z200 E5000 ; sets maximum accelerations, mm/sec^2
M203 X200 Y200 Z12 E120 ; sets maximum feedrates, mm / sec
M204 S1250 T1250 ; sets acceleration (S) and retract acceleration (R), mm/sec^2
M205 X8.00 Y8.00 Z0.40 E4.50 ; sets the jerk limits, mm/sec
M205 S0 T0 ; sets the minimum extruding and travel feed rate, mm/sec

; printing object SGPV Inner Frame.stl id:0 copy 0
; stop printing object SGPV Inner Frame.stl id:0 copy 0

;TYPE:Custom
M862.3 P "MK3S" ; printer model check
M862.1 P0.6 ; nozzle diameter check
M115 U3.13.3 ; tell printer latest fw version
G90 ; use absolute coordinates
M83 ; extruder relative mode
M104 S220 ; set extruder temp
M140 S64 ; set bed temp
M190 S64 ; wait for bed temp
M109 S220 ; wait for extruder temp
G28 W ; home all without mesh bed level
G80 X71.7321 Y56.6175 W99.6417 H104.045 ; mesh bed levelling

G1 Z0.2 F720
G1 Y-3 F1000 ; go outside print area
G92 E0
G1 X60 E9 F1000 ; intro line
G1 X100 E12.5 F1000 ; intro line

G92 E0
M221 S95

; Don't change E values below. Excessive value can damage the printer.

G21 ; set units to millimeters
G90 ; use absolute coordinates
M83 ; use relative distances for extrusion

M900 K0.04 ; Filament gcode LA 1.5
M900 K18 ; Filament gcode LA 1.0




M107
;LAYER_CHANGE
;Z:0.2
;HEIGHT:0.2
G1 E-.8 F2100
G1 Z.6 F720
G1 X74.794 Y60.184 F10800
G1 Z.2 F720
G1 E.8 F2100
M204 S800
;TYPE:Skirt/Brim
;WIDTH:0.65
G1 F1200
G1 X76.046 Y58.996 E.08712
G1 X77.475 Y58.052 E.08645
G1 X79.103 Y57.358 E.08934
G1 X80.856 Y56.974 E.09059
G1 X82.789 Y56.924 E.09761
G1 X154.7 Y60.069 E3.63346
G1 X156.456 Y60.399 E.09019
G1 X164.216 Y62.73 E.40901
G1 X165.379 Y63.257 E.06445
G1 X166.774 Y64.14 E.08334
G1 X167.979 Y65.18 E.08035
G1 X168.512 Y65.777 E.0404
G1 X169.254 Y66.722 E.06065
G1 X169.877 Y67.762 E.0612
G1 X170.511 Y69.247 E.08151
G1 X170.906 Y70.798 E.08079
G1 X171.062 Y72.399 E.0812
G1 X171.066 Y118.86 E2.3453
G1 X170.948 Y120.262 E.07102
G1 X170.628 Y121.76 E.07732
G1 X170.023 Y123.377 E.08715
G1 X159.987 Y145.769 E1.23866
G1 X158.958 Y147.321 E.094
G1 X158.191 Y148.045 E.05324
G1 X156.49 Y149.015 E.09884
G1 X124.34 Y159.865 E1.71282
G1 X122.57 Y160.268 E.09163
G1 X120.991 Y160.36 E.07984
G1 X119.417 Y160.204 E.07984
G1 X118.047 Y159.864 E.07125
G1 X86.541 Y149.176 E1.67941
G1 X84.904 Y148.244 E.09509
G1 X84.137 Y147.52 E.05324
G1 X83.148 Y146.055 E.08923
G1 X73.237 Y125.947 E1.13163
G1 X72.758 Y124.867 E.05964
G1 X72.334 Y123.44 E.07515
G1 X72.077 Y121.74 E.08679
G1 X72.058 Y66.891 E2.76872
G1 X72.266 Y65.349 E.07854
G1 X72.802 Y63.494 E.09747
G1 X73.303 Y62.381 E.06161
G1 X73.808 Y61.489 E.05174
G1 X74.74 Y60.256 E.07802
M204 S1000
;WIPE_START
G1 F8640
G1 X74.794 Y60.184 E-.02078
G1 X76.046 Y58.996 E-.39852
G1 X77.422 Y58.087 E-.3807
;WIPE_END
G1 Z.6 F720
; printing object SGPV Inner Frame.stl id:0 copy 0
G1 X126.488 Y144.991 F10800
G1 Z.2 F720
G1 E.8 F2100
M204 S800
;TYPE:Support material
G1 F1200
G1 X127.25 Y145.884 E.05926
G1 X127.863 Y146.885 E.05925
G1 X128.063 Y147.368 E.02639
G1 X128.312 Y147.971 E.03293
G1 X128.585 Y149.112 E.05922
M73 Q0 S165
G1 X128.676 Y150.283 E.05929
G1 X128.584 Y151.453 E.05924
G1 X128.309 Y152.594 E.05925
G1 X128.095 Y153.11 E.0282
G1 X127.86 Y153.678 E.03103
G1 X127.246 Y154.679 E.05928
G1 X126.484 Y155.571 E.05922
G1 X125.591 Y156.333 E.05926
G1 X124.59 Y156.946 E.05925
G1 X124.056 Y157.167 E.02917
G1 X123.506 Y157.395 E.03005
G1 X122.365 Y157.668 E.05922
G1 X121.195 Y157.761 E.05925
G1 X120.025 Y157.669 E.05924
G1 X118.884 Y157.395 E.05923
G1 X118.329 Y157.165 E.03033
G1 X117.8 Y156.946 E.0289
G1 X116.799 Y156.333 E.05925
G1 X115.906 Y155.571 E.05926
M73 P0 R161
G1 X115.144 Y154.679 E.05922
G1 X114.53 Y153.678 E.05928
G1 X114.288 Y153.095 E.03186
G1 X114.08 Y152.594 E.02738
G1 X113.806 Y151.453 E.05923
G1 X113.713 Y150.282 E.0593
G1 X113.804 Y149.112 E.05924
G1 X114.078 Y147.97 E.05928
G1 X114.333 Y147.353 E.0337
G1 X114.527 Y146.884 E.02562
G1 X115.14 Y145.883 E.05925
G1 X115.903 Y144.99 E.05929
G1 X116.109 Y144.814 E.01368
G1 X126.281 Y144.814 E.51347
G1 X126.418 Y144.931 E.00909
M204 S1000
G1 X126.418 Y144.931 F10800
G1 X127.698 Y153.354
M204 S800
G1 F1200
G1 X127.698 Y147.917 E.27445
G1 X127.374 Y147.134 E.04278
G1 X127.024 Y146.561 E.03389
G1 X127.024 Y153.996 E.37531
G1 X126.349 Y154.887 E.05643
G1 X126.349 Y145.67 E.46526
G1 X126.079 Y145.36 E.02075
G1 X125.675 Y145.36 E.02039
G1 X125.675 Y155.543 E.51403
G1 X125 Y156.054 E.04274
G1 X125 Y145.36 E.53982
G1 X124.325 Y145.36 E.03407
G1 X124.325 Y156.464 E.56052
G1 X123.651 Y156.743 E.03682
G1 X123.651 Y145.36 E.5746
G1 X122.976 Y145.36 E.03407
G1 X122.976 Y156.96 E.58555
G1 X122.302 Y157.122 E.03499
G1 X122.302 Y145.36 E.59373
G1 X121.627 Y145.36 E.03407
G1 X121.627 Y157.179 E.59661
G1 X120.953 Y157.193 E.03403
G1 X120.953 Y145.36 E.59732
G1 X120.278 Y145.36 E.03407
G1 X120.278 Y157.14 E.59464
G1 X119.604 Y157.006 E.03469
G1 X119.604 Y145.36 E.58788
G1 X118.929 Y145.36 E.03407
G1 X118.929 Y156.822 E.57859
G1 X118.255 Y156.543 E.03682
G1 X118.255 Y145.36 E.56451
G1 X117.58 Y145.36 E.03407
G1 X117.58 Y156.171 E.54573
G1 X117.121 Y155.89 E.02717
G1 X116.906 Y155.706 E.01428
G1 X116.906 Y145.36 E.52225
G1 X116.31 Y145.36 E.03009
G1 X116.231 Y145.446 E.00589
G1 X116.231 Y155.11 E.48783
G1 X115.557 Y154.307 E.05292
G1 X115.557 Y146.249 E.40676
G1 X114.882 Y147.456 E.06981
G1 X114.882 Y153.73 E.3167
M204 S1000
;WIPE_START
G1 F8640
G1 X114.882 Y150.265 E-.8
;WIPE_END
G1 Z.6 F720
G1 X83.982 Y59.76 F10800
G1 Z.2 F720
G1 E.8 F2100
M204 S800
G1 F1200
G1 X85.684 Y60.43 E.09233
G1 X87.033 Y61.291 E.08078
G1 X88.185 Y61.876 E.06522
G1 X89.501 Y62.932 E.08517
G1 X89.685 Y62.935 E.00929
G1 X90.883 Y63.404 E.06494
G1 X91.916 Y64.512 E.07647
G1 X92.088 Y65.186 E.03511
G1 X90.798 Y65.186 E.06512
G1 X90.289 Y65.696 E.03637
G1 X90.289 Y144.305 E3.96809
G1 X90.798 Y144.814 E.03634
G1 X91.942 Y144.814 E.05775
G1 X91.906 Y144.952 E.0072
G1 X90.737 Y146.141 E.08417
G1 X89.773 Y146.74 E.05729
G1 X88.505 Y146.931 E.06473
G1 X87.378 Y146.707 E.058
G1 X86.272 Y146.025 E.06559
G1 X85.486 Y144.903 E.06915
G1 X85.209 Y143.561 E.06917
G1 X85.404 Y142.619 E.04856
G1 X85.209 Y141.677 E.04856
G1 X85.404 Y140.736 E.04851
G1 X85.209 Y139.794 E.04856
G1 X85.404 Y138.852 E.04856
G1 X85.209 Y137.911 E.04851
G1 X85.404 Y136.969 E.04856
G1 X85.209 Y136.027 E.04856
G1 X85.404 Y135.086 E.04851
G1 X85.209 Y134.144 E.04856
G1 X85.404 Y133.202 E.04856
G1 X85.209 Y132.261 E.04851
G1 X85.404 Y131.319 E.04856
G1 X85.209 Y130.377 E.04856
G1 X85.404 Y129.436 E.04851
G1 X85.193 Y128.418 E.05248
G1 X84.367 Y128.712 E.04426
G1 X83.305 Y128.95 E.05494
G1 X82.024 Y129.022 E.06477
G1 X80.761 Y128.869 E.06422
G1 X79.567 Y128.506 E.063
G1 X78.509 Y127.977 E.05971
G1 X77.638 Y127.358 E.05394
G1 X76.893 Y126.666 E.05133
G1 X76.219 Y125.862 E.05296
G1 X75.62 Y124.889 E.05768
G1 X75.141 Y123.809 E.05964
G1 X74.847 Y122.745 E.05572
G1 X74.684 Y121.706 E.05309
G1 X74.668 Y120.48 E.06189
G1 X74.792 Y119.373 E.05623
G1 X75.202 Y117.914 E.0765
G1 X75.526 Y117.167 E.0411
G1 X76.318 Y115.779 E.08067
G1 X77.082 Y114.912 E.05833
G1 X78.198 Y113.892 E.07632
G1 X78.994 Y113.301 E.05005
G1 X81.092 Y112.354 E.11619
G1 X82.226 Y112.054 E.05921
G1 X83.746 Y111.902 E.07711
G1 X84.604 Y111.918 E.04332
G1 X85.354 Y112.048 E.03842
G1 X85.209 Y111.344 E.03628
G1 X85.404 Y110.402 E.04856
G1 X85.209 Y109.461 E.04851
G1 X85.404 Y108.519 E.04856
G1 X85.209 Y107.577 E.04856
G1 X85.404 Y106.636 E.04851
G1 X85.209 Y105.694 E.04856
G1 X85.404 Y104.752 E.04856
G1 X85.209 Y103.811 E.04851
G1 X85.404 Y102.869 E.04856
G1 X85.209 Y101.927 E.04856
G1 X85.404 Y100.986 E.04851
G1 X85.209 Y100.044 E.04856
G1 X85.404 Y99.102 E.04856
G1 X85.209 Y98.161 E.04851
G1 X85.404 Y97.219 E.04856
G1 X85.209 Y96.277 E.04856
G1 X85.404 Y95.336 E.04851
G1 X85.209 Y94.394 E.04856
G1 X85.404 Y93.452 E.04856
G1 X85.209 Y92.511 E.04851
G1 X85.404 Y91.569 E.04856
G1 X85.209 Y90.627 E.04856
G1 X85.404 Y89.686 E.04851
G1 X85.209 Y88.744 E.04856
G1 X85.404 Y87.802 E.04856
G1 X85.209 Y86.861 E.04851
G1 X85.404 Y85.919 E.04856
G1 X85.209 Y84.977 E.04856
G1 X85.404 Y84.036 E.04851
G1 X85.209 Y83.094 E.04856
G1 X85.404 Y82.152 E.04856
G1 X85.209 Y81.211 E.04851
G1 X85.404 Y80.269 E.04856
G1 X85.209 Y79.327 E.04856
G1 X85.404 Y78.386 E.04851
G1 X85.209 Y77.444 E.04856
G1 X85.335 Y76.834 E.03144
G1 X84.515 Y76.967 E.04193
G1 X83.447 Y76.983 E.05392
G1 X82.194 Y76.819 E.06379
G1 X81.115 Y76.532 E.05636
G1 X80.509 Y76.275 E.03323
G1 X78.492 Y75.21 E.11514
G1 X77 Y73.787 E.10408
G1 X75.95 Y72.501 E.08381
G1 X75.16 Y70.732 E.0978
G1 X74.899 Y69.867 E.04561
G1 X74.643 Y68.125 E.08888
G1 X74.665 Y66.939 E.05988
G1 X74.845 Y65.734 E.0615
G1 X75.192 Y64.536 E.06296
G1 X75.572 Y63.665 E.04797
G1 X76.077 Y62.773 E.05174
G1 X76.845 Y61.793 E.06285
G1 X77.531 Y61.167 E.04688
G1 X78.864 Y60.258 E.08144
G1 X80.065 Y59.782 E.06521
G1 X81.35 Y59.534 E.06606
G1 X82.675 Y59.528 E.06689
G1 X83.892 Y59.744 E.06239
M204 S1000
G1 X83.892 Y59.744 F10800
G1 X91.273 Y64.913
M204 S800
G1 F1200
G1 X91.273 Y64.625 E.01454
G1 X90.599 Y63.901 E.04993
G1 X90.599 Y65 E.05548
M204 S1000
G1 X90.599 Y65 F10800
G1 X90.599 Y145.892
M204 S800
G1 F1200
G1 X90.599 Y145 E.04503
M204 S1000
G1 X90.599 Y145 F10800
G1 X89.924 Y146.324
M204 S800
G1 F1200
G1 X89.924 Y63.615 E4.17506
G1 X89.25 Y63.445 E.03509
G1 X89.25 Y146.266 E4.18071
G1 X88.575 Y146.368 E.03446
G1 X88.575 Y62.855 E4.21564
G1 X87.901 Y62.346 E.04263
G1 X87.901 Y146.254 E4.23558
G1 X87.581 Y146.191 E.01646
G1 X87.226 Y145.972 E.02106
G1 X87.226 Y61.993 E4.23917
G1 X86.552 Y61.609 E.03916
G1 X86.552 Y145.472 E4.23331
G1 X85.998 Y144.682 E.04871
G1 X85.877 Y144.094 E.0303
G1 X85.877 Y61.177 E4.18556
G1 X85.203 Y60.812 E.03869
G1 X85.203 Y76.302 E.78192
G1 X84.528 Y76.411 E.03451
G1 X84.528 Y60.529 E.80171
G1 X83.854 Y60.294 E.03603
G1 X83.854 Y76.431 E.81458
G1 X83.179 Y76.411 E.03409
G1 X83.179 Y60.173 E.81968
G1 X82.504 Y60.075 E.03443
G1 X82.504 Y76.315 E.81978
M73 Q0 S164
G1 X81.83 Y76.157 E.03495
G1 X81.83 Y60.078 E.81165
G1 X81.155 Y60.128 E.03417
M73 P0 R160
G1 X81.155 Y75.955 E.79893
G1 X80.481 Y75.655 E.03724
G1 X80.481 Y60.258 E.77722
G1 X79.806 Y60.472 E.03574
G1 X79.806 Y75.284 E.74769
G1 X79.132 Y74.927 E.0385
G1 X79.132 Y60.74 E.71614
G1 X78.457 Y61.16 E.04013
G1 X78.457 Y74.47 E.67187
G1 X77.783 Y73.799 E.04801
G1 X77.783 Y61.677 E.6119
G1 X77.108 Y62.343 E.04787
G1 X77.108 Y73.055 E.54073
G1 X76.434 Y72.23 E.05378
G1 X76.434 Y63.252 E.4532
G1 X75.759 Y64.602 E.07619
G1 X75.759 Y71.458 E.34608
M204 S1000
;WIPE_START
G1 F8640
G1 X75.759 Y67.993 E-.8
;WIPE_END
G1 Z.6 F720
G1 X85.203 Y128.124 F10800
G1 Z.2 F720
G1 E.8 F2100
M204 S800
G1 F1200
G1 X85.203 Y112.576 E.78485
G1 X84.528 Y112.463 E.03455
G1 X84.528 Y128.075 E.78808
G1 X83.854 Y128.267 E.03538
G1 X83.854 Y112.45 E.79842
G1 X83.179 Y112.472 E.03409
G1 X83.179 Y128.41 E.80453
G1 X82.504 Y128.448 E.03413
G1 X82.504 Y112.566 E.80171
G1 X81.83 Y112.724 E.03495
M73 P1 R160
G1 X81.83 Y128.448 E.79373
G1 X81.155 Y128.366 E.03432
M73 Q1 S164
G1 X81.155 Y112.925 E.77944
G1 X80.481 Y113.23 E.03734
G1 X80.481 Y128.212 E.75627
G1 X79.806 Y128.007 E.03561
G1 X79.806 Y113.534 E.73058
G1 X79.132 Y113.879 E.03822
G1 X79.132 Y127.677 E.69651
G1 X78.457 Y127.27 E.03979
G1 X78.457 Y114.395 E.64992
G1 X77.783 Y115.012 E.04613
G1 X77.783 Y126.747 E.59237
G1 X77.108 Y126.073 E.04815
G1 X77.108 Y115.709 E.52316
G1 X76.434 Y116.609 E.05676
G1 X76.434 Y125.168 E.43205
G1 X75.759 Y123.855 E.07452
G1 X75.759 Y117.317 E.33003
M204 S1000
;WIPE_START
G1 F8640
G1 X75.759 Y120.782 E-.8
;WIPE_END
G1 Z.6 F720
G1 X155.713 Y62.898 F10800
G1 Z.2 F720
G1 E.8 F2100
M204 S800
G1 F1200
G1 X156.819 Y63.58 E.06559
G1 X157.608 Y64.706 E.0694
G1 X158.762 Y64.542 E.05884
G1 X159.709 Y64.547 E.0478
G1 X160.438 Y64.555 E.0368
G1 X161.916 Y64.752 E.07527
G1 X163.14 Y65.105 E.0643
G1 X164.303 Y65.632 E.06445
G1 X165.337 Y66.315 E.06255
G1 X166.501 Y67.437 E.08161
G1 X167.017 Y68.062 E.04091
G1 X167.64 Y69.102 E.0612
G1 X168.094 Y70.224 E.0611
G1 X168.367 Y71.393 E.0606
G1 X168.463 Y72.605 E.06137
G1 X168.354 Y73.863 E.06374
G1 X168.094 Y74.967 E.05725
G1 X167.649 Y76.08 E.06051
G1 X167.047 Y77.115 E.06044
G1 X166.29 Y78.069 E.06148
G1 X165.375 Y78.908 E.06267
G1 X164.366 Y79.592 E.06153
G1 X163.263 Y80.151 E.06242
G1 X161.989 Y80.549 E.06738
G1 X159.743 Y80.875 E.11456
G1 X158.92 Y80.884 E.04155
G1 X157.788 Y80.744 E.05758
G1 X157.883 Y81.221 E.02455
G1 X157.689 Y82.159 E.04835
G1 X157.883 Y83.104 E.0487
G1 X157.689 Y84.042 E.04835
G1 X157.883 Y84.988 E.04875
G1 X157.689 Y85.925 E.0483
G1 X157.883 Y86.871 E.04875
G1 X157.689 Y87.809 E.04835
G1 X157.883 Y88.754 E.0487
G1 X157.689 Y89.692 E.04835
G1 X157.883 Y90.638 E.04875
G1 X157.689 Y91.575 E.0483
G1 X157.883 Y92.521 E.04875
G1 X157.689 Y93.459 E.04835
G1 X157.883 Y94.404 E.0487
G1 X157.689 Y95.342 E.04835
G1 X157.883 Y96.288 E.04875
G1 X157.689 Y97.225 E.0483
G1 X157.883 Y98.171 E.04875
G1 X157.689 Y99.109 E.04835
G1 X157.883 Y100.054 E.0487
G1 X157.689 Y100.992 E.04835
G1 X157.883 Y101.938 E.04875
G1 X157.689 Y102.875 E.0483
G1 X157.883 Y103.821 E.04875
G1 X157.689 Y104.759 E.04835
G1 X157.883 Y105.704 E.0487
G1 X157.689 Y106.642 E.04835
G1 X157.883 Y107.588 E.04875
G1 X157.689 Y108.525 E.0483
G1 X157.883 Y109.471 E.04875
G1 X157.775 Y109.995 E.02701
G1 X158.503 Y109.886 E.03716
G1 X159.742 Y109.852 E.06257
G1 X161.354 Y110.115 E.08245
G1 X163.451 Y110.86 E.11234
G1 X164.136 Y111.262 E.04009
G1 X165.664 Y112.42 E.09678
G1 X166.634 Y113.448 E.07135
G1 X167.646 Y115.128 E.099
G1 X168.169 Y116.534 E.07572
G1 X168.384 Y117.655 E.05762
G1 X168.459 Y118.86 E.06094
G1 X168.352 Y120.024 E.05901
G1 X168.087 Y121.177 E.05972
G1 X167.644 Y122.31 E.06141
G1 X167.033 Y123.369 E.06172
G1 X166.245 Y124.34 E.06312
G1 X165.272 Y125.196 E.06542
G1 X164.204 Y125.852 E.06327
G1 X163.053 Y126.313 E.06259
G1 X161.886 Y126.569 E.06031
G1 X160.708 Y126.641 E.05958
G1 X159.522 Y126.54 E.06008
G1 X157.946 Y126.116 E.08238
G1 X157.689 Y127.359 E.06407
G1 X157.883 Y128.304 E.0487
G1 X157.689 Y129.242 E.04835
G1 X157.883 Y130.188 E.04875
G1 X157.689 Y131.125 E.0483
G1 X157.883 Y132.071 E.04875
G1 X157.689 Y133.009 E.04835
G1 X157.883 Y133.954 E.0487
G1 X157.689 Y134.892 E.04835
G1 X157.883 Y135.838 E.04875
G1 X157.689 Y136.775 E.0483
G1 X157.883 Y137.721 E.04875
G1 X157.689 Y138.659 E.04835
G1 X157.883 Y139.604 E.0487
G1 X157.689 Y140.542 E.04835
G1 X157.883 Y141.488 E.04875
G1 X157.689 Y142.425 E.0483
G1 X157.883 Y143.371 E.04875
G1 X157.608 Y144.703 E.06866
G1 X156.822 Y145.826 E.06919
G1 X155.656 Y146.545 E.06915
G1 X154.391 Y146.73 E.06454
G1 X152.837 Y146.366 E.08057
G1 X151.552 Y145.454 E.07954
G1 X151.242 Y144.814 E.0359
G1 X152.293 Y144.814 E.05305
G1 X152.802 Y144.305 E.03634
G1 X152.802 Y65.696 E3.96809
G1 X152.293 Y65.186 E.03637
G1 X150.957 Y65.186 E.06744
G1 X151.541 Y63.977 E.06778
G1 X152.824 Y63.064 E.07949
G1 X153.046 Y63.034 E.01131
G1 X153.318 Y62.865 E.01616
G1 X154.586 Y62.674 E.06473
G1 X155.624 Y62.88 E.05342
M204 S1000
;WIPE_START
G1 F8640
G1 X154.586 Y62.674 E-.24435
G1 X153.318 Y62.865 E-.29609
G1 X153.046 Y63.034 E-.07394
G1 X152.824 Y63.064 E-.05173
G1 X152.352 Y63.4 E-.13389
;WIPE_END
G1 Z.6 F720
G1 X167.496 Y121.939 F10800
G1 Z.2 F720
G1 E.8 F2100
M204 S800
G1 F1200
G1 X167.496 Y116.228 E.28828
G1 X166.821 Y114.746 E.0822
G1 X166.821 Y122.643 E.39863
G1 X166.146 Y123.594 E.05887
G1 X166.146 Y113.716 E.49863
G1 X165.472 Y112.993 E.0499
G1 X165.472 Y124.3 E.57076
G1 X164.797 Y124.847 E.04386
G1 X164.797 Y112.426 E.627
G1 X164.123 Y111.921 E.04251
G1 X164.123 Y125.261 E.67339
G1 X163.448 Y125.566 E.03739
G1 X163.448 Y111.492 E.71044
G1 X162.774 Y111.192 E.03724
G1 X162.774 Y125.815 E.73815
