; generated by PrusaSlicer 2.7.4+win64 on 2024-06-04 at 22:33:19 UTC


;
;
; 

; external perimeters extrusion width = 0.68mm
; perimeters extrusion width = 0.68mm
; infill extrusion width = 0.68mm
; solid infill extrusion width = 0.68mm
; top infill extrusion width = 0.60mm
; first layer extrusion width = 0.65mm

M73 P0 R41
M73 Q0 S41
M201 X1000 Y1000 Z200 E5000 ; sets maximum accelerations, mm/sec^2
M203 X200 Y200 Z12 E120 ; sets maximum feedrates, mm / sec
M204 S1250 T1250 ; sets acceleration (S) and retract acceleration (R), mm/sec^2
M205 X8.00 Y8.00 Z0.40 E4.50 ; sets the jerk limits, mm/sec
M205 S0 T0 ; sets the minimum extruding and travel feed rate, mm/sec

; printing object Camera_Mount-Part.stl id:0 copy 0
; stop printing object Camera_Mount-Part.stl id:0 copy 0

;TYPE:Custom
M862.3 P "MK3S" ; printer model check
M862.1 P0.6 ; nozzle diameter check
M115 U3.13.3 ; tell printer latest fw version
G90 ; use absolute coordinates
M83 ; extruder relative mode
M104 S230 ; set extruder temp
M140 S85 ; set bed temp
M190 S85 ; wait for bed temp
M109 S230 ; wait for extruder temp
G28 W ; home all without mesh bed level
G80 X77.4725 Y69.4837 W95.0552 H71.0322 ; mesh bed levelling

G1 Z0.2 F720
G1 Y-3 F1000 ; go outside print area
G92 E0
G1 X60 E9 F1000 ; intro line
G1 X100 E12.5 F1000 ; intro line

G92 E0
M221 S95
G21 ; set units to millimeters
G90 ; use absolute coordinates
M83 ; use relative distances for extrusion

M900 K0.04 ; Filament gcode LA 1.5
M900 K24 ; Filament gcode LA 1.0




M107
;LAYER_CHANGE
;Z:0.2
;HEIGHT:0.2
G1 E-1 F2100
G1 Z.4 F720
G1 X83.467 Y115.878 F10800
G1 Z.2 F720
G1 E1 F1500
M204 S800
;TYPE:Skirt/Brim
;WIDTH:0.65
G1 F1200
G1 X156.231 Y70.186 E4.33718
G1 X157.617 Y69.787 E.07281
G1 X169.617 Y69.787 E.60575
G1 X170.992 Y70.18 E.07219
G1 X171.954 Y71.238 E.07218
G1 X172.224 Y72.394 E.05992
G1 X172.224 Y102.394 E1.51437
G1 X171.832 Y103.77 E.07222
G1 X170.712 Y104.76 E.07546
G1 X96.535 Y139.085 E4.12584
G1 X95.288 Y139.559 E.06734
G1 X93.344 Y140.033 E.10101
G1 X91.221 Y140.212 E.10755
G1 X90.018 Y140.164 E.06077
G1 X88.695 Y139.984 E.0674
G1 X86.762 Y139.47 E.10097
G1 X84.927 Y138.673 E.10099
G1 X83.231 Y137.612 E.10098
G1 X81.712 Y136.31 E.10099
G1 X80.327 Y134.691 E.10755
G1 X79.598 Y133.573 E.06737
G1 X78.984 Y132.388 E.06737
G1 X78.491 Y131.148 E.06736
G1 X78.124 Y129.865 E.06736
G1 X77.887 Y128.552 E.06735
G1 X77.781 Y127.222 E.06735
G1 X77.808 Y125.888 E.06735
G1 X77.969 Y124.563 E.06738
G1 X78.251 Y123.291 E.06577
G1 X78.679 Y121.994 E.06894
G1 X79.223 Y120.775 E.06738
G1 X79.875 Y119.633 E.06638
G1 X80.64 Y118.554 E.06677
G1 X81.445 Y117.624 E.06209
G1 X82.414 Y116.699 E.06762
G1 X83.396 Y115.933 E.06287
M204 S1000
;WIPE_START
G1 F8640
G1 X83.467 Y115.878 E-.02074
G1 X87.059 Y113.623 E-.97926
;WIPE_END
G1 Z.4 F720
; printing object Camera_Mount-Part.stl id:0 copy 0
G1 X159.33 Y90.515 F10800
G1 Z.2 F720
G1 E1 F1500
M204 S800
;TYPE:Perimeter
;WIDTH:0.649999
G1 F1200
G1 X159.356 Y90.333 E.00928
G1 X159.356 Y74.133 E.81776
G1 X167.878 Y74.133 E.43018
G1 X167.878 Y78.394 E.21509
G1 X167.878 Y100.655 E1.12371
G1 X162.673 Y100.655 E.26274
G1 X162.411 Y100.678 E.01328
G1 X162.032 Y100.797 E.02005
G1 X100.216 Y129.623 E3.44299
G1 X99.805 Y129.904 E.02513
M73 P1 R41
M73 Q1 S41
G1 X99.573 Y130.189 E.01855
G1 X99.028 Y131.271 E.06116
G1 X98.671 Y131.845 E.03412
G1 X98.278 Y132.395 E.03412
G1 X97.84 Y132.909 E.03409
G1 X97.369 Y133.394 E.03413
G1 X96.859 Y133.838 E.03413
G1 X96.321 Y134.246 E.03408
G1 X95.75 Y134.609 E.03415
G1 X95.157 Y134.933 E.03411
G1 X94.539 Y135.207 E.03412
G1 X93.905 Y135.439 E.03408
G1 X93.253 Y135.617 E.03412
G1 X92.591 Y135.752 E.0341
G1 X91.919 Y135.831 E.03416
G1 X91.245 Y135.866 E.03407
G1 X90.569 Y135.844 E.03414
G1 X89.897 Y135.778 E.03408
G1 X89.232 Y135.656 E.03413
G1 X88.577 Y135.49 E.03411
G1 X87.937 Y135.27 E.03416
G1 X87.315 Y135.008 E.03407
G1 X86.715 Y134.696 E.03414
G1 X86.138 Y134.344 E.03412
G1 X85.592 Y133.945 E.03414
G1 X85.074 Y133.512 E.03408
G1 X84.593 Y133.036 E.03416
G1 X84.146 Y132.53 E.03408
G1 X83.741 Y131.988 E.03415
G1 X83.375 Y131.421 E.03407
G1 X83.055 Y130.824 E.03419
G1 X82.777 Y130.21 E.03402
G1 X82.549 Y129.568 E.03439
G1 X82.367 Y128.922 E.03388
G1 X82.232 Y128.222 E.03599
G1 X82.155 Y127.601 E.03159
G1 X82.125 Y126.913 E.03476
G1 X82.142 Y126.225 E.03474
G1 X82.208 Y125.603 E.03157
G1 X82.323 Y124.975 E.03223
G1 X82.503 Y124.259 E.03727
G1 X82.716 Y123.605 E.03472
G1 X82.987 Y122.977 E.03453
G1 X83.291 Y122.383 E.03368
G1 X83.649 Y121.807 E.03423
G1 X84.042 Y121.26 E.034
G1 X84.481 Y120.745 E.03416
G1 X84.952 Y120.261 E.03409
G1 X85.463 Y119.818 E.03414
G1 X86 Y119.41 E.03404
G1 X86.572 Y119.047 E.0342
G1 X87.164 Y118.724 E.03404
G1 X87.784 Y118.45 E.03422
G1 X88.417 Y118.219 E.03401
G1 X89.072 Y118.04 E.03428
G1 X89.732 Y117.907 E.03399
G1 X90.411 Y117.827 E.03451
G1 X91.078 Y117.794 E.03371
G1 X91.715 Y117.813 E.03217
G1 X92.35 Y117.881 E.03224
G1 X93.078 Y118.007 E.03729
G1 X93.745 Y118.172 E.03468
G1 X94.392 Y118.395 E.03455
G1 X95.007 Y118.654 E.03369
G1 X95.608 Y118.969 E.03425
G1 X96.183 Y119.319 E.03398
G1 X96.652 Y119.651 E.02901
G1 X97.055 Y119.867 E.02308
G1 X97.503 Y119.955 E.02305
G1 X97.861 Y119.927 E.01813
G1 X98.208 Y119.814 E.01842
G1 X158.48 Y91.709 E3.35698
G1 X158.794 Y91.513 E.01868
G1 X159.124 Y91.14 E.02514
G1 X159.295 Y90.761 E.02099
G1 X159.317 Y90.604 E.008
M204 S1000
G1 X159.317 Y90.604 F10800
G1 X158.724 Y90.452
M204 S800
G1 F1200
G1 X158.749 Y90.333 E.00614
G1 X158.749 Y73.526 E.8484
G1 X168.485 Y73.526 E.49146
G1 X168.485 Y78.394 E.24573
G1 X168.485 Y101.262 E1.15435
G1 X162.673 Y101.262 E.29338
G1 X162.587 Y101.266 E.00435
G1 X162.289 Y101.348 E.0156
G1 X100.473 Y130.173 E3.44297
G1 X100.226 Y130.342 E.01511
G1 X100.033 Y130.611 E.01671
G1 X99.67 Y131.357 E.04188
G1 X99.31 Y131.982 E.03641
G1 X98.9 Y132.575 E.03639
G1 X98.451 Y133.14 E.03643
G1 X97.957 Y133.665 E.03639
G1 X97.429 Y134.157 E.03643
G1 X96.862 Y134.603 E.03641
G1 X96.266 Y135.01 E.03643
G1 X95.639 Y135.366 E.0364
G1 X94.99 Y135.68 E.03639
G1 X94.316 Y135.939 E.03645
G1 X93.628 Y136.152 E.03636
G1 X92.923 Y136.308 E.03645
G1 X92.21 Y136.416 E.0364
G1 X91.491 Y136.465 E.03638
G1 X90.769 Y136.466 E.03645
G1 X90.05 Y136.407 E.03642
G1 X89.337 Y136.3 E.03639
G1 X88.635 Y136.135 E.0364
G1 X87.946 Y135.923 E.03639
G1 X87.276 Y135.655 E.03643
G1 X86.626 Y135.343 E.0364
G1 X86.004 Y134.977 E.03643
G1 X85.408 Y134.572 E.03637
G1 X84.847 Y134.118 E.03643
G1 X84.318 Y133.628 E.0364
G1 X83.831 Y133.095 E.03644
G1 X83.381 Y132.533 E.03634
G1 X82.978 Y131.933 E.03649
G1 X82.618 Y131.309 E.03636
G1 X82.308 Y130.655 E.03653
G1 X82.045 Y129.986 E.03629
G1 X81.836 Y129.288 E.03678
G1 X81.677 Y128.592 E.03604
G1 X81.578 Y127.916 E.03449
G1 X81.532 Y127.239 E.03425
G1 X81.529 Y126.46 E.03932
G1 X81.56 Y125.921 E.02725
G1 X81.645 Y125.25 E.03414
G1 X81.794 Y124.537 E.03677
G1 X81.991 Y123.835 E.03681
G1 X82.226 Y123.201 E.03413
G1 X82.437 Y122.719 E.02656
G1 X82.763 Y122.084 E.03603
G1 X83.145 Y121.469 E.03655
G1 X83.564 Y120.886 E.03624
G1 X84.032 Y120.336 E.03645
G1 X84.535 Y119.82 E.03638
G1 X85.08 Y119.346 E.03646
G1 X85.654 Y118.911 E.03636
G1 X86.263 Y118.524 E.03642
G1 X86.896 Y118.179 E.03639
G1 X87.557 Y117.887 E.03648
G1 X88.233 Y117.64 E.03633
G1 X88.931 Y117.45 E.03652
G1 X89.636 Y117.307 E.03631
G1 X90.347 Y117.223 E.03614
G1 X90.847 Y117.194 E.02528
G1 X91.35 Y117.191 E.02539
G1 X92.026 Y117.225 E.03417
G1 X92.748 Y117.322 E.03677
G1 X93.463 Y117.466 E.03682
G1 X94.112 Y117.653 E.03409
G1 X94.609 Y117.828 E.0266
G1 X95.266 Y118.105 E.03599
G1 X95.907 Y118.44 E.03651
G1 X96.521 Y118.815 E.03632
G1 X97.002 Y119.155 E.02973
G1 X97.338 Y119.32 E.0189
G1 X97.636 Y119.346 E.0151
G1 X97.952 Y119.264 E.01648
G1 X158.223 Y91.159 E3.35693
G1 X158.463 Y90.996 E.01464
M73 P1 R40
G1 X158.668 Y90.709 E.0178
G1 X158.705 Y90.54 E.00873
M204 S1000
G1 X158.705 Y90.54 F10800
G1 X158.142 Y90.333
M204 S800
;TYPE:External perimeter
G1 F1200
G1 X158.142 Y72.919 E.87904
G1 X169.092 Y72.919 E.55274
G1 X169.092 Y78.394 E.27637
G1 X169.092 Y101.869 E1.18499
G1 X162.673 Y101.869 E.32402
G1 X162.545 Y101.898 E.00663
G1 X100.729 Y130.723 E3.44297
G1 X100.583 Y130.868 E.01039
M73 P2 R40
M73 Q2 S41
G1 X100.326 Y131.417 E.0306
G1 X100.086 Y131.868 E.02579
G1 X99.823 Y132.307 E.02583
G1 X99.539 Y132.732 E.0258
G1 X99.235 Y133.142 E.02576
G1 X98.91 Y133.537 E.02582
G1 X98.566 Y133.915 E.0258
G1 X98.203 Y134.276 E.02584
G1 X97.823 Y134.618 E.02581
G1 X97.427 Y134.941 E.0258
G1 X97.015 Y135.243 E.02579
G1 X96.588 Y135.525 E.02583
G1 X96.148 Y135.785 E.0258
G1 X95.695 Y136.022 E.02581
G1 X95.231 Y136.237 E.02581
G1 X94.757 Y136.428 E.0258
G1 X94.274 Y136.596 E.02581
G1 X93.783 Y136.739 E.02581
G1 X93.286 Y136.858 E.0258
G1 X92.783 Y136.951 E.02582
G1 X92.277 Y137.02 E.02578
G1 X91.767 Y137.063 E.02584
G1 X91.256 Y137.081 E.02581
G1 X90.745 Y137.073 E.0258
G1 X90.235 Y137.039 E.0258
G1 X89.727 Y136.981 E.02581
G1 X89.223 Y136.897 E.02579
G1 X88.723 Y136.788 E.02583
G1 X88.23 Y136.654 E.02579
G1 X87.744 Y136.496 E.0258
G1 X87.266 Y136.313 E.02584
G1 X86.798 Y136.108 E.02579
G1 X86.341 Y135.879 E.0258
G1 X85.896 Y135.627 E.02581
G1 X85.464 Y135.354 E.0258
G1 X85.046 Y135.059 E.02583
G1 X84.643 Y134.744 E.02582
G1 X84.256 Y134.41 E.0258
G1 X83.887 Y134.056 E.02581
G1 X83.536 Y133.685 E.02578
G1 X83.204 Y133.296 E.02582
G1 X82.891 Y132.892 E.0258
G1 X82.599 Y132.472 E.02582
G1 X82.328 Y132.038 E.02583
G1 X82.08 Y131.591 E.0258
G1 X81.854 Y131.133 E.02578
G1 X81.651 Y130.664 E.0258
G1 X81.471 Y130.185 E.02583
G1 X81.316 Y129.698 E.0258
G1 X81.185 Y129.204 E.0258
G1 X81.079 Y128.703 E.02585
G1 X80.999 Y128.199 E.02576
M73 Q2 S40
G1 X80.943 Y127.693 E.0257
G1 X80.911 Y126.924 E.03885
G1 X80.929 Y126.155 E.03883
G1 X80.975 Y125.649 E.02565
G1 X81.046 Y125.145 E.02569
G1 X81.204 Y124.392 E.03884
G1 X81.412 Y123.652 E.0388
G1 X81.582 Y123.172 E.0257
G1 X81.776 Y122.699 E.02581
G1 X81.993 Y122.237 E.02577
G1 X82.234 Y121.785 E.02586
G1 X82.496 Y121.347 E.02576
G1 X82.781 Y120.922 E.02583
G1 X83.086 Y120.511 E.02584
G1 X83.411 Y120.117 E.02578
G1 X83.755 Y119.739 E.0258
G1 X84.118 Y119.379 E.02581
G1 X84.498 Y119.037 E.02581
G1 X84.895 Y118.715 E.0258
G1 X85.307 Y118.412 E.02582
G1 X85.734 Y118.131 E.0258
G1 X86.175 Y117.872 E.02582
G1 X86.628 Y117.634 E.02583
G1 X87.092 Y117.42 E.02579
G1 X87.566 Y117.229 E.0258
G1 X88.049 Y117.062 E.0258
G1 X88.54 Y116.919 E.02581
G1 X89.037 Y116.801 E.02579
G1 X89.54 Y116.707 E.02583
G1 X90.047 Y116.639 E.02582
G1 X90.556 Y116.596 E.02579
G1 X91.067 Y116.579 E.02581
G1 X91.578 Y116.587 E.0258
G1 X92.086 Y116.621 E.0257
G1 X92.848 Y116.723 E.03881
G1 X93.603 Y116.875 E.03888
G1 X94.351 Y117.092 E.03931
G1 X94.826 Y117.261 E.02545
G1 X95.295 Y117.454 E.0256
G1 X95.756 Y117.672 E.02574
G1 X96.206 Y117.912 E.02574
G1 X96.644 Y118.174 E.02576
G1 X97.491 Y118.732 E.0512
G1 X97.695 Y118.714 E.01034
G1 X157.967 Y90.608 E3.357
G1 X158.073 Y90.527 E.00673
G1 X158.112 Y90.418 E.00584
M204 S1000
;WIPE_START
G1 F8640
G1 X158.142 Y90.333 E-.02081
G1 X158.142 Y86.092 E-.97919
;WIPE_END
G1 Z.4 F720
G1 X166.402 Y74.376 F10800
G1 Z.2 F720
G1 E1 F1500
M204 S800
;TYPE:Solid infill
;WIDTH:0.652829
G1 F1200
G1 X167.362 Y75.336 E.06885
G1 X167.362 Y76.199 E.04377
G1 X165.813 Y74.65 E.1111
G1 X164.95 Y74.65 E.04377
G1 X167.362 Y77.061 E.17295
G1 X167.362 Y77.924 E.04377
G1 X164.087 Y74.65 E.23485
G1 X163.225 Y74.65 E.04372
G1 X167.362 Y78.786 E.29667
G1 X167.362 Y79.649 E.04377
G1 X162.362 Y74.65 E.35857
G1 X161.5 Y74.65 E.04372
G1 X167.362 Y80.512 E.42043
G1 X167.362 Y81.374 E.04372
G1 X160.637 Y74.65 E.48229
G1 X159.872 Y74.65 E.0388
G1 X159.872 Y74.747 E.00492
G1 X167.362 Y82.237 E.53719
G1 X167.362 Y83.099 E.04372
G1 X159.872 Y75.61 E.53715
G1 X159.872 Y76.472 E.04372
G1 X167.362 Y83.962 E.53719
G1 X167.362 Y84.824 E.04372
G1 X159.872 Y77.335 E.53715
G1 X159.872 Y78.197 E.04372
G1 X167.362 Y85.687 E.53719
G1 X167.362 Y86.549 E.04372
G1 X159.872 Y79.06 E.53715
G1 X159.872 Y79.922 E.04372
G1 X167.362 Y87.412 E.53719
G1 X167.362 Y88.274 E.04372
G1 X159.872 Y80.785 E.53715
G1 X159.872 Y81.647 E.04372
G1 X167.362 Y89.137 E.53719
G1 X167.362 Y90 E.04377
G1 X159.872 Y82.51 E.53719
G1 X159.872 Y83.372 E.04372
G1 X167.362 Y90.862 E.53719
G1 X167.362 Y91.725 E.04377
G1 X159.872 Y84.235 E.53719
G1 X159.872 Y85.097 E.04372
G1 X167.362 Y92.587 E.53719
G1 X167.362 Y93.45 E.04377
G1 X159.872 Y85.96 E.53719
G1 X159.872 Y86.823 E.04377
G1 X167.362 Y94.312 E.53715
G1 X167.362 Y95.175 E.04377
G1 X159.872 Y87.685 E.53719
G1 X159.872 Y88.548 E.04377
G1 X167.362 Y96.037 E.53715
G1 X167.362 Y96.9 E.04377
G1 X159.872 Y89.41 E.53719
G1 X159.872 Y90.273 E.04377
G1 X167.362 Y97.762 E.53715
G1 X167.362 Y98.625 E.04377
G1 X159.751 Y91.014 E.54587
G1 X159.692 Y91.172 E.00855
G1 X159.562 Y91.414 E.01393
G1 X159.447 Y91.573 E.00995
G1 X167.362 Y99.487 E.56763
G1 X167.362 Y100.139 E.03307
G1 X167.151 Y100.139 E.0107
G1 X159.008 Y91.996 E.58402
G1 X158.706 Y92.173 E.01775
G1 X158.444 Y92.295 E.01466
G1 X166.289 Y100.139 E.56261
G1 X165.426 Y100.139 E.04377
G1 X157.856 Y92.569 E.54293
G1 X157.268 Y92.843 E.0329
M73 P3 R40
M73 Q3 S40
G1 X164.564 Y100.139 E.52327
G1 X163.701 Y100.139 E.04377
G1 X156.679 Y93.118 E.50359
G1 X156.091 Y93.392 E.0329
G1 X162.839 Y100.139 E.48393
G1 X162.624 Y100.14 E.0109
G1 X162.162 Y100.203 E.02365
G1 X162.072 Y100.236 E.00486
G1 X155.503 Y93.666 E.47117
G1 X154.915 Y93.941 E.03292
G1 X161.466 Y100.492 E.46984
G1 X160.878 Y100.766 E.0329
G1 X154.326 Y94.215 E.46988
G1 X153.738 Y94.489 E.0329
G1 X160.29 Y101.041 E.46991
G1 X159.701 Y101.315 E.03294
G1 X153.15 Y94.764 E.46984
G1 X152.562 Y95.038 E.0329
G1 X159.113 Y101.589 E.46984
G1 X158.525 Y101.863 E.0329
G1 X151.973 Y95.312 E.46988
G1 X151.385 Y95.586 E.0329
G1 X157.937 Y102.138 E.46991
G1 X157.348 Y102.412 E.03294
G1 X150.797 Y95.861 E.46984
G1 X150.209 Y96.135 E.0329
G1 X156.76 Y102.686 E.46984
G1 X156.172 Y102.961 E.03292
G1 X149.621 Y96.409 E.46988
G1 X149.032 Y96.684 E.03297
G1 X155.584 Y103.235 E.46988
G1 X154.995 Y103.509 E.03294
G1 X148.444 Y96.958 E.46984
G1 X147.856 Y97.232 E.0329
G1 X154.407 Y103.784 E.46988
G1 X153.819 Y104.058 E.0329
G1 X147.268 Y97.507 E.46984
G1 X146.679 Y97.781 E.03294
G1 X153.231 Y104.332 E.46988
G1 X152.642 Y104.606 E.03294
G1 X146.091 Y98.055 E.46984
G1 X145.503 Y98.329 E.0329
G1 X152.054 Y104.881 E.46988
G1 X151.466 Y105.155 E.0329
G1 X144.915 Y98.604 E.46984
G1 X144.326 Y98.878 E.03294
G1 X150.878 Y105.429 E.46988
G1 X150.289 Y105.704 E.03297
G1 X143.738 Y99.152 E.46988
G1 X143.15 Y99.427 E.03292
G1 X149.701 Y105.978 E.46984
G1 X149.113 Y106.252 E.0329
G1 X142.562 Y99.701 E.46984
G1 X141.973 Y99.975 E.03294
G1 X148.525 Y106.527 E.46991
G1 X147.936 Y106.801 E.03294
G1 X141.385 Y100.25 E.46984
G1 X140.797 Y100.524 E.0329
G1 X147.348 Y107.075 E.46984
G1 X146.76 Y107.349 E.0329
G1 X140.209 Y100.798 E.46984
G1 X139.62 Y101.072 E.03294
G1 X146.172 Y107.624 E.46991
G1 X145.584 Y107.898 E.0329
G1 X139.032 Y101.347 E.46988
G1 X138.444 Y101.621 E.0329
G1 X144.995 Y108.172 E.46984
G1 X144.407 Y108.447 E.03292
G1 X137.856 Y101.895 E.46988
G1 X137.267 Y102.17 E.03297
G1 X143.819 Y108.721 E.46988
G1 X143.231 Y108.995 E.0329
G1 X136.679 Y102.444 E.46988
G1 X136.091 Y102.718 E.0329
G1 X142.642 Y109.27 E.46988
G1 X142.054 Y109.544 E.0329
G1 X135.503 Y102.993 E.46984
G1 X134.915 Y103.267 E.0329
G1 X141.466 Y109.818 E.46984
G1 X140.878 Y110.093 E.03292
G1 X134.326 Y103.541 E.46991
G1 X133.738 Y103.815 E.0329
G1 X140.289 Y110.367 E.46988
G1 X139.701 Y110.641 E.0329
G1 X133.15 Y104.09 E.46984
G1 X132.562 Y104.364 E.0329
G1 X139.113 Y110.915 E.46984
G1 X138.525 Y111.19 E.03292
G1 X131.973 Y104.638 E.46991
G1 X131.385 Y104.913 E.03292
G1 X137.936 Y111.464 E.46984
G1 X137.348 Y111.738 E.0329
G1 X130.797 Y105.187 E.46984
G1 X130.209 Y105.461 E.0329
G1 X136.76 Y112.013 E.46988
G1 X136.172 Y112.287 E.0329
G1 X129.62 Y105.736 E.46988
G1 X129.032 Y106.01 E.0329
G1 X135.583 Y112.561 E.46984
G1 X134.995 Y112.836 E.03292
M73 P4 R40
M73 Q4 S40
G1 X128.444 Y106.284 E.46988
G1 X127.856 Y106.558 E.0329
