; generated by PrusaSlicer 2.7.4+win64 on 2024-06-05 at 00:58:26 UTC


;
;
; 

; external perimeters extrusion width = 0.68mm
; perimeters extrusion width = 0.68mm
; infill extrusion width = 0.68mm
; solid infill extrusion width = 0.68mm
; top infill extrusion width = 0.60mm
; first layer extrusion width = 0.65mm

M73 P0 R14
M73 Q0 S15
M201 X1000 Y1000 Z200 E5000 ; sets maximum accelerations, mm/sec^2
M203 X200 Y200 Z12 E120 ; sets maximum feedrates, mm / sec
M204 S1250 T1250 ; sets acceleration (S) and retract acceleration (R), mm/sec^2
M205 X8.00 Y8.00 Z0.40 E4.50 ; sets the jerk limits, mm/sec
M205 S0 T0 ; sets the minimum extruding and travel feed rate, mm/sec

; printing object cylinder.stl id:0 copy 0
; stop printing object cylinder.stl id:0 copy 0

;TYPE:Custom
M862.3 P "MK3S" ; printer model check
M862.1 P0.6 ; nozzle diameter check
M115 U3.13.3 ; tell printer latest fw version
G90 ; use absolute coordinates
M83 ; extruder relative mode
M104 S230 ; set extruder temp
M140 S85 ; set bed temp
M190 S85 ; wait for bed temp
M109 S230 ; wait for extruder temp
G28 W ; home all without mesh bed level
G80 X113.319 Y93.9852 W23.3612 H22.0297 ; mesh bed levelling

G1 Z0.2 F720
G1 Y-3 F1000 ; go outside print area
G92 E0
G1 X60 E9 F1000 ; intro line
G1 X100 E12.5 F1000 ; intro line
M73 Q0 S14

G92 E0
M221 S95
G21 ; set units to millimeters
G90 ; use absolute coordinates
M83 ; use relative distances for extrusion

M900 K0.04 ; Filament gcode LA 1.5
M900 K24 ; Filament gcode LA 1.0




M107
;LAYER_CHANGE
;Z:0.2
;HEIGHT:0.2
G1 E-1 F2100
G1 Z.4 F720
G1 X114.015 Y95.52 F10800
G1 Z.2 F720
G1 E1 F1500
M204 S800
;TYPE:Skirt/Brim
;WIDTH:0.65
G1 F1200
G1 X115.074 Y94.559 E.07219
G1 X116.23 Y94.289 E.05992
G1 X133.77 Y94.289 E.8854
G1 X135.145 Y94.681 E.07217
G1 X136.107 Y95.74 E.07222
G1 X136.377 Y96.896 E.05992
G1 X136.377 Y113.104 E.81816
G1 X135.985 Y114.48 E.07222
M73 P1 R14
M73 Q1 S14
G1 X134.926 Y115.441 E.07219
G1 X133.77 Y115.711 E.05992
G1 X116.23 Y115.711 E.8854
G1 X114.855 Y115.319 E.07217
G1 X113.893 Y114.26 E.07222
G1 X113.623 Y113.104 E.05992
G1 X113.623 Y96.896 E.81816
G1 X113.991 Y95.607 E.06767
M204 S1000
;WIPE_START
G1 F8640
G1 X114.015 Y95.52 E-.02084
G1 X115.074 Y94.559 E-.3302
G1 X116.23 Y94.289 E-.27411
G1 X117.853 Y94.289 E-.37485
;WIPE_END
G1 Z.4 F720
; printing object cylinder.stl id:0 copy 0
G1 X132.638 Y111.972 F10800
G1 Z.2 F720
G1 E1 F1500
M204 S800
;TYPE:Perimeter
;WIDTH:0.649999
G1 F1200
G1 X117.362 Y111.972 E.77111
G1 X117.362 Y98.028 E.70388
G1 X132.638 Y98.028 E.77111
G1 X132.638 Y105 E.35194
G1 X132.638 Y111.882 E.3474
M204 S1000
G1 X132.638 Y111.882 F10800
G1 X133.245 Y112.579
M204 S800
;TYPE:External perimeter
G1 F1200
G1 X116.755 Y112.579 E.8324
G1 X116.755 Y97.421 E.76516
G1 X133.245 Y97.421 E.8324
G1 X133.245 Y105 E.38258
G1 X133.245 Y112.489 E.37804
M73 Q2 S14
M204 S1000
;WIPE_START
G1 F8640
M73 P2 R14
G1 X133.245 Y112.579 E-.02078
G1 X129.004 Y112.579 E-.97922
;WIPE_END
G1 Z.4 F720
G1 X132.395 Y99.5 F10800
G1 Z.2 F720
G1 E1 F1500
M204 S800
;TYPE:Solid infill
;WIDTH:0.650821
G1 F1200
G1 X131.439 Y98.544 E.06834
G1 X130.58 Y98.544 E.04342
G1 X132.122 Y100.086 E.11023
G1 X132.122 Y100.946 E.04347
G1 X129.72 Y98.544 E.17171
G1 X128.86 Y98.544 E.04347
G1 X132.122 Y101.806 E.23318
G1 X132.122 Y102.665 E.04342
G1 X128.001 Y98.544 E.29459
G1 X127.141 Y98.544 E.04347
G1 X132.122 Y103.525 E.35606
G1 X132.122 Y104.385 E.04347
G1 X126.281 Y98.544 E.41754
G1 X125.421 Y98.544 E.04347
G1 X132.122 Y105.244 E.47898
G1 X132.122 Y106.104 E.04347
G1 X124.562 Y98.544 E.54042
G1 X123.702 Y98.544 E.04347
G1 X132.122 Y106.964 E.6019
G1 X132.122 Y107.823 E.04342
G1 X122.842 Y98.544 E.66334
G1 X121.983 Y98.544 E.04342
G1 X132.122 Y108.683 E.72478
G1 X132.122 Y109.543 E.04347
G1 X121.123 Y98.544 E.78626
G1 X120.263 Y98.544 E.04347
G1 X132.122 Y110.403 E.84773
G1 X132.122 Y111.262 E.04342
G1 X119.404 Y98.544 E.90914
G1 X118.544 Y98.544 E.04347
G1 X131.456 Y111.456 E.92301
G1 X130.596 Y111.456 E.04347
M73 P3 R14
M73 Q3 S14
G1 X117.878 Y98.738 E.90914
G1 X117.878 Y99.598 E.04347
G1 X129.737 Y111.456 E.8477
G1 X128.877 Y111.456 E.04347
G1 X117.878 Y100.457 E.78626
G1 X117.878 Y101.317 E.04347
G1 X128.017 Y111.456 E.72478
G1 X127.158 Y111.456 E.04342
G1 X117.878 Y102.177 E.66334
G1 X117.878 Y103.036 E.04342
G1 X126.298 Y111.456 E.6019
G1 X125.438 Y111.456 E.04347
G1 X117.878 Y103.896 E.54042
G1 X117.878 Y104.756 E.04347
G1 X124.578 Y111.456 E.47895
G1 X123.719 Y111.456 E.04342
G1 X117.878 Y105.615 E.41754
G1 X117.878 Y106.475 E.04347
G1 X122.859 Y111.456 E.35606
G1 X121.999 Y111.456 E.04347
G1 X117.878 Y107.335 E.29459
G1 X117.878 Y108.195 E.04347
G1 X121.14 Y111.456 E.23315
G1 X120.28 Y111.456 E.04347
G1 X117.878 Y109.054 E.17171
G1 X117.878 Y109.914 E.04347
G1 X119.42 Y111.456 E.11023
G1 X118.561 Y111.456 E.04342
G1 X117.605 Y110.501 E.0683
M204 S1000
;LAYER_CHANGE
;Z:0.6
;HEIGHT:0.4
;BEFORE_LAYER_CHANGE
G92 E0.0
;0.6


;WIPE_START
G1 F8640
G1 X118.561 Y111.456 E-.31201
G1 X119.42 Y111.456 E-.19835
G1 X117.921 Y109.957 E-.48964
;WIPE_END
G1 Z.6 F720
M73 Q4 S14
;AFTER_LAYER_CHANGE
;0.6
M104 S240 ; set temperature
M140 S90 ; set bed temperature
; stop printing object cylinder.stl id:0 copy 0
G1 Z.8
G1 X113.623 Y109.957 F10800
G1 Z.6 F720
M73 P4 R14
G1 E1 F1500
;TYPE:Skirt/Brim
;WIDTH:0.65
G1 F2127.059
G1 X113.623 Y96.896 E1.22538
G1 X114.015 Y95.52 E.13423
G1 X115.074 Y94.559 E.13417
G1 X116.23 Y94.289 E.11137
G1 X133.77 Y94.289 E1.6456
G1 X135.145 Y94.681 E.13414
G1 X136.107 Y95.74 E.13423
G1 X136.377 Y96.896 E.11137
G1 X136.377 Y113.104 E1.52064
G1 X135.985 Y114.48 E.13423
G1 X134.926 Y115.441 E.13417
G1 X133.77 Y115.711 E.11137
G1 X116.23 Y115.711 E1.6456
G1 X114.855 Y115.319 E.13414
G1 X113.893 Y114.26 E.13423
G1 X113.623 Y113.104 E.11137
G1 X113.623 Y110.047 E.28681
;WIPE_START
G1 F8640
G1 X113.623 Y109.957 E-.02078
G1 X113.623 Y105.716 E-.97922
;WIPE_END
G1 Z.8 F720
; printing object cylinder.stl id:0 copy 0
G1 X132.836 Y112.17 F10800
G1 Z.6 F720
G1 E1 F1500
M204 S800
;TYPE:Perimeter
;WIDTH:0.68
G1 F2019.661
G1 X117.164 Y112.17 E1.54854
G1 X117.164 Y97.83 E1.41692
G1 X132.836 Y97.83 E1.54854
G1 X132.836 Y105 E.70846
G1 X132.836 Y112.08 E.69957
M204 S1000
G1 X132.836 Y112.08 F10800
G1 X133.43 Y112.764
M204 S800
;TYPE:External perimeter
G1 F2019.661
G1 X116.57 Y112.764 E1.66592
G1 X116.57 Y111.744 E.10079
G1 X116.57 Y98.256 E1.33274
G1 X116.57 Y97.236 E.10079
G1 X133.43 Y97.236 E1.66592
G1 X133.43 Y105 E.76715
G1 F2018.055
G1 X133.43 Y112.674 E.75826
M204 S1000
;WIPE_START
G1 F8640
G1 X133.43 Y112.764 E-.02078
G1 X129.189 Y112.764 E-.97922
;WIPE_END
G1 Z.8 F720
G1 X117.83 Y98.383 F10800
G1 Z.6 F720
G1 E1 F1500
;TYPE:Solid infill
;WIDTH:0.824161
G1 F1625.312
G1 X117.765 Y98.318 E.01129
G1 X117.676 Y98.342 E.01132
G1 X117.652 Y98.431 E.01132
G1 X117.717 Y98.496 E.01129
G1 X117.807 Y98.472 E.01144
;WIDTH:0.68
G1 F2019.661
G1 X117.669 Y99.421 E.09476
G1 X118.756 Y98.335 E.15182
G1 X119.596 Y98.335 E.083
G1 X117.669 Y100.262 E.26927
G1 X117.669 Y101.102 E.083
G1 X120.436 Y98.335 E.38665
G1 X121.276 Y98.335 E.083
G1 X117.669 Y101.942 E.50403
G1 X117.669 Y102.782 E.083
G1 X122.117 Y98.335 E.62148
G1 X122.957 Y98.335 E.083
G1 X117.669 Y103.623 E.73893
G1 X117.669 Y104.463 E.083
M73 Q5 S14
G1 X123.797 Y98.335 E.85631
G1 X124.637 Y98.335 E.083
M73 P5 R14
G1 X117.669 Y105.303 E.97369
G1 X117.669 Y106.143 E.083
G1 X125.478 Y98.335 E1.09114
G1 X126.318 Y98.335 E.083
G1 X117.669 Y106.984 E1.20859
G1 X117.669 Y107.824 E.083
G1 X127.158 Y98.335 E1.32597
G1 X127.999 Y98.335 E.0831
G1 X117.669 Y108.664 E1.44341
G1 X117.669 Y109.505 E.0831
G1 X128.839 Y98.335 E1.56086
G1 X129.679 Y98.335 E.083
G1 X117.669 Y110.345 E1.67824
;WIPE_START
G1 F8640
G1 X120.731 Y107.283 E-1
;WIPE_END
G1 Z.8 F720
G1 X117.588 Y111.836 F10800
G1 Z.6 F720
G1 E1 F1500
;WIDTH:0.595841
G1 F2352.941
G1 X117.526 Y111.853 E.00545
G1 X117.481 Y111.808 E.0054
G1 X117.498 Y111.746 E.00545
G1 X117.559 Y111.73 E.00535
G1 X117.605 Y111.775 E.00546
;WIDTH:0.63792
G1 F2173.6
G1 X117.637 Y111.48 E.02724
;WIDTH:0.68
G1 F2019.661
G1 X117.669 Y111.185 E.02932
G1 X130.519 Y98.335 E1.79562
G1 X131.36 Y98.335 E.0831
G1 X118.03 Y111.665 E1.8627
G1 X118.87 Y111.665 E.083
G1 X132.2 Y98.335 E1.8627
G1 X132.331 Y99.044 E.07124
G1 X119.71 Y111.665 E1.76362
G1 X120.55 Y111.665 E.083
G1 X132.331 Y99.885 E1.64617
G1 X132.331 Y100.725 E.083
G1 X121.391 Y111.665 E1.52872
G1 X122.231 Y111.665 E.083
G1 X132.331 Y101.565 E1.41134
G1 X132.331 Y102.405 E.083
G1 X123.071 Y111.665 E1.29397
G1 X123.911 Y111.665 E.083
G1 X132.331 Y103.246 E1.17652
G1 X132.331 Y104.086 E.083
G1 X124.752 Y111.665 E1.05907
G1 X125.592 Y111.665 E.083
M73 P6 R14
M73 Q6 S14
G1 X132.331 Y104.926 E.94169
G1 X132.331 Y105.766 E.083
G1 X126.432 Y111.665 E.82431
G1 X127.272 Y111.665 E.083
G1 X132.331 Y106.607 E.70686
G1 X132.331 Y107.447 E.083
G1 X128.113 Y111.665 E.58941
G1 X128.953 Y111.665 E.083
G1 X132.331 Y108.287 E.47203
G1 X132.331 Y109.128 E.0831
G1 X129.793 Y111.665 E.35458
G1 X130.634 Y111.665 E.0831
G1 X132.331 Y109.968 E.23713
G1 X132.331 Y110.808 E.083
G1 X131.474 Y111.665 E.11975
G1 X132.379 Y111.714 E.08955
;WIDTH:0.689777
G1 F1986.965
G1 X132.306 Y111.733 E.00758
G1 X132.253 Y111.68 E.00753
G1 X132.273 Y111.607 E.0076
G1 X132.345 Y111.587 E.00751
G1 X132.399 Y111.641 E.00767
;LAYER_CHANGE
;Z:1
;HEIGHT:0.4
;BEFORE_LAYER_CHANGE
G92 E0.0
;1


;WIPE_START
G1 F8640
G1 X132.345 Y111.587 E-.01763
G1 X132.273 Y111.607 E-.01725
G1 X132.253 Y111.68 E-.01748
G1 X132.306 Y111.733 E-.01731
G1 X132.379 Y111.714 E-.01742
G1 X131.474 Y111.665 E-.20927
G1 X132.331 Y110.808 E-.27985
G1 X132.331 Y109.968 E-.19396
G1 X131.627 Y110.672 E-.22983
;WIPE_END
G1 Z1 F720
;AFTER_LAYER_CHANGE
;1
; stop printing object cylinder.stl id:0 copy 0
G1 Z1.2
G1 X136.377 Y110.672 F10800
G1 Z1 F720
G1 E1 F1500
;TYPE:Skirt/Brim
;WIDTH:0.65
G1 F2127.059
G1 X136.377 Y113.104 E.22817
G1 X135.985 Y114.48 E.13423
G1 X134.926 Y115.441 E.13417
G1 X133.77 Y115.711 E.11137
G1 X116.23 Y115.711 E1.6456
G1 X114.855 Y115.319 E.13414
G1 X113.893 Y114.26 E.13423
G1 X113.623 Y113.104 E.11137
G1 X113.623 Y96.896 E1.52064
G1 X114.015 Y95.52 E.13423
G1 X115.074 Y94.559 E.13417
G1 X116.23 Y94.289 E.11137
G1 X133.77 Y94.289 E1.6456
G1 X135.145 Y94.681 E.13414
M73 P6 R13
G1 X136.107 Y95.74 E.13423
G1 X136.377 Y96.896 E.11137
G1 X136.377 Y110.582 E1.28402
;WIPE_START
G1 F8640
G1 X136.377 Y110.672 E-.02078
G1 X136.377 Y113.104 E-.56156
G1 X135.985 Y114.48 E-.33036
G1 X135.705 Y114.734 E-.0873
;WIPE_END
G1 Z1.2 F720
; printing object cylinder.stl id:0 copy 0
G1 X132.836 Y112.17 F10800
G1 Z1 F720
G1 E1 F1500
M204 S800
;TYPE:Perimeter
;WIDTH:0.68
G1 F2019.661
G1 X117.164 Y112.17 E1.54854
G1 X117.164 Y97.83 E1.41692
G1 X132.836 Y97.83 E1.54854
G1 X132.836 Y105 E.70846
G1 X132.836 Y112.08 E.69957
M204 S1000
G1 X132.836 Y112.08 F10800
G1 X133.43 Y112.764
M204 S800
;TYPE:External perimeter
G1 F2019.661
G1 X116.57 Y112.764 E1.66592
G1 X116.57 Y97.236 E1.53431
G1 X133.43 Y97.236 E1.66592
M73 Q6 S13
G1 X133.43 Y105 E.76715
G1 X133.43 Y112.674 E.75826
M73 Q7 S13
M204 S1000
;WIPE_START
G1 F8640
M73 P7 R13
G1 X133.43 Y112.764 E-.02078
G1 X129.189 Y112.764 E-.97922
;WIPE_END
G1 Z1.2 F720
G1 X117.717 Y111.504 F10800
G1 Z1 F720
G1 E1 F1500
;TYPE:Solid infill
;WIDTH:0.824161
G1 F1625.312
G1 X117.652 Y111.569 E.01129
G1 X117.676 Y111.658 E.01132
G1 X117.765 Y111.682 E.01132
G1 X117.83 Y111.617 E.01129
G1 X117.807 Y111.528 E.01129
;WIDTH:0.68
G1 F2019.661
G1 X117.669 Y110.579 E.09476
G1 X118.756 Y111.665 E.15182
G1 X119.596 Y111.665 E.083
G1 X117.669 Y109.738 E.26927
G1 X117.669 Y108.898 E.083
G1 X120.436 Y111.665 E.38665
G1 X121.276 Y111.665 E.083
G1 X117.669 Y108.058 E.50403
G1 X117.669 Y107.218 E.083
G1 X122.117 Y111.665 E.62148
G1 X122.957 Y111.665 E.083
G1 X117.669 Y106.377 E.73893
G1 X117.669 Y105.537 E.083
G1 X123.797 Y111.665 E.85631
G1 X124.637 Y111.665 E.083
G1 X117.669 Y104.697 E.97369
G1 X117.669 Y103.857 E.083
G1 X125.478 Y111.665 E1.09114
G1 X126.318 Y111.665 E.083
G1 X117.669 Y103.016 E1.20859
G1 X117.669 Y102.176 E.083
G1 X127.158 Y111.665 E1.32597
G1 X127.999 Y111.665 E.0831
G1 X117.669 Y101.336 E1.44341
G1 X117.669 Y100.495 E.0831
G1 X128.839 Y111.665 E1.56086
G1 X129.679 Y111.665 E.083
G1 X117.669 Y99.655 E1.67824
G1 X117.669 Y98.815 E.083
G1 X130.519 Y111.665 E1.79562
G1 X131.36 Y111.665 E.0831
G1 X118.03 Y98.335 E1.8627
G1 X117.809 Y98.249 E.02343
;WIDTH:0.63792
G1 F2173.6
G1 X117.588 Y98.164 E.02174
;WIDTH:0.595841
G1 F2352.941
G1 X117.605 Y98.225 E.00537
G1 X117.559 Y98.27 E.00546
G1 X117.498 Y98.254 E.00535
G1 X117.481 Y98.192 E.00545
G1 X117.526 Y98.147 E.0054
;WIPE_START
G1 F8640
G1 X117.481 Y98.192 E-.01469
G1 X117.498 Y98.254 E-.01484
G1 X117.559 Y98.27 E-.01456
G1 X117.605 Y98.225 E-.01486
G1 X117.588 Y98.164 E-.01462
G1 X117.809 Y98.249 E-.05467
G1 X118.03 Y98.335 E-.05476
G1 X120.532 Y100.837 E-.817
;WIPE_END
G1 Z1.2 F720
G1 X118.87 Y98.335 F10800
G1 Z1 F720
G1 E1 F1500
;WIDTH:0.68
G1 F2019.661
G1 X132.2 Y111.665 E1.8627
G1 X132.352 Y111.73 E.01633
;WIDTH:0.63792
G1 F2173.6
G1 X132.505 Y111.794 E.01523
;WIDTH:0.595841
G1 F2352.941
G1 X132.46 Y111.839 E.0054
G1 X132.477 Y111.901 E.00545
G1 X132.538 Y111.917 E.00535
G1 X132.583 Y111.872 E.0054
G1 X132.567 Y111.811 E.00535
;WIDTH:0.68
G1 F2019.661
G1 X132.331 Y110.956 E.08764
G1 X119.71 Y98.335 E1.76362
G1 X120.55 Y98.335 E.083
G1 X132.331 Y110.115 E1.64617
G1 X132.331 Y109.275 E.083
G1 X121.391 Y98.335 E1.52872
M73 Q8 S13
G1 X122.231 Y98.335 E.083
M73 P8 R13
G1 X132.331 Y108.435 E1.41134
G1 X132.331 Y107.595 E.083
G1 X123.071 Y98.335 E1.29397
G1 X123.911 Y98.335 E.083
G1 X132.331 Y106.754 E1.17652
G1 X132.331 Y105.914 E.083
G1 X124.752 Y98.335 E1.05907
G1 X125.592 Y98.335 E.083
G1 X132.331 Y105.074 E.94169
G1 X132.331 Y104.234 E.083
G1 X126.432 Y98.335 E.82431
G1 X127.272 Y98.335 E.083
G1 X132.331 Y103.393 E.70686
G1 X132.331 Y102.553 E.083
G1 X128.113 Y98.335 E.58941
G1 X128.953 Y98.335 E.083
G1 X132.331 Y101.713 E.47203
G1 X132.331 Y100.872 E.0831
G1 X129.793 Y98.335 E.35458
G1 X130.634 Y98.335 E.0831
G1 X132.331 Y100.032 E.23713
G1 X132.331 Y99.192 E.083
G1 X131.474 Y98.335 E.11975
G1 X132.306 Y98.267 E.08248
;WIDTH:0.689777
G1 F1986.965
G1 X132.253 Y98.32 E.00753
G1 X132.273 Y98.393 E.0076
G1 X132.345 Y98.413 E.00751
G1 X132.399 Y98.359 E.00767
G1 X132.379 Y98.286 E.0076
M106 S63.75
;LAYER_CHANGE
;Z:1.4
;HEIGHT:0.4
;BEFORE_LAYER_CHANGE
G92 E0.0
;1.4


;WIPE_START
G1 F8640
G1 X132.399 Y98.359 E-.01748
G1 X132.345 Y98.413 E-.01763
G1 X132.273 Y98.393 E-.01725
G1 X132.253 Y98.32 E-.01748
G1 X132.306 Y98.267 E-.01731
G1 X131.474 Y98.335 E-.19275
G1 X132.331 Y99.192 E-.27985
G1 X132.331 Y100.032 E-.19396
G1 X131.577 Y99.278 E-.24629
;WIPE_END
G1 Z1.4 F720
;AFTER_LAYER_CHANGE
;1.4
G1 Z1.6
G1 X132.836 Y112.17 F10800
G1 Z1.4 F720
G1 E1 F1500
M204 S800
;TYPE:Perimeter
;WIDTH:0.68
G1 F900
G1 X117.164 Y112.17 E1.54854
G1 X117.164 Y97.83 E1.41692
G1 X132.836 Y97.83 E1.54854
G1 X132.836 Y105 E.70846
G1 X132.836 Y112.08 E.69957
M204 S1000
G1 X132.836 Y112.08 F10800
G1 X133.43 Y112.764
M204 S800
;TYPE:External perimeter
G1 F900
G1 X116.57 Y112.764 E1.66592
G1 X116.57 Y97.236 E1.53431
M73 P9 R13
M73 Q9 S13
G1 X133.43 Y97.236 E1.66592
G1 X133.43 Y105 E.76715
G1 X133.43 Y112.674 E.75826
M204 S1000
;WIPE_START
G1 F8640
G1 X133.43 Y112.764 E-.02078
G1 X129.189 Y112.764 E-.97922
;WIPE_END
G1 Z1.6 F720
G1 X132.331 Y110.648 F10800
G1 Z1.4 F720
G1 E1 F1500
;TYPE:Internal infill
;WIDTH:0.68
G1 F900
G1 X132.331 Y111.665 E.10049
G1 X130.848 Y111.665 E.14653
G1 X130.1 Y111.154 E.08951
G1 X129.463 Y110.876 E.06867
G1 X128.825 Y110.687 E.06575
G1 X128.188 Y110.618 E.06331
G1 X127.869 Y110.698 E.0325
G1 X127.55 Y110.98 E.04207
G1 X127.171 Y111.665 E.07735
G1 X120.648 Y111.665 E.64453
G1 X119.9 Y111.154 E.08951
G1 X119.262 Y110.876 E.06876
G1 X118.625 Y110.687 E.06565
G1 X117.987 Y110.618 E.06341
G1 X117.669 Y110.698 E.0324
G1 X117.669 Y108.643 E.20305
G1 X117.987 Y108.067 E.06501
G1 X118.625 Y107.079 E.11621
G1 X119.262 Y106.457 E.08797
G1 X119.9 Y106.054 E.07456
G1 X120.537 Y105.776 E.06867
