; generated by PrusaSlicer 2.6.0+linux-x64-GTK3 on 2023-08-31 at 19:45:22 UTC


;
;
; 

; external perimeters extrusion width = 0.45mm
; perimeters extrusion width = 0.45mm
; infill extrusion width = 0.45mm
; solid infill extrusion width = 0.45mm
; top infill extrusion width = 0.40mm
; first layer extrusion width = 0.42mm

M73 P0 R91
M73 C23
M73 Q0 S92
M73 D23
M201 X1000 Y1000 Z200 E5000 ; sets maximum accelerations, mm/sec^2
M203 X200 Y200 Z12 E120 ; sets maximum feedrates, mm / sec
M204 S1250 T1250 ; sets acceleration (S) and retract acceleration (R), mm/sec^2
M205 X8.00 Y8.00 Z0.40 E4.50 ; sets the jerk limits, mm/sec
M205 S0 T0 ; sets the minimum extruding and travel feed rate, mm/sec
;TYPE:Custom
M862.3 P "MK3S" ; printer model check
M862.1 P0.4 ; nozzle diameter check
M115 U3.13.0 ; tell printer latest fw version
G90 ; use absolute coordinates
M83 ; extruder relative mode
M104 S215 ; set extruder temp
M140 S60 ; set bed temp
M190 S60 ; wait for bed temp
M109 S215 ; wait for extruder temp
G28 W ; home all without mesh bed level
G80 ; mesh bed leveling

G1 Z0.2 F720
G1 Y-3 F1000 ; go outside print area
G92 E0
G1 X60 E9 F1000 ; intro line
G1 X100 E12.5 F1000 ; intro line

G92 E0
M221 S95

; Don't change E values below. Excessive value can damage the printer.
M907 E430 ; set extruder motor current
G21 ; set units to millimeters
G90 ; use absolute coordinates
M83 ; use relative distances for extrusion
M900 K0.05 ; Filament gcode LA 1.5
M900 K30 ; Filament gcode LA 1.0
M107
;LAYER_CHANGE
;Z:0.2
;HEIGHT:0.2
;BEFORE_LAYER_CHANGE
G92 E0.0
;0.2


G1 E-.8 F2100
G1 Z.4 F720
;AFTER_LAYER_CHANGE
;0.2
G1 X43.06 Y85.905 F10800
G1 Z.2 F720
G1 E.8 F2100
M204 S800
;TYPE:Skirt/Brim
;WIDTH:0.42
G1 F1200
G1 X44 Y85.711 E.03009
G1 X206 Y85.711 E5.0794
G1 X207.307 Y86.103 E.04278
M73 Q0 S91
G1 X208.183 Y87.148 E.04275
G1 X208.377 Y88.088 E.03009
G1 X208.377 Y121.912 E1.06053
G1 X207.985 Y123.219 E.04278
G1 X206.94 Y124.095 E.04275
G1 X206 Y124.289 E.03009
G1 X44 Y124.289 E5.0794
G1 X42.693 Y123.897 E.04278
G1 X41.817 Y122.852 E.04275
G1 X41.623 Y121.912 E.03009
G1 X41.623 Y88.088 E1.06053
G1 X42.015 Y86.781 E.04278
G1 X43.014 Y85.943 E.04088
M204 S1000
; printing object 4_MR_Slant_Broad_Strip-Strip.stl id:0 copy 0
;WIPE_START
G1 F8640
G1 X44 Y85.711 E-.23389
G1 X46.452 Y85.711 E-.56611
;WIPE_END
G1 Z.6 F720
G1 X45.541 Y120.371 F10800
G1 Z.2 F720
G1 E.8 F2100
M204 S800
;TYPE:Perimeter
;WIDTH:0.419999
G1 F1200
G1 X45.541 Y89.629 E.96389
G1 X204.459 Y89.629 E4.98275
G1 X204.459 Y120.371 E.96389
M73 P0 R90
G1 X45.601 Y120.371 E4.98087
M204 S1000
G1 X45.164 Y120.748 F10800
M204 S800
M73 C22
G1 F1200
G1 X45.164 Y89.252 E.98753
G1 X204.836 Y89.252 E5.0064
G1 X204.836 Y120.748 E.98753
M73 P1 R90
M73 Q1 S91
M73 D22
G1 X45.224 Y120.748 E5.00451
M204 S1000
G1 X44.787 Y121.125 F10800
M204 S800
G1 F1200
G1 X44.787 Y88.875 E1.01117
G1 X205.213 Y88.875 E5.03004
G1 X205.213 Y121.125 E1.01117
M73 Q1 S90
G1 X44.847 Y121.125 E5.02815
M204 S1000
G1 X44.41 Y121.502 F10800
M204 S800
;TYPE:External perimeter
G1 F1200
G1 X44.41 Y88.498 E1.03482
G1 X205.59 Y88.498 E5.05368
G1 X205.59 Y121.502 E1.03482
M73 P1 R89
G1 X44.47 Y121.502 E5.0518
M204 S1000
G1 X44.586 Y121.143 F10800
;WIPE_START
M73 C21
G1 F8640
G1 X44.464 Y118.037 E-.8
;WIPE_END
G1 Z.6 F720
G1 X184.936 Y118.32 F10800
G1 Z.2 F720
G1 E.8 F2100
M204 S800
;TYPE:Perimeter
G1 F1200
G1 X184.615 Y118.365 E.01016
G1 X184.022 Y118.341 E.01861
G1 X183.414 Y118.197 E.01959
G1 X182.845 Y117.935 E.01964
G1 X182.34 Y117.566 E.01961
G1 X181.919 Y117.104 E.0196
G1 X181.597 Y116.568 E.01961
G1 X181.388 Y115.978 E.01963
G1 X181.305 Y115.471 E.01611
G1 X181.315 Y114.887 E.01831
G1 X181.444 Y114.277 E.01955
G1 X181.691 Y113.703 E.01959
G1 X182.048 Y113.189 E.01962
G1 X182.499 Y112.756 E.0196
G1 X183.027 Y112.42 E.01962
G1 X183.611 Y112.197 E.0196
G1 X184.228 Y112.093 E.01962
G1 X184.854 Y112.113 E.01964
G1 X185.462 Y112.258 E.0196
G1 X186.03 Y112.519 E.0196
G1 X186.535 Y112.889 E.01963
G1 X186.957 Y113.351 E.01962
G1 X187.279 Y113.887 E.01961
G1 X187.488 Y114.477 E.01963
G1 X187.577 Y115.096 E.01961
G1 X187.54 Y115.72 E.0196
G1 X187.381 Y116.325 E.01961
G1 X187.105 Y116.887 E.01963
G1 X186.724 Y117.382 E.01959
G1 X186.251 Y117.793 E.01965
G1 X185.707 Y118.101 E.0196
G1 X185.113 Y118.295 E.01959
G1 X184.995 Y118.312 E.00374
M204 S1000
G1 X184.868 Y117.949 F10800
M204 S800
G1 F1200
G1 X184.483 Y117.995 E.01216
G1 X183.866 Y117.933 E.01944
G1 X183.341 Y117.765 E.01728
G1 X182.86 Y117.498 E.01725
G1 X182.441 Y117.14 E.01728
G1 X182.102 Y116.706 E.01727
G1 X181.855 Y116.214 E.01726
G1 X181.713 Y115.704 E.0166
G1 X181.679 Y115.425 E.00881
G1 X181.691 Y114.907 E.01625
G1 X181.809 Y114.37 E.01724
G1 X182.031 Y113.866 E.01727
G1 X182.348 Y113.416 E.01726
G1 X182.749 Y113.038 E.01728
G1 X183.216 Y112.747 E.01725
G1 X183.732 Y112.554 E.01727
G1 X184.275 Y112.467 E.01724
G1 X184.825 Y112.489 E.01726
G1 X185.36 Y112.621 E.01728
G1 X185.858 Y112.855 E.01725
G1 X186.3 Y113.183 E.01726
G1 X186.668 Y113.593 E.01727
G1 X186.948 Y114.067 E.01726
G1 X187.128 Y114.588 E.01728
G1 X187.201 Y115.133 E.01724
G1 X187.165 Y115.683 E.01728
G1 X187.021 Y116.214 E.01725
G1 X186.774 Y116.706 E.01726
G1 X186.435 Y117.14 E.01727
G1 X186.016 Y117.498 E.01728
G1 X185.535 Y117.765 E.01725
G1 X185.011 Y117.932 E.01724
G1 X184.928 Y117.942 E.00262
M204 S1000
G1 X184.863 Y117.574 F10800
M204 S800
G1 F1200
G1 X184.441 Y117.616 E.0133
G1 X183.968 Y117.57 E.0149
G1 X183.513 Y117.43 E.01493
G1 X183.095 Y117.203 E.01491
G1 X182.73 Y116.898 E.01491
G1 X182.433 Y116.526 E.01493
G1 X182.215 Y116.103 E.01492
G1 X182.087 Y115.658 E.01452
G1 X182.053 Y115.379 E.00881
G1 X182.074 Y114.867 E.01607
G1 X182.213 Y114.358 E.01654
G1 X182.429 Y113.934 E.01492
G1 X182.726 Y113.562 E.01493
G1 X183.09 Y113.255 E.01493
G1 X183.507 Y113.027 E.0149
G1 X183.961 Y112.886 E.01491
G1 X184.435 Y112.838 E.01494
G1 X184.908 Y112.885 E.0149
G1 X185.363 Y113.025 E.01493
G1 X185.781 Y113.252 E.01491
G1 X186.146 Y113.557 E.01491
G1 X186.443 Y113.928 E.0149
G1 X186.689 Y114.445 E.01795
G1 X186.79 Y114.809 E.01184
G1 X186.826 Y115.284 E.01494
G1 X186.768 Y115.756 E.01491
G1 X186.617 Y116.207 E.01491
G1 X186.38 Y116.619 E.0149
G1 X186.065 Y116.976 E.01493
G1 X185.686 Y117.264 E.01492
G1 X185.258 Y117.471 E.01491
G1 X184.921 Y117.559 E.01092
M204 S1000
G1 X184.751 Y117.215 F10800
M204 S800
;TYPE:External perimeter
G1 F1200
G1 X184.469 Y117.24 E.00888
G1 X184.07 Y117.207 E.01255
G1 X183.685 Y117.094 E.01258
G1 X183.33 Y116.908 E.01257
G1 X183.019 Y116.655 E.01257
G1 X182.764 Y116.346 E.01256
G1 X182.576 Y115.992 E.01257
G1 X182.462 Y115.612 E.01244
G1 X182.427 Y115.333 E.00882
G1 X182.45 Y114.909 E.01331
G1 X182.553 Y114.521 E.01259
G1 X182.73 Y114.162 E.01255
G1 X182.975 Y113.844 E.01259
G1 X183.278 Y113.582 E.01256
G1 X183.627 Y113.385 E.01257
M73 D21
G1 X184.008 Y113.26 E.01257
G1 X184.407 Y113.214 E.01259
G1 X184.806 Y113.248 E.01256
G1 X185.191 Y113.36 E.01257
G1 X185.546 Y113.546 E.01257
G1 X185.857 Y113.799 E.01257
G1 X186.112 Y114.109 E.01259
G1 X186.329 Y114.556 E.01558
G1 X186.415 Y114.847 E.00951
G1 X186.451 Y115.246 E.01256
G1 X186.407 Y115.645 E.01259
G1 X186.286 Y116.027 E.01256
G1 X186.091 Y116.377 E.01256
G1 X185.83 Y116.681 E.01256
G1 X185.514 Y116.929 E.01259
G1 X185.156 Y117.108 E.01255
G1 X184.81 Y117.203 E.01125
M204 S1000
G1 X184.656 Y117.481 F10800
;WIPE_START
G1 F8640
M73 Q2 S90
G1 X184.469 Y117.24 E-.0792
G1 X184.07 Y117.207 E-.09244
G1 X183.685 Y117.094 E-.09265
G1 X183.33 Y116.908 E-.09254
G1 X183.019 Y116.655 E-.09257
M73 P2 R89
G1 X182.764 Y116.346 E-.09251
G1 X182.576 Y115.992 E-.09255
G1 X182.462 Y115.612 E-.09161
G1 X182.427 Y115.333 E-.06493
G1 X182.429 Y115.294 E-.009
;WIPE_END
G1 Z.6 F720
G1 X204.289 Y90.562 F10800
G1 Z.2 F720
G1 E.8 F2100
M204 S800
;TYPE:Solid infill
;WIDTH:0.420554
G1 F1200
G1 X203.695 Y89.969 E.02636
G1 X203.161 Y89.969 E.01677
G1 X204.119 Y90.927 E.04254
G1 X204.119 Y91.461 E.01677
G1 X202.627 Y89.969 E.06626
G1 X202.093 Y89.969 E.01677
G1 X204.119 Y91.995 E.08997
G1 X204.119 Y92.529 E.01677
G1 X201.559 Y89.969 E.11368
G1 X201.025 Y89.969 E.01677
G1 X204.119 Y93.063 E.13739
G1 X204.119 Y93.597 E.01677
G1 X200.491 Y89.969 E.16111
G1 X199.957 Y89.969 E.01677
G1 X204.119 Y94.131 E.18482
G1 X204.119 Y94.665 E.01677
G1 X199.423 Y89.969 E.20853
G1 X198.889 Y89.969 E.01677
G1 X204.119 Y95.199 E.23225
G1 X204.119 Y95.733 E.01677
G1 X198.355 Y89.969 E.25596
G1 X197.821 Y89.969 E.01677
G1 X204.119 Y96.267 E.27967
G1 X204.119 Y96.801 E.01677
G1 X197.287 Y89.969 E.30339
G1 X196.753 Y89.969 E.01677
G1 X204.119 Y97.335 E.3271
G1 X204.119 Y97.869 E.01677
G1 X196.219 Y89.969 E.35081
G1 X195.684 Y89.969 E.0168
G1 X204.119 Y98.404 E.37457
G1 X204.119 Y98.938 E.01677
G1 X195.15 Y89.969 E.39829
G1 X194.616 Y89.969 E.01677
G1 X204.119 Y99.472 E.422
G1 X204.119 Y100.006 E.01677
G1 X194.082 Y89.969 E.44571
G1 X193.548 Y89.969 E.01677
G1 X204.119 Y100.54 E.46942
G1 X204.119 Y101.074 E.01677
G1 X193.014 Y89.969 E.49314
G1 X192.48 Y89.969 E.01677
G1 X204.119 Y101.608 E.51685
G1 X204.119 Y102.142 E.01677
G1 X191.946 Y89.969 E.54056
G1 X191.412 Y89.969 E.01677
G1 X204.119 Y102.676 E.56428
G1 X204.119 Y103.21 E.01677
G1 X190.878 Y89.969 E.58799
G1 X190.344 Y89.969 E.01677
G1 X204.119 Y103.744 E.6117
G1 X204.119 Y104.278 E.01677
G1 X189.81 Y89.969 E.63542
G1 X189.276 Y89.969 E.01677
G1 X204.119 Y104.812 E.65913
G1 X204.119 Y105.346 E.01677
G1 X188.742 Y89.969 E.68284
G1 X188.208 Y89.969 E.01677
G1 X204.119 Y105.88 E.70656
G1 X204.119 Y106.414 E.01677
G1 X187.674 Y89.969 E.73027
G1 X187.14 Y89.969 E.01677
G1 X204.119 Y106.948 E.75398
G1 X204.119 Y107.482 E.01677
G1 X186.606 Y89.969 E.7777
G1 X186.072 Y89.969 E.01677
M73 Q2 S89
G1 X204.119 Y108.017 E.80143
G1 X204.119 Y108.551 E.01677
G1 X185.537 Y89.969 E.82517
G1 X185.003 Y89.969 E.01677
G1 X204.119 Y109.085 E.84888
G1 X204.119 Y109.619 E.01677
G1 X184.469 Y89.969 E.87259
G1 X183.935 Y89.969 E.01677
G1 X204.119 Y110.153 E.89631
G1 X204.119 Y110.687 E.01677
G1 X183.401 Y89.969 E.92002
G1 X182.867 Y89.969 E.01677
G1 X204.119 Y111.221 E.94373
G1 X204.119 Y111.755 E.01677
G1 X182.333 Y89.969 E.96745
G1 X181.799 Y89.969 E.01677
G1 X204.119 Y112.289 E.99116
G1 X204.119 Y112.823 E.01677
G1 X181.265 Y89.969 E1.01487
G1 X180.731 Y89.969 E.01677
G1 X204.119 Y113.357 E1.03859
G1 X204.119 Y113.891 E.01677
G1 X180.197 Y89.969 E1.0623
G1 X179.663 Y89.969 E.01677
G1 X204.119 Y114.425 E1.08601
G1 X204.119 Y114.959 E.01677
M73 P2 R88
G1 X179.129 Y89.969 E1.10973
G1 X178.595 Y89.969 E.01677
G1 X204.119 Y115.493 E1.13344
G1 X204.119 Y116.027 E.01677
G1 X178.061 Y89.969 E1.15715
G1 X177.527 Y89.969 E.01677
G1 X204.119 Y116.561 E1.18087
G1 X204.119 Y117.095 E.01677
G1 X176.993 Y89.969 E1.20458
G1 X176.459 Y89.969 E.01677
G1 X204.119 Y117.629 E1.22829
G1 X204.119 Y118.164 E.0168
G1 X175.924 Y89.969 E1.25205
G1 X175.39 Y89.969 E.01677
M73 P3 R88
M73 C20
M73 Q3 S89
G1 X204.119 Y118.698 E1.27576
G1 X204.119 Y119.232 E.01677
G1 X174.856 Y89.969 E1.29948
G1 X174.322 Y89.969 E.01677
M73 D20
G1 X204.119 Y119.766 E1.32319
G1 X204.119 Y120.031 E.00832
G1 X203.851 Y120.031 E.00842
G1 X173.788 Y89.969 E1.33498
G1 X173.254 Y89.969 E.01677
G1 X203.317 Y120.031 E1.33498
G1 X202.783 Y120.031 E.01677
G1 X172.72 Y89.969 E1.33498
G1 X172.186 Y89.969 E.01677
G1 X202.249 Y120.031 E1.33498
G1 X201.715 Y120.031 E.01677
G1 X171.652 Y89.969 E1.33498
G1 X171.118 Y89.969 E.01677
G1 X201.181 Y120.031 E1.33498
G1 X200.647 Y120.031 E.01677
G1 X170.584 Y89.969 E1.33498
G1 X170.05 Y89.969 E.01677
G1 X200.113 Y120.031 E1.33498
G1 X199.579 Y120.031 E.01677
G1 X169.516 Y89.969 E1.33498
G1 X168.982 Y89.969 E.01677
G1 X199.045 Y120.031 E1.33498
G1 X198.51 Y120.031 E.0168
M73 Q3 S88
G1 X168.448 Y89.969 E1.33496
G1 X167.914 Y89.969 E.01677
G1 X197.976 Y120.031 E1.33496
G1 X197.442 Y120.031 E.01677
G1 X167.38 Y89.969 E1.33496
G1 X166.846 Y89.969 E.01677
G1 X196.908 Y120.031 E1.33496
G1 X196.374 Y120.031 E.01677
G1 X166.311 Y89.969 E1.33498
G1 X165.777 Y89.969 E.01677
G1 X195.84 Y120.031 E1.33498
G1 X195.306 Y120.031 E.01677
G1 X165.243 Y89.969 E1.33498
G1 X164.709 Y89.969 E.01677
G1 X194.772 Y120.031 E1.33498
G1 X194.238 Y120.031 E.01677
G1 X164.175 Y89.969 E1.33498
G1 X163.641 Y89.969 E.01677
M73 P3 R87
G1 X185.628 Y111.955 E.97635
G1 X185.859 Y112.05 E.00784
G1 X186.357 Y112.318 E.01776
G1 X186.832 Y112.695 E.01904
G1 X187.286 Y113.219 E.02177
G1 X187.628 Y113.825 E.02185
G1 X187.69 Y114.017 E.00634
G1 X193.704 Y120.031 E.26706
G1 X193.17 Y120.031 E.01677
G1 X187.874 Y114.735 E.23518
G1 X187.923 Y115.218 E.01524
G1 X187.915 Y115.311 E.00293
G1 X192.636 Y120.031 E.20962
G1 X192.102 Y120.031 E.01677
G1 X187.87 Y115.799 E.18793
G1 X187.766 Y116.23 E.01392
G1 X191.568 Y120.031 E.16881
G1 X191.034 Y120.031 E.01677
G1 X187.624 Y116.621 E.15143
G1 X187.444 Y116.975 E.01247
G1 X190.5 Y120.031 E.13571
G1 X189.966 Y120.031 E.01677
G1 X187.234 Y117.299 E.12132
G1 X186.991 Y117.591 E.01193
G1 X189.432 Y120.031 E.10837
G1 X188.897 Y120.031 E.0168
G1 X186.719 Y117.853 E.09672
G1 X186.419 Y118.087 E.01195
G1 X188.363 Y120.031 E.08633
G1 X187.829 Y120.031 E.01677
G1 X186.086 Y118.288 E.0774
G1 X185.722 Y118.459 E.01263
G1 X187.295 Y120.031 E.06983
G1 X186.761 Y120.031 E.01677
G1 X185.317 Y118.587 E.06412
G1 X185.042 Y118.66 E.00893
G1 X184.871 Y118.676 E.00539
G1 X186.227 Y120.031 E.06019
G1 X185.693 Y120.031 E.01677
G1 X184.366 Y118.704 E.05893
G1 X183.99 Y118.679 E.01183
G1 X183.768 Y118.64 E.00708
G1 X185.329 Y120.201 E.06932
M204 S1000
;WIPE_START
G1 F8640
G1 X183.768 Y118.64 E-.50974
G1 X183.99 Y118.679 E-.05205
G1 X184.366 Y118.704 E-.08701
G1 X184.829 Y119.167 E-.1512
;WIPE_END
G1 Z.6 F720
G1 X185.135 Y111.996 F10800
M73 P4 R87
G1 Z.2 F720
G1 E.8 F2100
M204 S800
G1 F1200
G1 X163.107 Y89.969 E.97817
G1 X162.573 Y89.969 E.01677
M73 Q4 S88
G1 X184.353 Y111.749 E.96718
G1 X183.875 Y111.805 E.01511
G1 X162.039 Y89.969 E.96967
G1 X161.505 Y89.969 E.01677
M73 C19
G1 X183.439 Y111.903 E.97402
G1 X183.044 Y112.042 E.01315
G1 X160.971 Y89.969 E.98019
G1 X160.437 Y89.969 E.01677
G1 X182.695 Y112.227 E.98841
G1 X182.365 Y112.431 E.01218
M73 D19
G1 X159.903 Y89.969 E.99747
G1 X159.369 Y89.969 E.01677
G1 X182.082 Y112.681 E1.00859
G1 X181.881 Y112.859 E.00843
G1 X181.814 Y112.948 E.0035
G1 X158.835 Y89.969 E1.02043
G1 X158.301 Y89.969 E.01677
G1 X181.584 Y113.252 E1.03393
G1 X181.462 Y113.413 E.00634
G1 X181.379 Y113.582 E.00591
G1 X157.767 Y89.969 E1.04856
G1 X157.233 Y89.969 E.01677
G1 X181.204 Y113.94 E1.06448
G1 X181.084 Y114.355 E.01357
G1 X156.698 Y89.969 E1.08291
G1 X156.164 Y89.969 E.01677
G1 X180.987 Y114.791 E1.10229
G1 X180.962 Y115.301 E.01603
G1 X155.63 Y89.969 E1.12491
G1 X155.096 Y89.969 E.01677
G1 X181.256 Y116.129 E1.16168
M204 S1000
;WIPE_START
G1 F8640
G1 X178.806 Y113.679 E-.8
;WIPE_END
G1 Z.6 F720
G1 X184.795 Y120.201 F10800
G1 Z.2 F720
G1 E.8 F2100
M204 S800
G1 F1200
G1 X182.978 Y118.385 E.08067
G1 X182.684 Y118.234 E.01038
G1 X182.419 Y118.063 E.0099
G1 X182.123 Y117.827 E.01189
G1 X181.897 Y117.606 E.00993
G1 X181.654 Y117.316 E.01188
G1 X181.476 Y117.056 E.00989
G1 X181.279 Y116.686 E.01316
G1 X154.562 Y89.969 E1.18642
G1 X154.028 Y89.969 E.01677
G1 X184.091 Y120.031 E1.33498
G1 X183.557 Y120.031 E.01677
G1 X153.494 Y89.969 E1.33498
G1 X152.96 Y89.969 E.01677
M73 Q4 S87
G1 X183.023 Y120.031 E1.33498
G1 X182.489 Y120.031 E.01677
G1 X152.426 Y89.969 E1.33498
G1 X151.892 Y89.969 E.01677
G1 X181.955 Y120.031 E1.33498
G1 X181.421 Y120.031 E.01677
G1 X151.358 Y89.969 E1.33498
G1 X150.824 Y89.969 E.01677
G1 X180.887 Y120.031 E1.33498
G1 X180.353 Y120.031 E.01677
G1 X150.29 Y89.969 E1.33498
G1 X149.756 Y89.969 E.01677
G1 X179.819 Y120.031 E1.33498
G1 X179.284 Y120.031 E.0168
G1 X149.222 Y89.969 E1.33496
G1 X148.688 Y89.969 E.01677
G1 X178.75 Y120.031 E1.33496
G1 X178.216 Y120.031 E.01677
M73 P4 R86
G1 X148.154 Y89.969 E1.33496
G1 X147.62 Y89.969 E.01677
M73 P5 R86
G1 X177.682 Y120.031 E1.33496
G1 X177.148 Y120.031 E.01677
M73 Q5 S87
G1 X147.085 Y89.969 E1.33498
G1 X146.551 Y89.969 E.01677
G1 X176.614 Y120.031 E1.33498
G1 X176.08 Y120.031 E.01677
