; generated by PrusaSlicer 2.6.1+linux-x64-GTK3 on 2023-09-08 at 20:29:45 UTC


;
;
; 

; external perimeters extrusion width = 0.45mm
; perimeters extrusion width = 0.45mm
; infill extrusion width = 0.45mm
; solid infill extrusion width = 0.45mm
; top infill extrusion width = 0.40mm
; first layer extrusion width = 0.42mm

M73 P0 R90
M73 Q0 S90
M201 X1000 Y1000 Z200 E5000 ; sets maximum accelerations, mm/sec^2
M203 X200 Y200 Z12 E120 ; sets maximum feedrates, mm / sec
M204 S1250 T1250 ; sets acceleration (S) and retract acceleration (R), mm/sec^2
M205 X8.00 Y8.00 Z0.40 E4.50 ; sets the jerk limits, mm/sec
M205 S0 T0 ; sets the minimum extruding and travel feed rate, mm/sec
;TYPE:Custom
M862.3 P "MK3S" ; printer model check
M862.1 P0.4 ; nozzle diameter check
M115 U3.13.0 ; tell printer latest fw version
G90 ; use absolute coordinates
M83 ; extruder relative mode
M104 S215 ; set extruder temp
M140 S60 ; set bed temp
M190 S60 ; wait for bed temp
M109 S215 ; wait for extruder temp
G28 W ; home all without mesh bed level
G80 ; mesh bed leveling

G1 Z0.2 F720
G1 Y-3 F1000 ; go outside print area
G92 E0
G1 X60 E9 F1000 ; intro line
G1 X100 E12.5 F1000 ; intro line

G92 E0
M221 S95

; Don't change E values below. Excessive value can damage the printer.
M907 E430 ; set extruder motor current
G21 ; set units to millimeters
G90 ; use absolute coordinates
M83 ; use relative distances for extrusion
M900 K0.05 ; Filament gcode LA 1.5
M900 K30 ; Filament gcode LA 1.0
M107
;LAYER_CHANGE
;Z:0.2
;HEIGHT:0.2
;BEFORE_LAYER_CHANGE
G92 E0.0
;0.2


G1 E-.8 F2100
G1 Z.4 F720
;AFTER_LAYER_CHANGE
;0.2
G1 X93.183 Y60.315 F10800
G1 Z.2 F720
G1 E.8 F2100
M204 S800
;TYPE:Skirt/Brim
;WIDTH:0.42
G1 F1200
G1 X96.171 Y57.328 E.13247
G1 X97.852 Y56.632 E.05705
G1 X152.477 Y56.632 E1.71273
G1 X154.158 Y57.328 E.05705
G1 X157.145 Y60.315 E.13245
G1 X157.841 Y61.996 E.05705
G1 X157.841 Y148.021 E2.69725
G1 X157.145 Y149.702 E.05705
G1 X154.158 Y152.689 E.13245
G1 X152.477 Y153.386 E.05706
G1 X97.852 Y153.386 E1.71273
G1 X96.171 Y152.689 E.05706
G1 X93.183 Y149.702 E.13247
G1 X92.487 Y148.021 E.05705
G1 X92.487 Y61.996 E2.69725
G1 X93.16 Y60.371 E.05515
M204 S1000
;WIPE_START
G1 F8640
G1 X95.597 Y57.908 E-.8
;WIPE_END
G1 Z.6 F720
G1 X95.773 Y61.694 F10800
G1 Z.2 F720
G1 E.8 F2100
M204 S800
G1 F1200
G1 X96.256 Y61.034 E.02564
G1 X97.135 Y60.198 E.03803
M73 P0 R89
G1 X98.218 Y59.614 E.03858
G1 X99.547 Y59.295 E.04285
G1 X150.753 Y59.299 E1.60553
G1 X151.774 Y59.493 E.03259
G1 X152.752 Y59.908 E.03331
G1 X153.877 Y60.804 E.04509
G1 X154.769 Y62.142 E.05042
G1 X155.178 Y63.687 E.05011
G1 X155.178 Y102.254 E1.20924
G1 X154.644 Y104.047 E.05866
G1 X154.15 Y104.792 E.02803
G1 X153.978 Y104.977 E.00792
G1 X154.776 Y106.256 E.04727
G1 X155.178 Y107.788 E.04966
G1 X155.178 Y146.356 E1.20927
G1 X154.556 Y148.323 E.06468
G1 X154.072 Y148.983 E.02566
G1 X153.193 Y149.819 E.03803
G1 X152.111 Y150.403 E.03855
G1 X150.782 Y150.722 E.04285
G1 X99.517 Y150.722 E1.60738
G1 X97.549 Y150.1 E.06471
G1 X96.89 Y149.617 E.02562
G1 X96.054 Y148.738 E.03803
G1 X95.47 Y147.655 E.03858
G1 X95.151 Y146.326 E.04285
G1 X95.151 Y107.763 E1.20912
G1 X95.685 Y105.97 E.05866
G1 X96.178 Y105.225 E.02801
G1 X96.388 Y105.001 E.00963
G1 X96.057 Y104.643 E.01529
G1 X95.526 Y103.696 E.03404
G1 X95.151 Y102.227 E.04754
G1 X95.151 Y63.662 E1.20918
G1 X95.755 Y61.751 E.06284
M204 S1000
M73 Q0 S89
G1 X96.096 Y61.891 F10800
M204 S800
G1 F1200
G1 X96.53 Y61.294 E.02314
G1 X97.338 Y60.517 E.03515
G1 X98.332 Y59.974 E.03551
G1 X99.569 Y59.672 E.03992
G1 X150.735 Y59.676 E1.60427
G1 X151.682 Y59.859 E.03024
G1 X152.579 Y60.244 E.03061
G1 X153.618 Y61.08 E.04181
G1 X154.413 Y62.27 E.04487
G1 X154.801 Y63.712 E.04682
G1 X154.801 Y102.226 E1.20758
G1 X154.291 Y103.91 E.05517
G1 X153.848 Y104.565 E.02479
G1 X153.409 Y105.017 E.01976
G1 X153.778 Y105.362 E.01584
G1 X154.419 Y106.381 E.03775
G1 X154.801 Y107.813 E.04647
G1 X154.801 Y146.327 E1.20758
G1 X154.232 Y148.127 E.05919
G1 X153.798 Y148.723 E.02312
G1 X152.99 Y149.501 E.03517
G1 X151.997 Y150.043 E.03547
G1 X150.759 Y150.345 E.03995
G1 X99.546 Y150.345 E1.60575
G1 X97.746 Y149.777 E.05918
G1 X97.149 Y149.343 E.02314
G1 X96.372 Y148.534 E.03517
G1 X95.83 Y147.541 E.03547
G1 X95.528 Y146.303 E.03995
G1 X95.528 Y107.791 E1.20752
G1 X96.037 Y106.107 E.05516
G1 X96.48 Y105.453 E.02477
G1 X96.916 Y105.003 E.01965
G1 X96.373 Y104.436 E.02462
G1 X95.867 Y103.533 E.03246
G1 X95.528 Y102.203 E.04303
G1 X95.528 Y63.69 E1.20755
G1 X96.078 Y61.948 E.05728
M204 S1000
G1 X96.419 Y62.086 F10800
M204 S800
G1 F1200
G1 X96.805 Y61.552 E.02066
G1 X97.544 Y60.834 E.03231
G1 X98.447 Y60.334 E.03236
G1 X99.593 Y60.049 E.03703
G1 X150.716 Y60.053 E1.60293
G1 X151.588 Y60.225 E.02787
M73 P1 R89
M73 Q1 S89
G1 X152.404 Y60.579 E.02789
G1 X153.357 Y61.353 E.03849
G1 X154.082 Y62.452 E.04128
G1 X154.424 Y63.737 E.04169
G1 X154.424 Y102.197 E1.20589
G1 X153.94 Y103.77 E.0516
G1 X153.549 Y104.336 E.02157
G1 X152.86 Y105.038 E.03084
G1 X153.474 Y105.587 E.02582
G1 X154.085 Y106.557 E.03594
G1 X154.424 Y107.838 E.04155
G1 X154.424 Y146.298 E1.20589
G1 X153.909 Y147.931 E.05369
G1 X153.523 Y148.465 E.02066
G1 X152.785 Y149.183 E.03228
G1 X151.881 Y149.683 E.03239
G1 X150.736 Y149.968 E.037
G1 X99.575 Y149.968 E1.60412
G1 X97.942 Y149.453 E.05369
G1 X97.408 Y149.068 E.02064
G1 X96.689 Y148.329 E.03233
G1 X96.19 Y147.425 E.03238
G1 X95.905 Y146.28 E.037
G1 X95.905 Y107.82 E1.20589
G1 X96.388 Y106.247 E.05159
G1 X96.78 Y105.682 E.02156
G1 X97.445 Y105.003 E.0298
G1 X96.689 Y104.229 E.03392
G1 X96.208 Y103.37 E.03087
G1 X95.905 Y102.18 E.0385
G1 X95.905 Y63.719 E1.20592
G1 X96.401 Y62.144 E.05177
M204 S1000
G1 X96.744 Y62.281 F10800
M204 S800
G1 F1200
G1 X97.082 Y61.809 E.0182
G1 X97.751 Y61.15 E.02944
G1 X98.565 Y60.693 E.02927
G1 X99.617 Y60.426 E.03403
G1 X150.697 Y60.43 E1.60158
G1 X151.493 Y60.59 E.02546
G1 X152.228 Y60.914 E.02519
G1 X153.094 Y61.625 E.03513
G1 X153.749 Y62.631 E.03764
G1 X154.046 Y63.761 E.03663
G1 X154.046 Y102.169 E1.20426
G1 X153.613 Y103.581 E.04631
G1 X153.268 Y104.084 E.01912
G1 X152.656 Y104.707 E.02738
G1 X152.216 Y104.98 E.01624
G1 X153.17 Y105.812 E.03969
G1 X153.75 Y106.734 E.03415
G1 X154.046 Y107.862 E.03657
G1 X154.046 Y146.269 E1.20422
G1 X153.585 Y147.736 E.04821
G1 X153.246 Y148.209 E.01825
G1 X152.577 Y148.867 E.02942
G1 X151.763 Y149.324 E.02927
G1 X150.712 Y149.591 E.034
G1 X99.604 Y149.591 E1.60246
G1 X98.137 Y149.129 E.04822
G1 X97.664 Y148.791 E.01823
G1 X97.005 Y148.122 E.02944
G1 X96.549 Y147.308 E.02925
G1 X96.282 Y146.256 E.03403
G1 X96.282 Y107.848 E1.20426
G1 X96.716 Y106.437 E.04629
G1 X97.061 Y105.934 E.01912
G1 X97.673 Y105.31 E.0274
G1 X98.129 Y105.027 E.01683
G1 X97.689 Y104.712 E.01697
G1 X97.005 Y104.022 E.03046
G1 X96.549 Y103.208 E.02925
G1 X96.282 Y102.156 E.03403
G1 X96.282 Y63.748 E1.20426
G1 X96.726 Y62.338 E.04635
M204 S1000
G1 X97.068 Y62.475 F10800
M204 S800
G1 F1200
G1 X97.36 Y62.063 E.01583
G1 X97.961 Y61.464 E.02661
G1 X98.685 Y61.051 E.02613
G1 X99.641 Y60.803 E.03097
G1 X150.679 Y60.807 E1.60026
G1 X151.36 Y60.943 E.02177
M73 P1 R88
G1 X152.051 Y61.248 E.02368
G1 X152.831 Y61.897 E.03181
G1 X153.393 Y62.759 E.03226
G1 X153.669 Y63.786 E.03334
G1 X153.669 Y102.141 E1.20259
G1 X153.285 Y103.393 E.04106
G1 X152.986 Y103.832 E.01665
G1 X152.406 Y104.424 E.02599
G1 X151.368 Y105.036 E.03778
G1 X152.093 Y105.374 E.02508
G1 X152.866 Y106.037 E.03193
G1 X153.415 Y106.91 E.03233
G1 X153.669 Y107.885 E.03159
G1 X153.669 Y146.24 E1.20259
G1 X153.26 Y147.542 E.04279
G1 X152.968 Y147.954 E.01583
G1 X152.368 Y148.553 E.02658
G1 X151.643 Y148.966 E.02616
G1 X150.687 Y149.214 E.03097
G1 X99.632 Y149.214 E1.60079
G1 X98.331 Y148.804 E.04277
G1 X97.919 Y148.513 E.01582
G1 X97.32 Y147.912 E.02661
G1 X96.907 Y147.188 E.02613
G1 X96.659 Y146.232 E.03097
G1 X96.659 Y107.876 E1.20263
G1 X97.044 Y106.625 E.04104
G1 X97.342 Y106.185 E.01666
G1 X97.923 Y105.594 E.02599
G1 X99.029 Y104.944 E.04022
G1 X98.332 Y104.706 E.02309
G1 X97.943 Y104.432 E.01492
G1 X97.32 Y103.812 E.02756
G1 X96.907 Y103.088 E.02613
G1 X96.659 Y102.132 E.03097
G1 X96.659 Y63.777 E1.20259
G1 X97.05 Y62.532 E.04092
M204 S1000
;WIPE_START
G1 F8640
G1 X97.36 Y62.063 E-.12981
G1 X97.961 Y61.464 E-.19593
G1 X98.685 Y61.051 E-.19246
G1 X99.641 Y60.803 E-.22805
G1 X99.874 Y60.803 E-.05375
;WIPE_END
G1 Z.6 F720
G1 X99.666 Y105.281 F10800
G1 Z.2 F720
G1 E.8 F2100
M204 S800
G1 F1200
G1 X150.659 Y105.284 E1.59885
G1 X151.263 Y105.408 E.01933
M73 Q1 S88
G1 X151.872 Y105.681 E.02093
G1 X152.565 Y106.266 E.02844
G1 X153.059 Y107.036 E.02868
G1 X153.292 Y107.911 E.02839
G1 X153.292 Y146.212 E1.2009
G1 X152.935 Y147.35 E.0374
G1 X152.688 Y147.701 E.01346
G1 X152.156 Y148.24 E.02375
G1 X151.521 Y148.608 E.02301
G1 X150.662 Y148.837 E.02787
G1 X99.661 Y148.837 E1.5991
G1 X98.523 Y148.479 E.03741
G1 X98.172 Y148.232 E.01346
G1 X97.632 Y147.7 E.02377
G1 X97.265 Y147.065 E.023
G1 X97.036 Y146.207 E.02784
G1 X97.036 Y107.906 E1.2009
G1 X97.394 Y106.767 E.03744
G1 X97.64 Y106.416 E.01344
G1 X98.173 Y105.877 E.02377
G1 X98.807 Y105.509 E.02298
G1 X99.608 Y105.296 E.02599
M204 S1000
G1 X99.692 Y105.658 F10800
M204 S800
G1 F1200
G1 X150.639 Y105.661 E1.59741
G1 X151.163 Y105.773 E.0168
M73 P2 R88
M73 Q2 S88
G1 X151.691 Y106.012 E.01817
G1 X152.299 Y106.533 E.02511
G1 X152.703 Y107.164 E.02349
G1 X152.915 Y107.937 E.02513
G1 X152.915 Y146.183 E1.19918
G1 X152.608 Y147.159 E.03208
G1 X152.408 Y147.448 E.01102
G1 X151.905 Y147.957 E.02244
G1 X151.397 Y148.251 E.0184
G1 X150.636 Y148.46 E.02474
G1 X99.69 Y148.46 E1.59738
G1 X98.714 Y148.153 E.03208
G1 X98.425 Y147.952 E.01104
G1 X97.915 Y147.449 E.02246
G1 X97.622 Y146.942 E.01836
G1 X97.413 Y146.181 E.02474
G1 X97.413 Y107.934 E1.19921
G1 X97.72 Y106.958 E.03208
G1 X97.921 Y106.669 E.01104
G1 X98.423 Y106.16 E.02242
G1 X98.931 Y105.866 E.0184
G1 X99.634 Y105.673 E.02286
M204 S1000
G1 X99.719 Y106.035 F10800
M204 S800
G1 F1200
G1 X150.617 Y106.038 E1.59587
G1 X151.061 Y106.136 E.01426
G1 X151.507 Y106.342 E.0154
G1 X152.03 Y106.799 E.02178
G1 X152.349 Y107.295 E.01849
G1 X152.538 Y107.963 E.02177
G1 X152.538 Y146.154 E1.19745
G1 X152.281 Y146.97 E.02682
G1 X152.127 Y147.196 E.00857
G1 X151.655 Y147.674 E.02106
G1 X151.272 Y147.895 E.01386
G1 X150.609 Y148.083 E.02161
G1 X99.719 Y148.083 E1.59562
G1 X98.903 Y147.825 E.02683
G1 X98.677 Y147.671 E.00857
G1 X98.198 Y147.199 E.02109
G1 X97.978 Y146.816 E.01385
G1 X97.79 Y146.154 E.02158
G1 X97.79 Y107.963 E1.19745
G1 X98.047 Y107.147 E.02682
G1 X98.201 Y106.921 E.00857
G1 X98.674 Y106.443 E.02108
G1 X99.057 Y106.222 E.01386
G1 X99.661 Y106.051 E.01968
M204 S1000
G1 X99.747 Y106.412 F10800
M204 S800
G1 F1200
G1 X150.595 Y106.415 E1.5943
G1 X150.955 Y106.498 E.01158
G1 X151.32 Y106.671 E.01266
G1 X151.76 Y107.063 E.01848
G1 X151.995 Y107.428 E.01361
G1 X152.161 Y107.991 E.0184
G1 X152.161 Y146.125 E1.19566
G1 X151.952 Y146.784 E.02168
G1 X151.845 Y146.944 E.00604
G1 X151.405 Y147.391 E.01967
G1 X151.144 Y147.54 E.00942
G1 X150.581 Y147.705 E.01839
G1 X99.748 Y147.705 E1.59383
G1 X99.089 Y147.497 E.02167
G1 X98.928 Y147.39 E.00606
G1 X98.482 Y146.949 E.01967
G1 X98.333 Y146.688 E.00942
G1 X98.167 Y146.126 E.01837
G1 X98.167 Y107.992 E1.19566
G1 X98.376 Y107.333 E.02168
G1 X98.483 Y107.173 E.00604
G1 X98.924 Y106.726 E.01969
G1 X99.185 Y106.577 E.00942
G1 X99.689 Y106.429 E.01647
M204 S1000
G1 X99.777 Y106.789 F10800
M204 S800
G1 F1200
G1 X150.573 Y106.792 E1.59267
G1 X150.812 Y106.848 E.0077
G1 X151.132 Y106.999 E.01109
G1 X151.487 Y107.324 E.01509
G1 X151.643 Y107.566 E.00903
G1 X151.784 Y108.021 E.01494
G1 X151.784 Y146.095 E1.19378
G1 X151.622 Y146.601 E.01666
G1 X151.56 Y146.697 E.00358
G1 X151.189 Y147.081 E.01674
G1 X151.009 Y147.187 E.00655
G1 X150.552 Y147.328 E.015
G1 X99.778 Y147.328 E1.59198
G1 X99.271 Y147.166 E.01669
G1 X99.175 Y147.104 E.00358
G1 X98.792 Y146.733 E.01672
G1 X98.685 Y146.553 E.00657
G1 X98.544 Y146.096 E.015
G1 X98.544 Y108.022 E1.19378
G1 X98.707 Y107.516 E.01667
M73 P2 R87
G1 X98.769 Y107.42 E.00358
G1 X99.139 Y107.036 E.01672
G1 X99.32 Y106.93 E.00658
G1 X99.719 Y106.807 E.01309
M204 S1000
G1 X99.808 Y107.166 F10800
M204 S800
G1 F1200
G1 X150.551 Y107.17 E1.59101
G1 X150.668 Y107.197 E.00376
G1 X150.942 Y107.327 E.00951
G1 X151.211 Y107.581 E.0116
G1 X151.294 Y107.708 E.00476
G1 X151.407 Y108.053 E.01138
G1 X151.407 Y146.064 E1.19181
G1 X151.27 Y146.456 E.01302
G1 X150.967 Y146.775 E.01379
G1 X150.867 Y146.838 E.00371
G1 X150.52 Y146.951 E.01144
G1 X99.808 Y146.951 E1.59004
G1 X99.417 Y146.814 E.01299
G1 X99.098 Y146.512 E.01377
G1 X99.035 Y146.411 E.00373
G1 X98.921 Y146.065 E.01142
G1 X98.921 Y108.053 E1.19184
G1 X99.059 Y107.662 E.013
G1 X99.361 Y107.342 E.0138
G1 X99.462 Y107.28 E.00372
G1 X99.751 Y107.185 E.00954
M204 S1000
G1 X99.843 Y107.543 F10800
M204 S800
G1 F1200
G1 X150.499 Y107.543 E1.58828
G1 X150.749 Y107.653 E.00856
G1 X150.948 Y107.86 E.009
G1 X151.03 Y108.088 E.0076
G1 X151.03 Y146.029 E1.18961
G1 X150.954 Y146.242 E.00709
M73 Q2 S87
G1 X150.736 Y146.477 E.01005
G1 X150.485 Y146.574 E.00844
G1 X99.843 Y146.574 E1.58784
G1 X99.63 Y146.498 E.00709
G1 X99.396 Y146.281 E.01001
G1 X99.299 Y146.029 E.00847
G1 X99.299 Y108.088 E1.18961
G1 X99.375 Y107.875 E.00709
M73 P3 R87
G1 X99.592 Y107.64 E.01003
G1 X99.787 Y107.563 E.00657
M204 S1000
G1 X99.885 Y107.92 F10800
M204 S800
G1 F1200
M73 Q3 S87
G1 X150.443 Y107.92 E1.58521
G1 X150.512 Y107.949 E.00235
G1 X150.624 Y108.06 E.00494
G1 X150.653 Y108.13 E.00238
G1 X150.653 Y145.988 E1.18701
G1 X150.624 Y146.057 E.00235
G1 X150.512 Y146.168 E.00494
G1 X150.443 Y146.197 E.00235
G1 X99.885 Y146.197 E1.58521
G1 X99.816 Y146.168 E.00235
G1 X99.704 Y146.057 E.00494
G1 X99.676 Y145.988 E.00233
G1 X99.676 Y108.13 E1.18701
G1 X99.704 Y108.06 E.00236
G1 X99.83 Y107.943 E.00539
M204 S1000
;WIPE_START
G1 F8640
G1 X103.295 Y107.941 E-.8
;WIPE_END
G1 Z.6 F720
G1 X99.83 Y104.737 F10800
G1 Z.2 F720
G1 E.8 F2100
M204 S800
G1 F1200
G1 X99.661 Y104.737 E.0053
G1 X98.523 Y104.379 E.03741
G1 X98.172 Y104.132 E.01346
G1 X97.632 Y103.6 E.02377
G1 X97.265 Y102.965 E.023
G1 X97.036 Y102.107 E.02784
G1 X97.036 Y63.806 E1.2009
G1 X97.394 Y62.667 E.03744
G1 X97.64 Y62.316 E.01344
G1 X98.173 Y61.777 E.02377
G1 X98.807 Y61.409 E.02298
G1 X99.666 Y61.181 E.02787
G1 X150.659 Y61.184 E1.59885
G1 X151.263 Y61.308 E.01933
G1 X151.872 Y61.581 E.02093
G1 X152.565 Y62.166 E.02844
G1 X153.059 Y62.936 E.02868
G1 X153.292 Y63.811 E.02839
G1 X153.292 Y102.112 E1.2009
G1 X152.935 Y103.25 E.0374
G1 X152.688 Y103.601 E.01346
G1 X152.156 Y104.14 E.02375
G1 X151.521 Y104.508 E.02301
G1 X150.662 Y104.737 E.02787
G1 X99.89 Y104.737 E1.59192
M204 S1000
G1 X99.89 Y104.36 F10800
M204 S800
G1 F1200
G1 X99.69 Y104.36 E.00627
G1 X98.714 Y104.053 E.03208
G1 X98.425 Y103.852 E.01104
G1 X97.915 Y103.349 E.02246
G1 X97.622 Y102.842 E.01836
G1 X97.413 Y102.081 E.02474
G1 X97.413 Y63.834 E1.19921
G1 X97.72 Y62.858 E.03208
G1 X97.921 Y62.569 E.01104
G1 X98.423 Y62.06 E.02242
G1 X98.931 Y61.766 E.0184
G1 X99.692 Y61.558 E.02474
G1 X150.639 Y61.561 E1.59741
G1 X151.163 Y61.673 E.0168
G1 X151.691 Y61.912 E.01817
G1 X152.299 Y62.433 E.02511
G1 X152.703 Y63.064 E.02349
G1 X152.915 Y63.837 E.02513
G1 X152.915 Y102.083 E1.19918
G1 X152.608 Y103.059 E.03208
G1 X152.408 Y103.348 E.01102
G1 X151.905 Y103.857 E.02244
G1 X151.397 Y104.151 E.0184
G1 X150.636 Y104.36 E.02474
G1 X99.95 Y104.36 E1.58922
M204 S1000
G1 X99.95 Y103.983 F10800
M204 S800
G1 F1200
G1 X99.719 Y103.983 E.00724
G1 X98.903 Y103.725 E.02683
G1 X98.677 Y103.571 E.00857
G1 X98.198 Y103.099 E.02109
G1 X97.978 Y102.716 E.01385
G1 X97.79 Y102.054 E.02158
G1 X97.79 Y63.863 E1.19745
G1 X98.047 Y63.047 E.02682
G1 X98.201 Y62.821 E.00857
G1 X98.674 Y62.343 E.02108
G1 X99.057 Y62.122 E.01386
G1 X99.719 Y61.935 E.02157
G1 X150.617 Y61.938 E1.59587
G1 X151.061 Y62.036 E.01426
G1 X151.507 Y62.242 E.0154
G1 X152.03 Y62.699 E.02178
G1 X152.349 Y63.195 E.01849
G1 X152.538 Y63.863 E.02177
G1 X152.538 Y102.054 E1.19745
G1 X152.281 Y102.87 E.02682
G1 X152.127 Y103.096 E.00857
G1 X151.655 Y103.574 E.02106
