; generated by PrusaSlicer 2.7.4+win64 on 2024-06-04 at 21:53:21 UTC


;
;
; 

; external perimeters extrusion width = 0.68mm
; perimeters extrusion width = 0.68mm
; infill extrusion width = 0.68mm
; solid infill extrusion width = 0.68mm
; top infill extrusion width = 0.60mm
; first layer extrusion width = 0.65mm

M73 P0 R40
M73 Q0 S40
M201 X1000 Y1000 Z200 E5000 ; sets maximum accelerations, mm/sec^2
M203 X200 Y200 Z12 E120 ; sets maximum feedrates, mm / sec
M204 S1250 T1250 ; sets acceleration (S) and retract acceleration (R), mm/sec^2
M205 X8.00 Y8.00 Z0.40 E4.50 ; sets the jerk limits, mm/sec
M205 S0 T0 ; sets the minimum extruding and travel feed rate, mm/sec

; printing object Camera_Mount-Part.stl id:0 copy 0
; stop printing object Camera_Mount-Part.stl id:0 copy 0

;TYPE:Custom
M862.3 P "MK3S" ; printer model check
M862.1 P0.6 ; nozzle diameter check
M115 U3.13.3 ; tell printer latest fw version
G90 ; use absolute coordinates
M83 ; extruder relative mode
M104 S230 ; set extruder temp
M140 S85 ; set bed temp
M190 S85 ; wait for bed temp
M109 S230 ; wait for extruder temp
G28 W ; home all without mesh bed level
G80 X77.4725 Y69.4837 W95.0552 H71.0322 ; mesh bed levelling

G1 Z0.2 F720
G1 Y-3 F1000 ; go outside print area
G92 E0
G1 X60 E9 F1000 ; intro line
G1 X100 E12.5 F1000 ; intro line

G92 E0
M221 S95

; Don't change E values below. Excessive value can damage the printer.

G21 ; set units to millimeters
G90 ; use absolute coordinates
M83 ; use relative distances for extrusion

M900 K0.04 ; Filament gcode LA 1.5
M900 K24 ; Filament gcode LA 1.0




M107
;LAYER_CHANGE
;Z:0.2
;HEIGHT:0.2
G1 E-1 F2100
G1 Z.4 F720
G1 X83.462 Y115.881 F10800
G1 Z.2 F720
G1 E1 F2100
M204 S800
;TYPE:Skirt/Brim
;WIDTH:0.65
G1 F1200
G1 X156.231 Y70.186 E4.33747
G1 X157.617 Y69.787 E.07281
M73 P0 R39
G1 X169.617 Y69.787 E.60575
G1 X170.992 Y70.18 E.07219
G1 X171.954 Y71.238 E.07218
G1 X172.224 Y72.394 E.05992
G1 X172.224 Y102.394 E1.51437
G1 X171.832 Y103.77 E.07222
G1 X170.712 Y104.76 E.07546
G1 X96.535 Y139.085 E4.12584
G1 X95.288 Y139.559 E.06734
G1 X93.344 Y140.033 E.10101
G1 X91.221 Y140.212 E.10755
G1 X90.018 Y140.164 E.06077
G1 X88.695 Y139.984 E.0674
G1 X86.762 Y139.47 E.10097
M73 Q0 S39
G1 X84.927 Y138.673 E.10099
G1 X83.231 Y137.612 E.10098
G1 X81.712 Y136.31 E.10099
G1 X80.327 Y134.691 E.10755
G1 X79.598 Y133.573 E.06737
G1 X78.984 Y132.388 E.06737
G1 X78.491 Y131.148 E.06736
G1 X78.124 Y129.866 E.06731
G1 X77.887 Y128.552 E.0674
G1 X77.782 Y127.253 E.06579
G1 X77.8 Y126.018 E.06235
G1 X77.947 Y124.691 E.0674
G1 X78.251 Y123.291 E.07232
G1 X78.633 Y122.115 E.06242
G1 X79.165 Y120.892 E.06732
G1 X79.816 Y119.727 E.06737
G1 X80.577 Y118.637 E.06711
G1 X81.449 Y117.62 E.06762
G1 X82.414 Y116.699 E.06734
G1 X83.391 Y115.937 E.06254
M204 S1000
;WIPE_START
G1 F8640
G1 X83.462 Y115.881 E-.02088
G1 X87.053 Y113.626 E-.97912
;WIPE_END
G1 Z.4 F720
; printing object Camera_Mount-Part.stl id:0 copy 0
G1 X158.724 Y90.452 F10800
G1 Z.2 F720
G1 E1 F2100
M204 S800
;TYPE:Perimeter
;WIDTH:0.649999
G1 F1200
G1 X158.749 Y90.333 E.00614
G1 X158.749 Y73.526 E.8484
G1 X168.485 Y73.526 E.49146
G1 X168.485 Y78.394 E.24573
G1 X168.485 Y101.262 E1.15435
G1 X162.673 Y101.262 E.29338
M73 Q1 S39
G1 X162.587 Y101.266 E.00435
G1 X162.289 Y101.348 E.0156
G1 X101.175 Y129.845 E3.40386
G1 X100.378 Y130.224 E.04455
M73 P1 R39
G1 X100.123 Y130.459 E.0175
G1 X99.557 Y131.569 E.0629
G1 X99.176 Y132.182 E.03643
G1 X98.756 Y132.769 E.03643
G1 X98.289 Y133.318 E.03638
G1 X97.786 Y133.835 E.03641
G1 X97.242 Y134.308 E.03639
G1 X96.668 Y134.745 E.03642
G1 X96.059 Y135.132 E.03642
G1 X95.426 Y135.478 E.03641
G1 X94.767 Y135.77 E.03638
G1 X94.089 Y136.017 E.03643
G1 X93.394 Y136.208 E.03638
G1 X92.687 Y136.352 E.03642
G1 X91.971 Y136.436 E.03639
G1 X91.25 Y136.473 E.03644
G1 X90.529 Y136.45 E.03641
G1 X89.812 Y136.379 E.03637
G1 X89.102 Y136.249 E.03644
G1 X88.403 Y136.072 E.0364
G1 X87.721 Y135.837 E.03641
G1 X87.056 Y135.558 E.0364
G1 X86.417 Y135.224 E.0364
G1 X85.801 Y134.849 E.0364
G1 X85.218 Y134.424 E.03642
G1 X84.665 Y133.961 E.03641
G1 X84.152 Y133.453 E.03644
G1 X83.675 Y132.913 E.03637
G1 X83.243 Y132.335 E.03643
G1 X82.852 Y131.73 E.03636
G1 X82.511 Y131.093 E.03647
G1 X82.214 Y130.437 E.03635
G1 X81.972 Y129.756 E.03648
G1 X81.776 Y129.063 E.03635
G1 X81.638 Y128.352 E.03656
G1 X81.548 Y127.639 E.03628
G1 X81.518 Y126.924 E.03612
G1 X81.526 Y126.423 E.02529
G1 X81.56 Y125.921 E.0254
G1 X81.645 Y125.25 E.03414
G1 X81.794 Y124.537 E.03677
G1 X81.991 Y123.835 E.03681
G1 X82.246 Y123.152 E.0368
G1 X82.536 Y122.509 E.03561
G1 X82.888 Y121.875 E.03661
G1 X83.277 Y121.272 E.03622
G1 X83.714 Y120.704 E.03618
G1 X84.042 Y120.326 E.02526
G1 X84.391 Y119.963 E.02542
G1 X84.887 Y119.504 E.03411
G1 X85.46 Y119.054 E.03678
G1 X86.062 Y118.642 E.03682
G1 X86.65 Y118.308 E.03414
G1 X87.1 Y118.084 E.02537
G1 X87.569 Y117.882 E.02578
G1 X88.041 Y117.707 E.02541
G1 X88.688 Y117.508 E.03417
G1 X89.399 Y117.351 E.03676
G1 X90.12 Y117.242 E.03681
G1 X90.847 Y117.194 E.03678
G1 X91.351 Y117.191 E.02544
G1 X92.026 Y117.225 E.03412
G1 X92.748 Y117.322 E.03677
G1 X93.463 Y117.466 E.03682
G1 X94.112 Y117.653 E.03409
G1 X94.609 Y117.828 E.0266
G1 X95.266 Y118.105 E.03599
G1 X95.907 Y118.44 E.03651
G1 X96.521 Y118.815 E.03632
G1 X97.002 Y119.155 E.02973
G1 X97.338 Y119.32 E.0189
G1 X97.636 Y119.346 E.0151
G1 X97.952 Y119.264 E.01648
G1 X158.223 Y91.159 E3.35693
G1 X158.463 Y90.996 E.01464
G1 X158.668 Y90.709 E.0178
G1 X158.705 Y90.54 E.00873
M204 S1000
G1 X158.705 Y90.54 F10800
G1 X158.142 Y90.333
M204 S800
;TYPE:External perimeter
G1 F1200
G1 X158.142 Y72.919 E.87904
G1 X169.092 Y72.919 E.55274
G1 X169.092 Y78.394 E.27637
G1 X169.092 Y101.869 E1.18499
G1 X162.673 Y101.869 E.32402
G1 X162.545 Y101.898 E.00663
G1 X100.729 Y130.723 E3.44297
G1 X100.583 Y130.868 E.01039
G1 X100.326 Y131.417 E.0306
G1 X100.086 Y131.868 E.02579
G1 X99.823 Y132.307 E.02583
G1 X99.539 Y132.732 E.0258
G1 X99.235 Y133.142 E.02576
G1 X98.91 Y133.537 E.02582
G1 X98.566 Y133.915 E.0258
G1 X98.203 Y134.276 E.02584
G1 X97.823 Y134.618 E.02581
G1 X97.427 Y134.941 E.0258
G1 X97.015 Y135.243 E.02579
G1 X96.588 Y135.525 E.02583
G1 X96.148 Y135.785 E.0258
G1 X95.695 Y136.022 E.02581
G1 X95.231 Y136.237 E.02581
G1 X94.757 Y136.428 E.0258
G1 X94.274 Y136.596 E.02581
G1 X93.783 Y136.739 E.02581
G1 X93.286 Y136.858 E.0258
G1 X92.783 Y136.951 E.02582
G1 X92.277 Y137.02 E.02578
G1 X91.767 Y137.063 E.02584
G1 X91.256 Y137.081 E.02581
G1 X90.745 Y137.073 E.0258
G1 X90.235 Y137.039 E.0258
G1 X89.727 Y136.981 E.02581
G1 X89.223 Y136.897 E.02579
G1 X88.723 Y136.788 E.02583
G1 X88.23 Y136.654 E.02579
G1 X87.744 Y136.496 E.0258
G1 X87.266 Y136.313 E.02584
G1 X86.798 Y136.108 E.02579
G1 X86.341 Y135.879 E.0258
G1 X85.896 Y135.627 E.02581
G1 X85.464 Y135.354 E.0258
G1 X85.046 Y135.059 E.02583
G1 X84.643 Y134.744 E.02582
G1 X84.256 Y134.41 E.0258
G1 X83.887 Y134.056 E.02581
G1 X83.536 Y133.685 E.02578
G1 X83.204 Y133.296 E.02582
G1 X82.891 Y132.892 E.0258
G1 X82.599 Y132.472 E.02582
G1 X82.328 Y132.038 E.02583
G1 X82.08 Y131.591 E.0258
G1 X81.854 Y131.133 E.02578
G1 X81.651 Y130.664 E.0258
G1 X81.471 Y130.185 E.02583
G1 X81.316 Y129.698 E.0258
G1 X81.185 Y129.204 E.0258
G1 X81.079 Y128.703 E.02585
G1 X80.999 Y128.199 E.02576
G1 X80.943 Y127.69 E.02585
G1 X80.913 Y127.18 E.02579
G1 X80.908 Y126.669 E.0258
G1 X80.929 Y126.158 E.02582
G1 X80.975 Y125.649 E.0258
G1 X81.046 Y125.145 E.02569
G1 X81.204 Y124.392 E.03884
G1 X81.412 Y123.652 E.0388
G1 X81.582 Y123.172 E.0257
G1 X81.776 Y122.699 E.02581
G1 X81.993 Y122.237 E.02577
G1 X82.234 Y121.785 E.02586
G1 X82.496 Y121.347 E.02576
G1 X82.781 Y120.922 E.02583
G1 X83.086 Y120.511 E.02584
G1 X83.411 Y120.117 E.02578
G1 X83.755 Y119.739 E.0258
G1 X84.118 Y119.379 E.02581
G1 X84.496 Y119.039 E.02566
G1 X85.101 Y118.564 E.03883
G1 X85.737 Y118.13 E.03887
G1 X86.175 Y117.872 E.02566
G1 X86.628 Y117.634 E.02583
G1 X87.092 Y117.42 E.02579
G1 X87.565 Y117.229 E.02575
G1 X88.049 Y117.062 E.02585
G1 X88.537 Y116.919 E.02567
G1 X89.289 Y116.754 E.03886
G1 X90.049 Y116.639 E.0388
G1 X90.556 Y116.596 E.02568
G1 X91.067 Y116.579 E.02581
G1 X91.578 Y116.587 E.0258
G1 X92.086 Y116.621 E.0257
G1 X92.848 Y116.723 E.03881
G1 X93.603 Y116.875 E.03888
G1 X94.351 Y117.092 E.03931
G1 X94.826 Y117.261 E.02545
G1 X95.295 Y117.454 E.0256
G1 X95.756 Y117.672 E.02574
G1 X96.206 Y117.912 E.02574
G1 X96.644 Y118.174 E.02576
G1 X97.491 Y118.732 E.0512
G1 X97.695 Y118.714 E.01034
G1 X157.967 Y90.608 E3.357
G1 X158.073 Y90.527 E.00673
G1 X158.112 Y90.418 E.00584
M204 S1000
;WIPE_START
G1 F8640
G1 X158.142 Y90.333 E-.02081
G1 X158.142 Y86.092 E-.97919
;WIPE_END
G1 Z.4 F720
G1 X168.242 Y74.998 F10800
G1 Z.2 F720
G1 E1 F2100
M204 S800
;TYPE:Solid infill
;WIDTH:0.650646
G1 F1200
G1 X167.287 Y74.042 E.06828
G1 X166.427 Y74.042 E.04346
G1 X167.969 Y75.584 E.1102
G1 X167.969 Y76.444 E.04346
G1 X165.568 Y74.042 E.17162
G1 X164.708 Y74.042 E.04346
G1 X167.969 Y77.303 E.23304
G1 X167.969 Y78.162 E.04341
G1 X163.849 Y74.042 E.29443
G1 X162.99 Y74.042 E.04341
G1 X167.969 Y79.022 E.35585
G1 X167.969 Y79.881 E.04341
M73 Q2 S39
G1 X162.13 Y74.042 E.41728
G1 X161.271 Y74.042 E.04341
M73 P2 R39
G1 X167.969 Y80.741 E.4787
G1 X167.969 Y81.6 E.04341
G1 X160.411 Y74.042 E.54012
G1 X159.552 Y74.042 E.04341
G1 X167.969 Y82.46 E.60155
G1 X167.969 Y83.319 E.04341
G1 X159.265 Y74.615 E.62202
G1 X159.265 Y75.475 E.04346
G1 X167.969 Y84.179 E.62202
G1 X167.969 Y85.038 E.04341
G1 X159.265 Y76.334 E.62202
G1 X159.265 Y77.194 E.04346
G1 X167.969 Y85.898 E.62202
G1 X167.969 Y86.757 E.04341
G1 X159.265 Y78.053 E.62202
G1 X159.265 Y78.913 E.04346
G1 X167.969 Y87.616 E.62199
G1 X167.969 Y88.476 E.04346
G1 X159.265 Y79.772 E.62202
G1 X159.265 Y80.632 E.04346
G1 X167.969 Y89.335 E.62199
G1 X167.969 Y90.195 E.04346
G1 X159.265 Y81.491 E.62202
G1 X159.265 Y82.35 E.04341
G1 X167.969 Y91.054 E.62202
G1 X167.969 Y91.914 E.04346
G1 X159.265 Y83.21 E.62202
G1 X159.265 Y84.069 E.04341
G1 X167.969 Y92.773 E.62202
G1 X167.969 Y93.633 E.04346
G1 X159.265 Y84.929 E.62202
G1 X159.265 Y85.788 E.04341
G1 X167.969 Y94.492 E.62202
G1 X167.969 Y95.352 E.04346
G1 X159.265 Y86.648 E.62202
G1 X159.265 Y87.507 E.04341
G1 X167.969 Y96.211 E.62202
G1 X167.969 Y97.07 E.04341
G1 X159.265 Y88.367 E.62199
G1 X159.265 Y89.226 E.04341
G1 X167.969 Y97.93 E.62202
G1 X167.969 Y98.789 E.04341
G1 X159.265 Y90.086 E.62199
G1 X159.244 Y90.584 E.02519
G1 X159.164 Y90.844 E.01375
G1 X167.969 Y99.649 E.62924
G1 X167.969 Y100.508 E.04341
G1 X158.817 Y91.356 E.65404
G1 X158.652 Y91.507 E.0113
G1 X158.296 Y91.694 E.02032
G1 X167.348 Y100.746 E.64689
G1 X166.488 Y100.746 E.04346
G1 X157.709 Y91.968 E.62735
G1 X157.123 Y92.241 E.03267
G1 X165.629 Y100.746 E.60784
G1 X164.769 Y100.746 E.04346
G1 X156.537 Y92.514 E.58829
G1 X155.951 Y92.787 E.03267
G1 X163.91 Y100.746 E.56878
G1 X163.05 Y100.746 E.04346
G1 X155.365 Y93.061 E.5492
G1 X154.778 Y93.334 E.03271
G1 X162.257 Y100.812 E.53444
G1 X161.658 Y101.072 E.033
G1 X154.192 Y93.607 E.53351
G1 X153.606 Y93.88 E.03267
M73 P2 R38
G1 X161.071 Y101.346 E.53351
G1 X160.485 Y101.619 E.03267
G1 X153.02 Y94.154 E.53348
G1 X152.434 Y94.427 E.03267
G1 X159.899 Y101.892 E.53348
G1 X159.313 Y102.166 E.03269
G1 X151.847 Y94.7 E.53355
G1 X151.261 Y94.973 E.03267
G1 X158.727 Y102.439 E.53355
G1 X158.141 Y102.712 E.03267
M73 Q3 S39
G1 X150.675 Y95.247 E.53351
G1 X150.089 Y95.52 E.03267
M73 P3 R38
G1 X157.555 Y102.986 E.53355
G1 X156.968 Y103.259 E.03271
G1 X149.503 Y95.793 E.53351
G1 X148.916 Y96.066 E.03271
G1 X156.382 Y103.532 E.53355
G1 X155.796 Y103.806 E.03269
G1 X148.33 Y96.34 E.53355
G1 X147.744 Y96.613 E.03267
G1 X155.21 Y104.079 E.53355
G1 X154.624 Y104.352 E.03267
G1 X147.158 Y96.886 E.53355
G1 X146.572 Y97.159 E.03267
G1 X154.038 Y104.626 E.53359
G1 X153.452 Y104.899 E.03267
G1 X145.985 Y97.433 E.53359
G1 X145.399 Y97.706 E.03267
G1 X152.866 Y105.172 E.53359
G1 X152.279 Y105.446 E.03274
G1 X144.813 Y97.979 E.53359
G1 X144.227 Y98.252 E.03267
M73 Q3 S38
G1 X151.693 Y105.719 E.53359
G1 X151.107 Y105.992 E.03267
G1 X143.641 Y98.526 E.53355
G1 X143.054 Y98.799 E.03271
G1 X150.521 Y106.266 E.53362
G1 X149.935 Y106.539 E.03267
G1 X142.468 Y99.072 E.53362
G1 X141.882 Y99.345 E.03267
G1 X149.349 Y106.812 E.53362
G1 X148.763 Y107.086 E.03269
G1 X141.296 Y99.619 E.53362
G1 X140.71 Y99.892 E.03267
G1 X148.176 Y107.359 E.53359
G1 X147.59 Y107.632 E.03267
G1 X140.123 Y100.165 E.53362
G1 X139.537 Y100.438 E.03267
G1 X147.004 Y107.905 E.53362
G1 X146.418 Y108.179 E.03269
G1 X138.951 Y100.712 E.53362
G1 X138.365 Y100.985 E.03267
G1 X145.832 Y108.452 E.53362
G1 X145.246 Y108.725 E.03267
G1 X137.779 Y101.258 E.53362
G1 X137.192 Y101.531 E.03271
G1 X144.66 Y108.999 E.53369
G1 X144.074 Y109.272 E.03267
G1 X136.606 Y101.805 E.53366
G1 X136.02 Y102.078 E.03267
G1 X143.487 Y109.545 E.53362
G1 X142.901 Y109.819 E.03269
G1 X135.434 Y102.351 E.53366
G1 X134.848 Y102.624 E.03267
G1 X142.315 Y110.092 E.53366
G1 X141.729 Y110.365 E.03267
G1 X134.261 Y102.898 E.53366
G1 X133.675 Y103.171 E.03267
G1 X141.143 Y110.639 E.53369
G1 X140.557 Y110.912 E.03267
G1 X133.089 Y103.444 E.53369
G1 X132.503 Y103.717 E.03267
G1 X139.971 Y111.185 E.53369
G1 X139.384 Y111.459 E.03274
G1 X131.917 Y103.991 E.53366
G1 X131.33 Y104.264 E.03271
G1 X138.798 Y111.732 E.53369
G1 X138.212 Y112.005 E.03267
G1 X130.744 Y104.537 E.53369
G1 X130.158 Y104.81 E.03267
G1 X137.626 Y112.279 E.53373
G1 X137.04 Y112.552 E.03267
G1 X129.572 Y105.084 E.53369
G1 X128.986 Y105.357 E.03267
G1 X136.454 Y112.825 E.53369
G1 X135.868 Y113.099 E.03269
G1 X128.399 Y105.63 E.53376
G1 X127.813 Y105.903 E.03267
G1 X135.281 Y113.372 E.53373
G1 X134.695 Y113.645 E.03267
G1 X127.227 Y106.177 E.53369
G1 X126.641 Y106.45 E.03267
G1 X134.109 Y113.918 E.53369
G1 X133.523 Y114.192 E.03269
M73 Q4 S38
G1 X126.055 Y106.723 E.53373
G1 X125.468 Y106.996 E.03271
M73 P4 R38
G1 X132.937 Y114.465 E.53376
G1 X132.351 Y114.738 E.03267
G1 X124.882 Y107.27 E.53373
G1 X124.296 Y107.543 E.03267
G1 X131.765 Y115.012 E.53376
G1 X131.179 Y115.285 E.03267
G1 X123.71 Y107.816 E.53376
G1 X123.124 Y108.09 E.03269
G1 X130.592 Y115.558 E.53369
G1 X130.006 Y115.832 E.03269
G1 X122.537 Y108.363 E.53376
G1 X121.951 Y108.636 E.03267
G1 X129.42 Y116.105 E.53376
G1 X128.834 Y116.378 E.03267
G1 X121.365 Y108.909 E.53376
G1 X120.779 Y109.183 E.03269
G1 X128.248 Y116.652 E.53376
G1 X127.662 Y116.925 E.03267
G1 X120.193 Y109.456 E.53376
G1 X119.606 Y109.729 E.03271
G1 X127.076 Y117.198 E.5338
G1 X126.489 Y117.472 E.03274
G1 X119.02 Y110.002 E.5338
G1 X118.434 Y110.276 E.03269
G1 X125.903 Y117.745 E.53376
G1 X125.317 Y118.018 E.03267
G1 X117.848 Y110.549 E.53376
G1 X117.262 Y110.822 E.03267
G1 X124.731 Y118.292 E.5338
G1 X124.145 Y118.565 E.03267
G1 X116.675 Y111.095 E.53384
G1 X116.089 Y111.369 E.03269
G1 X123.559 Y118.838 E.5338
G1 X122.973 Y119.112 E.03269
G1 X115.503 Y111.642 E.53384
G1 X114.917 Y111.915 E.03267
G1 X122.387 Y119.385 E.53384
G1 X121.8 Y119.658 E.03271
G1 X114.331 Y112.188 E.5338
G1 X113.744 Y112.462 E.03274
G1 X121.214 Y119.932 E.53384
G1 X120.628 Y120.205 E.03267
G1 X113.158 Y112.735 E.53384
G1 X112.572 Y113.008 E.03267
G1 X120.042 Y120.478 E.53384
G1 X119.456 Y120.751 E.03267
G1 X111.986 Y113.281 E.53384
G1 X111.4 Y113.555 E.03269
G1 X118.87 Y121.025 E.53384
G1 X118.284 Y121.298 E.03267
G1 X110.813 Y113.828 E.53387
G1 X110.227 Y114.101 E.03267
G1 X117.697 Y121.571 E.53384
G1 X117.111 Y121.845 E.03269
G1 X109.641 Y114.374 E.53387
G1 X109.055 Y114.648 E.03269
G1 X116.525 Y122.118 E.53384
G1 X115.939 Y122.391 E.03267
G1 X108.468 Y114.921 E.53387
G1 X107.882 Y115.194 E.03267
G1 X115.353 Y122.665 E.53391
G1 X114.767 Y122.938 E.03267
G1 X107.296 Y115.467 E.53391
G1 X106.71 Y115.741 E.03269
G1 X114.181 Y123.211 E.53387
G1 X113.594 Y123.485 E.03274
G1 X106.124 Y116.014 E.53387
G1 X105.537 Y116.287 E.03271
G1 X113.008 Y123.758 E.53391
G1 X112.422 Y124.031 E.03267
G1 X104.951 Y116.56 E.53391
G1 X104.365 Y116.834 E.03269
G1 X111.836 Y124.305 E.53391
G1 X111.25 Y124.578 E.03267
G1 X103.779 Y117.107 E.53391
G1 X103.193 Y117.38 E.03267
