; generated by PrusaSlicer 2.6.0+linux-x64-GTK3 on 2023-08-30 at 23:56:33 UTC


;
;
; 

; external perimeters extrusion width = 0.45mm
; perimeters extrusion width = 0.45mm
; infill extrusion width = 0.45mm
; solid infill extrusion width = 0.45mm
; top infill extrusion width = 0.40mm
; first layer extrusion width = 0.42mm

M73 P0 R103
M73 C49
M73 Q0 S104
M73 D49
M201 X1000 Y1000 Z200 E5000 ; sets maximum accelerations, mm/sec^2
M203 X200 Y200 Z12 E120 ; sets maximum feedrates, mm / sec
M204 S1250 T1250 ; sets acceleration (S) and retract acceleration (R), mm/sec^2
M205 X8.00 Y8.00 Z0.40 E4.50 ; sets the jerk limits, mm/sec
M205 S0 T0 ; sets the minimum extruding and travel feed rate, mm/sec
;TYPE:Custom
M862.3 P "MK3S" ; printer model check
M862.1 P0.4 ; nozzle diameter check
M115 U3.13.0 ; tell printer latest fw version
G90 ; use absolute coordinates
M83 ; extruder relative mode
M104 S215 ; set extruder temp
M140 S60 ; set bed temp
M190 S60 ; wait for bed temp
M109 S215 ; wait for extruder temp
G28 W ; home all without mesh bed level
G80 ; mesh bed leveling

G1 Z0.2 F720
G1 Y-3 F1000 ; go outside print area
G92 E0
G1 X60 E9 F1000 ; intro line
G1 X100 E12.5 F1000 ; intro line

G92 E0
M221 S95

; Don't change E values below. Excessive value can damage the printer.
M907 E430 ; set extruder motor current
G21 ; set units to millimeters
G90 ; use absolute coordinates
M83 ; use relative distances for extrusion
M900 K0.05 ; Filament gcode LA 1.5
M900 K30 ; Filament gcode LA 1.0
M107
;LAYER_CHANGE
;Z:0.2
;HEIGHT:0.2
;BEFORE_LAYER_CHANGE
G92 E0.0
;0.2


G1 E-.8 F2100
G1 Z.4 F720
;AFTER_LAYER_CHANGE
;0.2
G1 X43.06 Y87.067 F10800
G1 Z.2 F720
G1 E.8 F2100
M204 S800
;TYPE:Skirt/Brim
;WIDTH:0.42
G1 F1200
G1 X44 Y86.873 E.03009
G1 X206 Y86.873 E5.0794
G1 X207.307 Y87.265 E.04278
M73 C48
G1 X208.183 Y88.31 E.04275
G1 X208.377 Y89.25 E.03009
G1 X208.377 Y120.75 E.98766
G1 X207.985 Y122.057 E.04278
G1 X206.94 Y122.933 E.04275
G1 X206 Y123.127 E.03009
G1 X44 Y123.127 E5.0794
G1 X42.693 Y122.735 E.04278
G1 X41.817 Y121.69 E.04275
G1 X41.623 Y120.75 E.03009
G1 X41.623 Y89.25 E.98766
G1 X42.015 Y87.943 E.04278
G1 X43.014 Y87.105 E.04088
M204 S1000
; printing object V3_LI-Strip.stl id:0 copy 0
;WIPE_START
G1 F8640
G1 X44 Y86.873 E-.23389
G1 X46.452 Y86.873 E-.56611
;WIPE_END
G1 Z.6 F720
G1 X204.459 Y119.209 F10800
G1 Z.2 F720
M73 Q0 S103
M73 D48
G1 E.8 F2100
M204 S800
;TYPE:Perimeter
;WIDTH:0.419999
G1 F1200
G1 X45.541 Y119.209 E4.98275
G1 X45.541 Y90.791 E.89102
G1 X204.459 Y90.791 E4.98275
G1 X204.459 Y119.149 E.88914
M204 S1000
G1 X204.836 Y119.586 F10800
M204 S800
M73 P0 R102
G1 F1200
G1 X45.164 Y119.586 E5.0064
G1 X45.164 Y90.414 E.91467
G1 X204.836 Y90.414 E5.0064
G1 X204.836 Y119.526 E.91278
M204 S1000
M73 P1 R102
M73 Q1 S103
G1 X205.213 Y119.963 F10800
M204 S800
G1 F1200
G1 X44.787 Y119.963 E5.03004
G1 X44.787 Y90.037 E.93831
M73 C47
G1 X205.213 Y90.037 E5.03004
G1 X205.213 Y119.903 E.93643
M204 S1000
G1 X205.59 Y120.34 F10800
M204 S800
;TYPE:External perimeter
G1 F1200
G1 X44.41 Y120.34 E5.05368
G1 X44.41 Y89.66 E.96195
M73 Q1 S102
M73 D47
G1 X205.59 Y89.66 E5.05368
G1 X205.59 Y120.28 E.96007
M204 S1000
G1 X205.191 Y120.315 F10800
;WIPE_START
G1 F8640
G1 X202.125 Y120.281 E-.8
;WIPE_END
G1 Z.6 F720
G1 X204.289 Y91.724 F10800
G1 Z.2 F720
G1 E.8 F2100
M204 S800
;TYPE:Solid infill
;WIDTH:0.420175
G1 F1200
G1 X203.696 Y91.131 E.02631
G1 X203.163 Y91.131 E.01672
G1 X204.119 Y92.087 E.04241
G1 X204.119 Y92.621 E.01675
G1 X202.629 Y91.131 E.0661
G1 X202.096 Y91.131 E.01672
G1 X204.119 Y93.154 E.08974
G1 X204.119 Y93.688 E.01675
G1 X201.562 Y91.131 E.11343
G1 X201.029 Y91.131 E.01672
G1 X204.119 Y94.221 E.13708
G1 X204.119 Y94.755 E.01675
G1 X200.495 Y91.131 E.16077
G1 X199.961 Y91.131 E.01675
M73 P1 R101
G1 X204.119 Y95.289 E.18446
G1 X204.119 Y95.822 E.01672
G1 X199.428 Y91.131 E.2081
G1 X198.894 Y91.131 E.01675
G1 X204.119 Y96.356 E.23179
G1 X204.119 Y96.889 E.01672
G1 X198.361 Y91.131 E.25544
G1 X197.827 Y91.131 E.01675
G1 X204.119 Y97.423 E.27913
G1 X204.119 Y97.956 E.01672
G1 X197.294 Y91.131 E.30277
G1 X196.76 Y91.131 E.01675
G1 X204.119 Y98.49 E.32646
G1 X204.119 Y99.023 E.01672
G1 X196.227 Y91.131 E.35011
G1 X195.693 Y91.131 E.01675
G1 X204.119 Y99.557 E.3738
G1 X204.119 Y100.09 E.01672
G1 X195.16 Y91.131 E.39744
G1 X194.626 Y91.131 E.01675
G1 X204.119 Y100.624 E.42113
G1 X204.119 Y101.157 E.01672
G1 X194.093 Y91.131 E.44478
G1 X193.559 Y91.131 E.01675
G1 X204.119 Y101.691 E.46847
G1 X204.119 Y102.224 E.01672
G1 X193.026 Y91.131 E.49211
G1 X192.492 Y91.131 E.01675
G1 X204.119 Y102.758 E.5158
G1 X204.119 Y103.291 E.01672
G1 X191.959 Y91.131 E.53945
G1 X191.425 Y91.131 E.01675
G1 X204.119 Y103.825 E.56314
G1 X204.119 Y104.358 E.01672
G1 X190.892 Y91.131 E.58678
G1 X190.358 Y91.131 E.01675
G1 X204.119 Y104.892 E.61047
G1 X204.119 Y105.425 E.01672
G1 X189.825 Y91.131 E.63411
G1 X189.291 Y91.131 E.01675
G1 X204.119 Y105.959 E.6578
G1 X204.119 Y106.492 E.01672
G1 X188.758 Y91.131 E.68145
G1 X188.224 Y91.131 E.01675
G1 X204.119 Y107.026 E.70514
G1 X204.119 Y107.559 E.01672
G1 X187.691 Y91.131 E.72878
G1 X187.157 Y91.131 E.01675
M73 P2 R101
M73 Q2 S102
G1 X204.119 Y108.093 E.75247
G1 X204.119 Y108.626 E.01672
G1 X186.624 Y91.131 E.77612
G1 X186.09 Y91.131 E.01675
G1 X204.119 Y109.16 E.79981
G1 X204.119 Y109.694 E.01675
G1 X185.556 Y91.131 E.8235
G1 X185.023 Y91.131 E.01672
G1 X204.119 Y110.227 E.84714
G1 X204.119 Y110.761 E.01675
G1 X184.489 Y91.131 E.87083
G1 X183.956 Y91.131 E.01672
G1 X204.119 Y111.294 E.89448
G1 X204.119 Y111.828 E.01675
M73 C46
G1 X183.422 Y91.131 E.91817
G1 X182.889 Y91.131 E.01672
G1 X204.119 Y112.361 E.94181
G1 X204.119 Y112.895 E.01675
G1 X182.355 Y91.131 E.9655
G1 X181.822 Y91.131 E.01672
G1 X204.119 Y113.428 E.98915
G1 X204.119 Y113.962 E.01675
G1 X181.288 Y91.131 E1.01284
G1 X180.755 Y91.131 E.01672
G1 X204.119 Y114.495 E1.03648
G1 X204.119 Y115.029 E.01675
G1 X180.221 Y91.131 E1.06017
G1 X179.688 Y91.131 E.01672
G1 X204.119 Y115.562 E1.08382
G1 X204.119 Y116.096 E.01675
M73 D46
G1 X179.154 Y91.131 E1.1075
G1 X178.621 Y91.131 E.01672
M73 Q2 S101
G1 X204.119 Y116.629 E1.13115
G1 X204.119 Y117.163 E.01675
G1 X178.087 Y91.131 E1.15484
G1 X177.554 Y91.131 E.01672
G1 X204.119 Y117.696 E1.17848
G1 X204.119 Y118.23 E.01675
G1 X177.02 Y91.131 E1.20217
G1 X176.487 Y91.131 E.01672
G1 X204.119 Y118.763 E1.22582
G1 X204.119 Y118.869 E.00333
G1 X203.692 Y118.869 E.01339
G1 X175.953 Y91.131 E1.23054
G1 X175.42 Y91.131 E.01672
G1 X203.158 Y118.869 E1.23052
G1 X202.625 Y118.869 E.01672
G1 X174.886 Y91.131 E1.23054
G1 X174.353 Y91.131 E.01672
G1 X202.091 Y118.869 E1.23052
G1 X201.558 Y118.869 E.01672
M73 P2 R100
G1 X173.819 Y91.131 E1.23054
G1 X173.286 Y91.131 E.01672
G1 X201.024 Y118.869 E1.23052
G1 X200.491 Y118.869 E.01672
G1 X172.752 Y91.131 E1.23054
G1 X172.218 Y91.131 E.01675
G1 X199.957 Y118.869 E1.23054
G1 X199.424 Y118.869 E.01672
G1 X171.685 Y91.131 E1.23054
G1 X171.151 Y91.131 E.01675
G1 X198.89 Y118.869 E1.23054
G1 X198.357 Y118.869 E.01672
G1 X170.618 Y91.131 E1.23054
G1 X170.084 Y91.131 E.01675
G1 X197.823 Y118.869 E1.23054
G1 X197.29 Y118.869 E.01672
G1 X169.551 Y91.131 E1.23054
G1 X169.017 Y91.131 E.01675
G1 X196.756 Y118.869 E1.23054
G1 X196.223 Y118.869 E.01672
M73 P3 R100
G1 X168.484 Y91.131 E1.23054
G1 X167.95 Y91.131 E.01675
M73 Q3 S101
G1 X195.689 Y118.869 E1.23054
G1 X195.156 Y118.869 E.01672
G1 X167.417 Y91.131 E1.23054
G1 X166.883 Y91.131 E.01675
G1 X194.622 Y118.869 E1.23054
G1 X194.089 Y118.869 E.01672
M73 C45
G1 X166.35 Y91.131 E1.23054
G1 X165.816 Y91.131 E.01675
G1 X193.555 Y118.869 E1.23054
G1 X193.022 Y118.869 E.01672
G1 X165.283 Y91.131 E1.23054
G1 X164.749 Y91.131 E.01675
G1 X192.488 Y118.869 E1.23054
G1 X191.954 Y118.869 E.01675
G1 X164.216 Y91.131 E1.23052
G1 X163.682 Y91.131 E.01675
G1 X191.421 Y118.869 E1.23054
G1 X190.887 Y118.869 E.01675
G1 X163.149 Y91.131 E1.23052
G1 X162.615 Y91.131 E.01675
M73 Q3 S100
M73 D45
G1 X190.354 Y118.869 E1.23054
G1 X189.82 Y118.869 E.01675
G1 X162.082 Y91.131 E1.23052
G1 X161.548 Y91.131 E.01675
G1 X189.287 Y118.869 E1.23054
G1 X188.753 Y118.869 E.01675
G1 X161.015 Y91.131 E1.23052
G1 X160.481 Y91.131 E.01675
G1 X188.22 Y118.869 E1.23054
G1 X187.686 Y118.869 E.01675
G1 X159.948 Y91.131 E1.23052
G1 X159.414 Y91.131 E.01675
G1 X187.153 Y118.869 E1.23054
G1 X186.619 Y118.869 E.01675
G1 X158.881 Y91.131 E1.23052
G1 X158.347 Y91.131 E.01675
G1 X186.086 Y118.869 E1.23054
G1 X185.552 Y118.869 E.01675
M73 P3 R99
G1 X157.813 Y91.131 E1.23054
G1 X157.28 Y91.131 E.01672
G1 X185.019 Y118.869 E1.23054
G1 X184.485 Y118.869 E.01675
G1 X156.746 Y91.131 E1.23054
G1 X156.213 Y91.131 E.01672
G1 X183.952 Y118.869 E1.23054
G1 X183.418 Y118.869 E.01675
G1 X155.679 Y91.131 E1.23054
G1 X155.146 Y91.131 E.01672
G1 X182.885 Y118.869 E1.23054
G1 X182.351 Y118.869 E.01675
G1 X154.612 Y91.131 E1.23054
G1 X154.079 Y91.131 E.01672
G1 X181.818 Y118.869 E1.23054
G1 X181.284 Y118.869 E.01675
G1 X153.545 Y91.131 E1.23054
G1 X153.012 Y91.131 E.01672
G1 X180.751 Y118.869 E1.23054
G1 X180.217 Y118.869 E.01675
G1 X152.478 Y91.131 E1.23054
G1 X151.945 Y91.131 E.01672
M73 P4 R99
G1 X179.684 Y118.869 E1.23054
G1 X179.15 Y118.869 E.01675
M73 Q4 S100
G1 X151.411 Y91.131 E1.23054
G1 X150.878 Y91.131 E.01672
G1 X178.617 Y118.869 E1.23054
G1 X178.083 Y118.869 E.01675
M73 C44
G1 X150.344 Y91.131 E1.23054
G1 X149.811 Y91.131 E.01672
G1 X177.549 Y118.869 E1.23052
G1 X177.016 Y118.869 E.01672
G1 X149.277 Y91.131 E1.23054
G1 X148.744 Y91.131 E.01672
G1 X176.482 Y118.869 E1.23052
G1 X175.949 Y118.869 E.01672
G1 X148.21 Y91.131 E1.23054
G1 X147.677 Y91.131 E.01672
G1 X175.415 Y118.869 E1.23052
G1 X174.882 Y118.869 E.01672
G1 X147.143 Y91.131 E1.23054
G1 X146.61 Y91.131 E.01672
M73 Q4 S99
M73 D44
G1 X174.348 Y118.869 E1.23052
G1 X173.815 Y118.869 E.01672
G1 X146.076 Y91.131 E1.23054
G1 X145.543 Y91.131 E.01672
G1 X173.281 Y118.869 E1.23052
G1 X172.748 Y118.869 E.01672
G1 X145.009 Y91.131 E1.23054
G1 X144.476 Y91.131 E.01672
G1 X172.214 Y118.869 E1.23052
G1 X171.681 Y118.869 E.01672
G1 X143.942 Y91.131 E1.23054
G1 X143.408 Y91.131 E.01675
G1 X171.147 Y118.869 E1.23054
G1 X170.614 Y118.869 E.01672
G1 X142.875 Y91.131 E1.23054
G1 X142.341 Y91.131 E.01675
G1 X170.08 Y118.869 E1.23054
G1 X169.547 Y118.869 E.01672
M73 P4 R98
G1 X141.808 Y91.131 E1.23054
G1 X141.274 Y91.131 E.01675
G1 X169.013 Y118.869 E1.23054
G1 X168.48 Y118.869 E.01672
G1 X140.741 Y91.131 E1.23054
G1 X140.207 Y91.131 E.01675
G1 X167.946 Y118.869 E1.23054
G1 X167.413 Y118.869 E.01672
G1 X139.674 Y91.131 E1.23054
G1 X139.14 Y91.131 E.01675
G1 X166.879 Y118.869 E1.23054
G1 X166.346 Y118.869 E.01672
G1 X138.607 Y91.131 E1.23054
G1 X138.073 Y91.131 E.01675
G1 X165.812 Y118.869 E1.23054
G1 X165.279 Y118.869 E.01672
G1 X137.54 Y91.131 E1.23054
G1 X137.006 Y91.131 E.01675
G1 X164.745 Y118.869 E1.23054
G1 X164.212 Y118.869 E.01672
G1 X136.473 Y91.131 E1.23054
G1 X135.939 Y91.131 E.01675
G1 X163.678 Y118.869 E1.23054
G1 X163.144 Y118.869 E.01675
G1 X135.406 Y91.131 E1.23052
G1 X134.872 Y91.131 E.01675
M73 P5 R98
M73 Q5 S99
G1 X162.611 Y118.869 E1.23054
G1 X162.077 Y118.869 E.01675
M73 C43
G1 X134.339 Y91.131 E1.23052
G1 X133.805 Y91.131 E.01675
G1 X161.544 Y118.869 E1.23054
G1 X161.01 Y118.869 E.01675
G1 X133.272 Y91.131 E1.23052
G1 X132.738 Y91.131 E.01675
G1 X160.477 Y118.869 E1.23054
G1 X159.943 Y118.869 E.01675
G1 X132.205 Y91.131 E1.23052
G1 X131.671 Y91.131 E.01675
G1 X159.41 Y118.869 E1.23054
G1 X158.876 Y118.869 E.01675
G1 X131.138 Y91.131 E1.23052
G1 X130.604 Y91.131 E.01675
M73 Q5 S98
M73 D43
G1 X158.343 Y118.869 E1.23054
G1 X157.809 Y118.869 E.01675
G1 X130.07 Y91.131 E1.23054
G1 X129.537 Y91.131 E.01672
G1 X157.276 Y118.869 E1.23054
G1 X156.742 Y118.869 E.01675
G1 X129.003 Y91.131 E1.23054
G1 X128.47 Y91.131 E.01672
G1 X156.209 Y118.869 E1.23054
G1 X155.675 Y118.869 E.01675
G1 X127.936 Y91.131 E1.23054
G1 X127.403 Y91.131 E.01672
G1 X155.142 Y118.869 E1.23054
G1 X154.608 Y118.869 E.01675
G1 X126.869 Y91.131 E1.23054
G1 X126.336 Y91.131 E.01672
G1 X154.075 Y118.869 E1.23054
G1 X153.541 Y118.869 E.01675
M73 P5 R97
G1 X125.802 Y91.131 E1.23054
G1 X125.269 Y91.131 E.01672
G1 X153.008 Y118.869 E1.23054
G1 X152.474 Y118.869 E.01675
G1 X124.735 Y91.131 E1.23054
G1 X124.202 Y91.131 E.01672
G1 X151.941 Y118.869 E1.23054
G1 X151.407 Y118.869 E.01675
G1 X123.668 Y91.131 E1.23054
G1 X123.135 Y91.131 E.01672
G1 X150.874 Y118.869 E1.23054
G1 X150.34 Y118.869 E.01675
G1 X122.601 Y91.131 E1.23054
G1 X122.068 Y91.131 E.01672
G1 X149.806 Y118.869 E1.23052
G1 X149.273 Y118.869 E.01672
G1 X121.534 Y91.131 E1.23054
G1 X121.001 Y91.131 E.01672
G1 X148.739 Y118.869 E1.23052
G1 X148.206 Y118.869 E.01672
G1 X120.467 Y91.131 E1.23054
G1 X119.934 Y91.131 E.01672
G1 X147.672 Y118.869 E1.23052
G1 X147.139 Y118.869 E.01672
G1 X119.4 Y91.131 E1.23054
G1 X118.867 Y91.131 E.01672
G1 X146.605 Y118.869 E1.23052
G1 X146.072 Y118.869 E.01672
M73 P6 R97
M73 C42
M73 Q6 S98
G1 X118.333 Y91.131 E1.23054
G1 X117.8 Y91.131 E.01672
G1 X145.538 Y118.869 E1.23052
G1 X145.005 Y118.869 E.01672
G1 X117.266 Y91.131 E1.23054
G1 X116.733 Y91.131 E.01672
G1 X144.471 Y118.869 E1.23052
G1 X143.938 Y118.869 E.01672
G1 X116.199 Y91.131 E1.23054
G1 X115.665 Y91.131 E.01675
G1 X143.404 Y118.869 E1.23054
G1 X142.871 Y118.869 E.01672
M73 D42
G1 X115.132 Y91.131 E1.23054
G1 X114.598 Y91.131 E.01675
M73 Q6 S97
G1 X142.337 Y118.869 E1.23054
G1 X141.804 Y118.869 E.01672
G1 X114.065 Y91.131 E1.23054
G1 X113.531 Y91.131 E.01675
G1 X141.27 Y118.869 E1.23054
G1 X140.737 Y118.869 E.01672
G1 X112.998 Y91.131 E1.23054
G1 X112.464 Y91.131 E.01675
G1 X140.203 Y118.869 E1.23054
G1 X139.67 Y118.869 E.01672
G1 X111.931 Y91.131 E1.23054
G1 X111.397 Y91.131 E.01675
G1 X139.136 Y118.869 E1.23054
G1 X138.603 Y118.869 E.01672
G1 X110.864 Y91.131 E1.23054
G1 X110.33 Y91.131 E.01675
G1 X138.069 Y118.869 E1.23054
G1 X137.536 Y118.869 E.01672
M73 P6 R96
G1 X109.797 Y91.131 E1.23054
G1 X109.263 Y91.131 E.01675
G1 X137.002 Y118.869 E1.23054
G1 X136.469 Y118.869 E.01672
G1 X108.73 Y91.131 E1.23054
G1 X108.196 Y91.131 E.01675
G1 X135.935 Y118.869 E1.23054
G1 X135.401 Y118.869 E.01675
G1 X107.663 Y91.131 E1.23052
G1 X107.129 Y91.131 E.01675
G1 X134.868 Y118.869 E1.23054
G1 X134.334 Y118.869 E.01675
G1 X106.596 Y91.131 E1.23052
G1 X106.062 Y91.131 E.01675
G1 X133.801 Y118.869 E1.23054
G1 X133.267 Y118.869 E.01675
G1 X105.529 Y91.131 E1.23052
G1 X104.995 Y91.131 E.01675
G1 X132.734 Y118.869 E1.23054
G1 X132.2 Y118.869 E.01675
G1 X104.462 Y91.131 E1.23052
G1 X103.928 Y91.131 E.01675
G1 X131.667 Y118.869 E1.23054
G1 X131.133 Y118.869 E.01675
G1 X103.395 Y91.131 E1.23052
G1 X102.861 Y91.131 E.01675
G1 X130.6 Y118.869 E1.23054
G1 X130.066 Y118.869 E.01675
M73 C41
G1 X102.327 Y91.131 E1.23054
G1 X101.794 Y91.131 E.01672
M73 P7 R96
G1 X129.533 Y118.869 E1.23054
G1 X128.999 Y118.869 E.01675
M73 Q7 S97
G1 X101.26 Y91.131 E1.23054
G1 X100.727 Y91.131 E.01672
G1 X128.466 Y118.869 E1.23054
G1 X127.932 Y118.869 E.01675
G1 X100.193 Y91.131 E1.23054
G1 X99.66 Y91.131 E.01672
G1 X127.399 Y118.869 E1.23054
G1 X126.865 Y118.869 E.01675
M73 D41
G1 X99.126 Y91.131 E1.23054
G1 X98.593 Y91.131 E.01672
M73 Q7 S96
G1 X126.332 Y118.869 E1.23054
G1 X125.798 Y118.869 E.01675
G1 X98.059 Y91.131 E1.23054
G1 X97.526 Y91.131 E.01672
G1 X125.265 Y118.869 E1.23054
G1 X124.731 Y118.869 E.01675
G1 X96.992 Y91.131 E1.23054
G1 X96.459 Y91.131 E.01672
G1 X124.198 Y118.869 E1.23054
G1 X123.664 Y118.869 E.01675
G1 X95.925 Y91.131 E1.23054
G1 X95.392 Y91.131 E.01672
G1 X123.131 Y118.869 E1.23054
G1 X122.597 Y118.869 E.01675
G1 X94.858 Y91.131 E1.23054
G1 X94.325 Y91.131 E.01672
G1 X122.063 Y118.869 E1.23052
G1 X121.53 Y118.869 E.01672
M73 P7 R95
G1 X93.791 Y91.131 E1.23054
G1 X93.258 Y91.131 E.01672
G1 X120.996 Y118.869 E1.23052
G1 X120.463 Y118.869 E.01672
G1 X92.724 Y91.131 E1.23054
G1 X92.191 Y91.131 E.01672
G1 X119.929 Y118.869 E1.23052
G1 X119.396 Y118.869 E.01672
G1 X91.657 Y91.131 E1.23054
G1 X91.124 Y91.131 E.01672
G1 X118.862 Y118.869 E1.23052
G1 X118.329 Y118.869 E.01672
G1 X90.59 Y91.131 E1.23054
G1 X90.057 Y91.131 E.01672
